; G-Code generated by Simplify3D(R) Version 4.0.1
; Dec 16, 2019 at 12:23:53 PM
; Settings Summary
;   processName,Process1
;   applyToModels,Carriage_Base
;   profileName,Default (modified)
;   profileVersion,2017-03-01 08:00:00
;   baseProfile,
;   printMaterial,PLA
;   printQuality,Medium
;   printExtruders,
;   extruderName,Primary Extruder
;   extruderToolheadNumber,0
;   extruderDiameter,0.4
;   extruderAutoWidth,0
;   extruderWidth,0.4
;   extrusionMultiplier,0.9
;   extruderUseRetract,1
;   extruderRetractionDistance,1
;   extruderExtraRestartDistance,0
;   extruderRetractionZLift,0
;   extruderRetractionSpeed,1800
;   extruderUseCoasting,0
;   extruderCoastingDistance,0.2
;   extruderUseWipe,0
;   extruderWipeDistance,5
;   primaryExtruder,0
;   layerHeight,0.3
;   topSolidLayers,6
;   bottomSolidLayers,6
;   perimeterOutlines,6
;   printPerimetersInsideOut,1
;   startPointOption,2
;   startPointOriginX,0
;   startPointOriginY,0
;   sequentialIslands,0
;   spiralVaseMode,0
;   firstLayerHeightPercentage,100
;   firstLayerWidthPercentage,100
;   firstLayerUnderspeed,0.5
;   useRaft,0
;   raftExtruder,0
;   raftTopLayers,3
;   raftBaseLayers,2
;   raftOffset,3
;   raftSeparationDistance,0.14
;   raftTopInfill,100
;   aboveRaftSpeedMultiplier,0.3
;   useSkirt,1
;   skirtExtruder,0
;   skirtLayers,1
;   skirtOutlines,4
;   skirtOffset,4
;   usePrimePillar,0
;   primePillarExtruder,999
;   primePillarWidth,12
;   primePillarLocation,7
;   primePillarSpeedMultiplier,1
;   useOozeShield,0
;   oozeShieldExtruder,999
;   oozeShieldOffset,2
;   oozeShieldOutlines,1
;   oozeShieldSidewallShape,1
;   oozeShieldSidewallAngle,30
;   oozeShieldSpeedMultiplier,1
;   infillExtruder,0
;   internalInfillPattern,Full Honeycomb
;   externalInfillPattern,Rectilinear
;   infillPercentage,20
;   outlineOverlapPercentage,15
;   infillExtrusionWidthPercentage,100
;   minInfillLength,5
;   infillLayerInterval,1
;   internalInfillAngles,0,120,-120
;   overlapInternalInfillAngles,0
;   externalInfillAngles,45,-45
;   generateSupport,0
;   supportExtruder,0
;   supportInfillPercentage,30
;   supportExtraInflation,0
;   supportBaseLayers,0
;   denseSupportExtruder,0
;   denseSupportLayers,0
;   denseSupportInfillPercentage,70
;   supportLayerInterval,1
;   supportHorizontalPartOffset,0.3
;   supportUpperSeparationLayers,1
;   supportLowerSeparationLayers,1
;   supportType,0
;   supportGridSpacing,4
;   maxOverhangAngle,45
;   supportAngles,0
;   temperatureName,Primary Extruder,Bed
;   temperatureNumber,0,0
;   temperatureSetpointCount,1,1
;   temperatureSetpointLayers,1,1
;   temperatureSetpointTemperatures,205,65
;   temperatureStabilizeAtStartup,1,1
;   temperatureHeatedBed,0,1
;   temperatureRelayBetweenLayers,0,0
;   temperatureRelayBetweenLoops,0,0
;   fanLayers,1,2
;   fanSpeeds,0,100
;   blipFanToFullPower,0
;   adjustSpeedForCooling,1
;   minSpeedLayerTime,15
;   minCoolingSpeedSlowdown,20
;   increaseFanForCooling,0
;   minFanLayerTime,45
;   maxCoolingFanSpeed,100
;   increaseFanForBridging,0
;   bridgingFanSpeed,100
;   use5D,1
;   relativeEdistances,0
;   allowEaxisZeroing,1
;   independentExtruderAxes,0
;   includeM10123,0
;   stickySupport,1
;   applyToolheadOffsets,0
;   gcodeXoffset,0
;   gcodeYoffset,0
;   gcodeZoffset,0
;   overrideMachineDefinition,0
;   machineTypeOverride,0
;   strokeXoverride,200
;   strokeYoverride,200
;   strokeZoverride,200
;   originOffsetXoverride,0
;   originOffsetYoverride,0
;   originOffsetZoverride,0
;   homeXdirOverride,-1
;   homeYdirOverride,-1
;   homeZdirOverride,-1
;   flipXoverride,1
;   flipYoverride,-1
;   flipZoverride,1
;   toolheadOffsets,0,0|0,0|0,0|0,0|0,0|0,0
;   overrideFirmwareConfiguration,0
;   firmwareTypeOverride,RepRap (Marlin/Repetier/Sprinter)
;   GPXconfigOverride,r2
;   baudRateOverride,115200
;   overridePrinterModels,0
;   printerModelsOverride
;   startingGcode,G28 ; home all axes
;   layerChangeGcode,
;   retractionGcode,
;   toolChangeGcode,
;   endingGcode,M104 S0 ; turn off extruder,M140 S0 ; turn off bed,M84 ; disable motors
;   exportFileFormat,gcode
;   celebration,0
;   celebrationSong,Random Song
;   postProcessing,
;   defaultSpeed,3600
;   outlineUnderspeed,0.5
;   solidInfillUnderspeed,0.8
;   supportUnderspeed,0.8
;   rapidXYspeed,4800
;   rapidZspeed,1002
;   minBridgingArea,50
;   bridgingExtraInflation,0
;   bridgingExtrusionMultiplier,1
;   bridgingSpeedMultiplier,1
;   useFixedBridgingAngle,0
;   fixedBridgingAngle,0
;   applyBridgingToPerimeters,0
;   filamentDiameters,1.75|1.75|1.75|1.75|1.75|1.75
;   filamentPricesPerKg,46|46|46|46|46|46
;   filamentDensities,1.25|1.25|1.25|1.25|1.25|1.25
;   useMinPrintHeight,0
;   minPrintHeight,0
;   useMaxPrintHeight,0
;   maxPrintHeight,0
;   useDiaphragm,0
;   diaphragmLayerInterval,20
;   robustSlicing,1
;   mergeAllIntoSolid,0
;   onlyRetractWhenCrossingOutline,1
;   retractBetweenLayers,1
;   useRetractionMinTravel,0
;   retractionMinTravel,3
;   retractWhileWiping,0
;   onlyWipeOutlines,1
;   avoidCrossingOutline,0
;   maxMovementDetourFactor,3
;   toolChangeRetractionDistance,12
;   toolChangeExtraRestartDistance,-0.5
;   toolChangeRetractionSpeed,600
;   externalThinWallType,0
;   internalThinWallType,2
;   thinWallAllowedOverlapPercentage,10
;   singleExtrusionMinLength,1
;   singleExtrusionMinPrintingWidthPercentage,50
;   singleExtrusionMaxPrintingWidthPercentage,200
;   singleExtrusionEndpointExtension,0.2
;   horizontalSizeCompensation,0
G90
M82
M106 S0
M140 S65
M190 S65
M104 S205 T0
M109 S205 T0
G28 ; home all axes
G92 E0
G1 E-1.0000 F1800
G1 Z0.300 F1002
; process Process1
; layer 1, Z = 0.300
T0
; tool H0.300 W0.400
; skirt
G1 X123.550 Y134.813 F4800
G1 E0.0000 F540
G92 E0
G1 X124.065 Y134.600 E0.0250 F1800
G1 X155.935 Y134.600 E1.4560
G1 X156.450 Y134.813 E1.4810
G1 X158.000 Y136.363 E1.5795
G1 X159.550 Y134.813 E1.6779
G1 X160.065 Y134.600 E1.7029
G1 X177.876 Y134.600 E2.5027
G1 X178.378 Y134.801 E2.5269
G1 X181.089 Y137.395 E2.6954
G1 X181.312 Y137.888 E2.7197
G1 X181.321 Y138.100 E2.7292
G1 X185.935 Y138.100 E2.9364
G1 X186.450 Y138.313 E2.9614
G1 X189.187 Y141.050 E3.1352
G1 X189.400 Y141.565 E3.1602
G1 X189.400 Y168.435 E4.3667
G1 X189.187 Y168.950 E4.3917
G1 X186.450 Y171.687 E4.5655
G1 X185.935 Y171.900 E4.5906
G1 X181.251 Y171.900 E4.8009
G1 X181.217 Y172.290 E4.8184
G1 X180.984 Y172.760 E4.8420
G1 X178.304 Y175.210 E5.0050
G1 X177.815 Y175.400 E5.0286
G1 X160.065 Y175.400 E5.8256
G1 X159.550 Y175.187 E5.8506
G1 X158.000 Y173.637 E5.9490
G1 X156.450 Y175.187 E6.0475
G1 X155.935 Y175.400 E6.0725
G1 X124.065 Y175.400 E7.5035
G1 X123.550 Y175.187 E7.5285
G1 X120.813 Y172.450 E7.7023
G1 X120.600 Y171.935 E7.7273
G1 X120.600 Y138.065 E9.2482
G1 X120.813 Y137.550 E9.2732
G1 X123.550 Y134.813 E9.4470
G1 X123.777 Y135.152 F4800
G92 E0
G1 X124.144 Y135.000 E0.0179 F1800
G1 X155.856 Y135.000 E1.4417
G1 X156.223 Y135.152 E1.4596
G1 X158.000 Y136.929 E1.5724
G1 X159.777 Y135.152 E1.6852
G1 X160.144 Y135.000 E1.7031
G1 X177.799 Y135.000 E2.4958
G1 X178.157 Y135.144 E2.5132
G1 X180.756 Y137.631 E2.6747
G1 X180.916 Y137.983 E2.6920
G1 X180.939 Y138.500 E2.7153
G1 X185.856 Y138.500 E2.9361
G1 X186.223 Y138.652 E2.9539
G1 X188.848 Y141.277 E3.1206
G1 X189.000 Y141.644 E3.1384
G1 X189.000 Y168.356 E4.3378
G1 X188.848 Y168.723 E4.3557
G1 X186.223 Y171.348 E4.5223
G1 X185.856 Y171.500 E4.5402
G1 X180.886 Y171.500 E4.7634
G1 X180.825 Y172.179 E4.7940
G1 X180.659 Y172.515 E4.8108
G1 X178.090 Y174.864 E4.9671
G1 X177.741 Y175.000 E4.9839
G1 X160.144 Y175.000 E5.7740
G1 X159.777 Y174.848 E5.7919
G1 X158.000 Y173.071 E5.9047
G1 X156.223 Y174.848 E6.0175
G1 X155.856 Y175.000 E6.0354
G1 X124.144 Y175.000 E7.4593
G1 X123.777 Y174.848 E7.4771
G1 X121.152 Y172.223 E7.6438
G1 X121.000 Y171.856 E7.6617
G1 X121.000 Y138.144 E9.1753
G1 X121.152 Y137.777 E9.1932
G1 X123.777 Y135.152 E9.3599
G1 X124.003 Y135.491 F4800
G92 E0
G1 X124.224 Y135.400 E0.0107 F1800
G1 X155.776 Y135.400 E1.4275
G1 X155.997 Y135.491 E1.4382
G1 X158.000 Y137.495 E1.5654
G1 X160.003 Y135.491 E1.6926
G1 X160.224 Y135.400 E1.7033
G1 X177.721 Y135.400 E2.4890
G1 X177.936 Y135.486 E2.4994
G1 X180.424 Y137.866 E2.6540
G1 X180.520 Y138.077 E2.6644
G1 X180.556 Y138.900 E2.7013
G1 X185.776 Y138.900 E2.9357
G1 X185.997 Y138.991 E2.9464
G1 X188.509 Y141.503 E3.1060
G1 X188.600 Y141.724 E3.1167
G1 X188.600 Y168.276 E4.3089
G1 X188.509 Y168.497 E4.3196
G1 X185.997 Y171.009 E4.4791
G1 X185.776 Y171.100 E4.4898
G1 X180.520 Y171.100 E4.7259
G1 X180.433 Y172.069 E4.7696
G1 X180.333 Y172.271 E4.7796
G1 X177.875 Y174.519 E4.9292
G1 X177.666 Y174.600 E4.9393
G1 X160.224 Y174.600 E5.7225
G1 X160.003 Y174.509 E5.7332
G1 X158.000 Y172.505 E5.8604
G1 X155.997 Y174.509 E5.9876
G1 X155.776 Y174.600 E5.9983
G1 X124.224 Y174.600 E7.4151
G1 X124.003 Y174.509 E7.4258
G1 X121.491 Y171.997 E7.5853
G1 X121.400 Y171.776 E7.5960
G1 X121.400 Y138.224 E9.1025
G1 X121.491 Y138.003 E9.1133
G1 X124.003 Y135.491 E9.2728
G1 X124.230 Y135.830 F4800
G92 E0
G1 X124.303 Y135.800 E0.0036 F1800
G1 X155.697 Y135.800 E1.4132
G1 X155.770 Y135.830 E1.4167
G1 X158.000 Y138.060 E1.5583
G1 X160.230 Y135.830 E1.6999
G1 X160.303 Y135.800 E1.7035
G1 X177.644 Y135.800 E2.4821
G1 X177.716 Y135.829 E2.4856
G1 X180.091 Y138.102 E2.6332
G1 X180.123 Y138.172 E2.6367
G1 X180.173 Y139.300 E2.6874
G1 X185.697 Y139.300 E2.9354
G1 X185.770 Y139.330 E2.9390
G1 X188.170 Y141.730 E3.0913
G1 X188.200 Y141.803 E3.0949
G1 X188.200 Y168.197 E4.2800
G1 X188.170 Y168.270 E4.2836
G1 X185.770 Y170.670 E4.4359
G1 X185.697 Y170.700 E4.4395
G1 X180.154 Y170.700 E4.6884
G1 X180.041 Y171.959 E4.7451
G1 X180.008 Y172.026 E4.7485
G1 X177.661 Y174.173 E4.8913
G1 X177.591 Y174.200 E4.8947
G1 X160.303 Y174.200 E5.6709
G1 X160.230 Y174.170 E5.6745
G1 X158.000 Y171.940 E5.8161
G1 X155.770 Y174.170 E5.9577
G1 X155.697 Y174.200 E5.9612
G1 X124.303 Y174.200 E7.3708
G1 X124.230 Y174.170 E7.3744
G1 X121.830 Y171.770 E7.5268
G1 X121.800 Y171.697 E7.5303
G1 X121.800 Y138.303 E9.0297
G1 X121.830 Y138.230 E9.0333
G1 X124.230 Y135.830 E9.1857
G92 E0
G1 E-1.0000 F1800
; inner perimeter
G1 X128.200 Y142.200 F4800
G1 E0.0000 F1800
G92 E0
G1 X140.859 Y142.200 E0.5684 F1350
G1 X140.859 Y167.800 E1.7179
G1 X128.200 Y167.800 E2.2862
G1 X128.200 Y142.200 E3.4357
G1 X127.800 Y141.800 F4800
G92 E0
G1 X141.259 Y141.800 E0.6043 F1350
G1 X141.259 Y168.200 E1.7897
G1 X127.800 Y168.200 E2.3940
G1 X127.800 Y141.800 E3.5794
G1 X127.400 Y141.400 F4800
G92 E0
G1 X141.659 Y141.400 E0.6402 F1350
G1 X141.659 Y168.600 E1.8615
G1 X127.400 Y168.600 E2.5018
G1 X127.400 Y141.400 E3.7231
G1 X127.000 Y141.000 F4800
G92 E0
G1 X142.059 Y141.000 E0.6761 F1350
G1 X142.059 Y169.000 E1.9334
G1 X127.000 Y169.000 E2.6095
G1 X127.000 Y141.000 E3.8668
G1 X126.600 Y140.600 F4800
G92 E0
G1 X142.459 Y140.600 E0.7121 F1350
G1 X142.459 Y169.400 E2.0052
G1 X126.600 Y169.400 E2.7173
G1 X126.600 Y140.600 E4.0104
; outer perimeter
G1 X126.200 Y140.200 F4800
G92 E0
G1 X142.859 Y140.200 E0.7480 F900
G1 X142.859 Y169.800 E2.0771
G1 X126.200 Y169.800 E2.8251
G1 X126.200 Y140.200 E4.1541
; solid layer
G1 X140.277 Y142.540 F4800
G92 E0
G1 X140.519 Y142.781 E0.0153 F1440
G1 X140.519 Y143.347 E0.0407
G1 X139.712 Y142.540 E0.0920
G1 X139.146 Y142.540 E0.1174
G1 X140.519 Y143.913 E0.2045
G1 X140.519 Y144.478 E0.2299
G1 X138.580 Y142.540 E0.3530
G1 X138.015 Y142.540 E0.3784
G1 X140.519 Y145.044 E0.5374
G1 X140.519 Y145.610 E0.5628
G1 X137.449 Y142.540 E0.7578
G1 X136.883 Y142.540 E0.7832
G1 X140.519 Y146.175 E1.0140
G1 X140.519 Y146.741 E1.0394
G1 X136.317 Y142.540 E1.3062
G1 X135.752 Y142.540 E1.3316
G1 X140.519 Y147.307 E1.6343
G1 X140.519 Y147.872 E1.6597
G1 X135.186 Y142.540 E1.9983
G1 X134.620 Y142.540 E2.0237
G1 X140.519 Y148.438 E2.3982
G1 X140.519 Y149.004 E2.4236
G1 X134.055 Y142.540 E2.8341
G1 X133.489 Y142.540 E2.8595
G1 X140.519 Y149.570 E3.3058
G1 X140.519 Y150.135 E3.3312
G1 X132.923 Y142.540 E3.8135
G1 X132.358 Y142.540 E3.8389
G1 X140.519 Y150.701 E4.3572
G1 X140.519 Y151.267 E4.3826
G1 X131.792 Y142.540 E4.9367
G1 X131.226 Y142.540 E4.9621
G1 X140.519 Y151.832 E5.5522
G1 X140.519 Y152.398 E5.5776
G1 X130.661 Y142.540 E6.2035
G1 X130.095 Y142.540 E6.2289
G1 X140.519 Y152.964 E6.8908
G1 X140.519 Y153.529 E6.9162
G1 X129.529 Y142.540 E7.6141
G1 X128.964 Y142.540 E7.6395
G1 X140.519 Y154.095 E8.3732
G1 X140.519 Y154.661 E8.3986
G1 X128.540 Y142.682 E9.1592
G1 X128.540 Y143.248 E9.1846
G1 X140.519 Y155.226 E9.9453
G1 X140.519 Y155.792 E9.9707
G1 X128.540 Y143.813 E10.7313
G1 X128.540 Y144.379 E10.7567
G1 X140.519 Y156.358 E11.5174
G1 X140.519 Y156.923 E11.5428
G1 X128.540 Y144.945 E12.3034
G1 X128.540 Y145.511 E12.3288
G1 X140.519 Y157.489 E13.0894
G1 X140.519 Y158.055 E13.1148
G1 X128.540 Y146.076 E13.8755
G1 X128.540 Y146.642 E13.9009
G1 X140.519 Y158.621 E14.6615
G1 X140.519 Y159.186 E14.6869
G1 X128.540 Y147.208 E15.4476
G1 X128.540 Y147.773 E15.4730
G1 X140.519 Y159.752 E16.2336
G1 X140.519 Y160.318 E16.2590
G1 X128.540 Y148.339 E17.0196
G1 X128.540 Y148.905 E17.0450
G1 X140.519 Y160.883 E17.8057
G1 X140.519 Y161.449 E17.8311
G1 X128.540 Y149.470 E18.5917
G1 X128.540 Y150.036 E18.6171
G1 X140.519 Y162.015 E19.3777
G1 X140.519 Y162.580 E19.4031
G1 X128.540 Y150.602 E20.1638
G1 X128.540 Y151.167 E20.1892
G1 X140.519 Y163.146 E20.9498
G1 X140.519 Y163.712 E20.9752
G1 X128.540 Y151.733 E21.7359
G1 X128.540 Y152.299 E21.7613
G1 X140.519 Y164.277 E22.5219
G1 X140.519 Y164.843 E22.5473
G1 X128.540 Y152.864 E23.3079
G1 X128.540 Y153.430 E23.3333
G1 X140.519 Y165.409 E24.0940
G1 X140.519 Y165.974 E24.1194
G1 X128.540 Y153.996 E24.8800
G1 X128.540 Y154.562 E24.9054
G1 X140.519 Y166.540 E25.6661
G1 X140.519 Y167.106 E25.6915
G1 X128.540 Y155.127 E26.4521
G1 X128.540 Y155.693 E26.4775
G1 X140.307 Y167.460 E27.2247
G1 X139.741 Y167.460 E27.2501
G1 X128.540 Y156.259 E27.9614
G1 X128.540 Y156.824 E27.9868
G1 X139.176 Y167.460 E28.6622
G1 X138.610 Y167.460 E28.6876
G1 X128.540 Y157.390 E29.3270
G1 X128.540 Y157.956 E29.3524
G1 X138.044 Y167.460 E29.9559
G1 X137.479 Y167.460 E29.9813
G1 X128.540 Y158.521 E30.5489
G1 X128.540 Y159.087 E30.5743
G1 X136.913 Y167.460 E31.1060
G1 X136.347 Y167.460 E31.1314
G1 X128.540 Y159.653 E31.6272
G1 X128.540 Y160.218 E31.6526
G1 X135.782 Y167.460 E32.1124
G1 X135.216 Y167.460 E32.1378
G1 X128.540 Y160.784 E32.5617
G1 X128.540 Y161.350 E32.5871
G1 X134.650 Y167.460 E32.9751
G1 X134.085 Y167.460 E33.0005
G1 X128.540 Y161.915 E33.3526
G1 X128.540 Y162.481 E33.3780
G1 X133.519 Y167.460 E33.6942
G1 X132.953 Y167.460 E33.7196
G1 X128.540 Y163.047 E33.9998
G1 X128.540 Y163.612 E34.0252
G1 X132.388 Y167.460 E34.2695
G1 X131.822 Y167.460 E34.2949
G1 X128.540 Y164.178 E34.5033
G1 X128.540 Y164.744 E34.5287
G1 X131.256 Y167.460 E34.7012
G1 X130.690 Y167.460 E34.7266
G1 X128.540 Y165.310 E34.8632
G1 X128.540 Y165.875 E34.8886
G1 X130.125 Y167.460 E34.9892
G1 X129.559 Y167.460 E35.0146
G1 X128.540 Y166.441 E35.0793
G1 X128.540 Y167.007 E35.1047
G1 X128.993 Y167.460 E35.1335
G92 E0
G1 E-1.0000 F1800
; inner perimeter
G1 X148.541 Y167.800 F4800
G1 E0.0000 F1800
G92 E0
G1 X148.541 Y160.200 E0.3412 F1350
G1 X151.800 Y160.200 E0.4876
G1 X151.800 Y167.800 E0.8288
G1 X148.541 Y167.800 E0.9751
G1 X148.141 Y168.200 F4800
G92 E0
G1 X148.141 Y159.800 E0.3772 F1350
G1 X152.200 Y159.800 E0.5594
G1 X152.200 Y168.200 E0.9366
G1 X148.141 Y168.200 E1.1188
G1 X147.741 Y168.600 F4800
G92 E0
G1 X147.741 Y159.400 E0.4131 F1350
G1 X152.600 Y159.400 E0.6312
G1 X152.600 Y168.600 E1.0443
G1 X147.741 Y168.600 E1.2625
G1 X147.341 Y169.000 F4800
G92 E0
G1 X147.341 Y159.000 E0.4490 F1350
G1 X153.000 Y159.000 E0.7031
G1 X153.000 Y169.000 E1.1521
G1 X147.341 Y169.000 E1.4062
G1 X146.941 Y169.400 F4800
G92 E0
G1 X146.941 Y158.600 E0.4849 F1350
G1 X153.400 Y158.600 E0.7749
G1 X153.400 Y169.400 E1.2599
G1 X146.941 Y169.400 E1.5499
; outer perimeter
G1 X146.541 Y169.800 F4800
G92 E0
G1 X146.541 Y158.200 E0.5209 F900
G1 X153.800 Y158.200 E0.8468
G1 X153.800 Y169.800 E1.3676
G1 X146.541 Y169.800 E1.6935
; solid layer
G1 X148.881 Y166.983 F4800
G92 E0
G1 X149.358 Y167.460 E0.0303 F1440
