; G-Code generated by Simplify3D(R) Version 4.0.1
; Dec 16, 2019 at 12:23:25 PM
; Settings Summary
;   processName,Process1
;   applyToModels,Carriage_Arm
;   profileName,Default (modified)
;   profileVersion,2017-03-01 08:00:00
;   baseProfile,
;   printMaterial,PLA
;   printQuality,Medium
;   printExtruders,
;   extruderName,Primary Extruder
;   extruderToolheadNumber,0
;   extruderDiameter,0.4
;   extruderAutoWidth,0
;   extruderWidth,0.4
;   extrusionMultiplier,0.9
;   extruderUseRetract,1
;   extruderRetractionDistance,1
;   extruderExtraRestartDistance,0
;   extruderRetractionZLift,0
;   extruderRetractionSpeed,1800
;   extruderUseCoasting,0
;   extruderCoastingDistance,0.2
;   extruderUseWipe,0
;   extruderWipeDistance,5
;   primaryExtruder,0
;   layerHeight,0.3
;   topSolidLayers,6
;   bottomSolidLayers,6
;   perimeterOutlines,6
;   printPerimetersInsideOut,1
;   startPointOption,2
;   startPointOriginX,0
;   startPointOriginY,0
;   sequentialIslands,0
;   spiralVaseMode,0
;   firstLayerHeightPercentage,100
;   firstLayerWidthPercentage,100
;   firstLayerUnderspeed,0.5
;   useRaft,0
;   raftExtruder,0
;   raftTopLayers,3
;   raftBaseLayers,2
;   raftOffset,3
;   raftSeparationDistance,0.14
;   raftTopInfill,100
;   aboveRaftSpeedMultiplier,0.3
;   useSkirt,1
;   skirtExtruder,0
;   skirtLayers,1
;   skirtOutlines,4
;   skirtOffset,4
;   usePrimePillar,0
;   primePillarExtruder,999
;   primePillarWidth,12
;   primePillarLocation,7
;   primePillarSpeedMultiplier,1
;   useOozeShield,0
;   oozeShieldExtruder,999
;   oozeShieldOffset,2
;   oozeShieldOutlines,1
;   oozeShieldSidewallShape,1
;   oozeShieldSidewallAngle,30
;   oozeShieldSpeedMultiplier,1
;   infillExtruder,0
;   internalInfillPattern,Full Honeycomb
;   externalInfillPattern,Rectilinear
;   infillPercentage,20
;   outlineOverlapPercentage,15
;   infillExtrusionWidthPercentage,100
;   minInfillLength,5
;   infillLayerInterval,1
;   internalInfillAngles,0,120,-120
;   overlapInternalInfillAngles,0
;   externalInfillAngles,45,-45
;   generateSupport,0
;   supportExtruder,0
;   supportInfillPercentage,30
;   supportExtraInflation,0
;   supportBaseLayers,0
;   denseSupportExtruder,0
;   denseSupportLayers,0
;   denseSupportInfillPercentage,70
;   supportLayerInterval,1
;   supportHorizontalPartOffset,0.3
;   supportUpperSeparationLayers,1
;   supportLowerSeparationLayers,1
;   supportType,0
;   supportGridSpacing,4
;   maxOverhangAngle,45
;   supportAngles,0
;   temperatureName,Primary Extruder,Bed
;   temperatureNumber,0,0
;   temperatureSetpointCount,1,1
;   temperatureSetpointLayers,1,1
;   temperatureSetpointTemperatures,205,65
;   temperatureStabilizeAtStartup,1,1
;   temperatureHeatedBed,0,1
;   temperatureRelayBetweenLayers,0,0
;   temperatureRelayBetweenLoops,0,0
;   fanLayers,1,2
;   fanSpeeds,0,100
;   blipFanToFullPower,0
;   adjustSpeedForCooling,1
;   minSpeedLayerTime,15
;   minCoolingSpeedSlowdown,20
;   increaseFanForCooling,0
;   minFanLayerTime,45
;   maxCoolingFanSpeed,100
;   increaseFanForBridging,0
;   bridgingFanSpeed,100
;   use5D,1
;   relativeEdistances,0
;   allowEaxisZeroing,1
;   independentExtruderAxes,0
;   includeM10123,0
;   stickySupport,1
;   applyToolheadOffsets,0
;   gcodeXoffset,0
;   gcodeYoffset,0
;   gcodeZoffset,0
;   overrideMachineDefinition,0
;   machineTypeOverride,0
;   strokeXoverride,200
;   strokeYoverride,200
;   strokeZoverride,200
;   originOffsetXoverride,0
;   originOffsetYoverride,0
;   originOffsetZoverride,0
;   homeXdirOverride,-1
;   homeYdirOverride,-1
;   homeZdirOverride,-1
;   flipXoverride,1
;   flipYoverride,-1
;   flipZoverride,1
;   toolheadOffsets,0,0|0,0|0,0|0,0|0,0|0,0
;   overrideFirmwareConfiguration,0
;   firmwareTypeOverride,RepRap (Marlin/Repetier/Sprinter)
;   GPXconfigOverride,r2
;   baudRateOverride,115200
;   overridePrinterModels,0
;   printerModelsOverride
;   startingGcode,G28 ; home all axes
;   layerChangeGcode,
;   retractionGcode,
;   toolChangeGcode,
;   endingGcode,M104 S0 ; turn off extruder,M140 S0 ; turn off bed,M84 ; disable motors
;   exportFileFormat,gcode
;   celebration,0
;   celebrationSong,Random Song
;   postProcessing,
;   defaultSpeed,3600
;   outlineUnderspeed,0.5
;   solidInfillUnderspeed,0.8
;   supportUnderspeed,0.8
;   rapidXYspeed,4800
;   rapidZspeed,1002
;   minBridgingArea,50
;   bridgingExtraInflation,0
;   bridgingExtrusionMultiplier,1
;   bridgingSpeedMultiplier,1
;   useFixedBridgingAngle,0
;   fixedBridgingAngle,0
;   applyBridgingToPerimeters,0
;   filamentDiameters,1.75|1.75|1.75|1.75|1.75|1.75
;   filamentPricesPerKg,46|46|46|46|46|46
;   filamentDensities,1.25|1.25|1.25|1.25|1.25|1.25
;   useMinPrintHeight,0
;   minPrintHeight,0
;   useMaxPrintHeight,0
;   maxPrintHeight,0
;   useDiaphragm,0
;   diaphragmLayerInterval,20
;   robustSlicing,1
;   mergeAllIntoSolid,0
;   onlyRetractWhenCrossingOutline,1
;   retractBetweenLayers,1
;   useRetractionMinTravel,0
;   retractionMinTravel,3
;   retractWhileWiping,0
;   onlyWipeOutlines,1
;   avoidCrossingOutline,0
;   maxMovementDetourFactor,3
;   toolChangeRetractionDistance,12
;   toolChangeExtraRestartDistance,-0.5
;   toolChangeRetractionSpeed,600
;   externalThinWallType,0
;   internalThinWallType,2
;   thinWallAllowedOverlapPercentage,10
;   singleExtrusionMinLength,1
;   singleExtrusionMinPrintingWidthPercentage,50
;   singleExtrusionMaxPrintingWidthPercentage,200
;   singleExtrusionEndpointExtension,0.2
;   horizontalSizeCompensation,0
G90
M82
M106 S0
M140 S65
M190 S65
M104 S205 T0
M109 S205 T0
G28 ; home all axes
G92 E0
G1 E-1.0000 F1800
G1 Z0.300 F1002
; process Process1
; layer 1, Z = 0.300
T0
; tool H0.300 W0.400
; skirt
G1 X114.050 Y140.013 F4800
G1 E0.0000 F540
G92 E0
G1 X114.565 Y139.800 E0.0250 F1800
G1 X123.179 Y139.800 E0.4118
G1 X124.666 Y138.313 E0.5062
G1 X125.181 Y138.100 E0.5312
G1 X169.487 Y138.100 E2.5207
G1 X188.728 Y138.102 E3.3846
G1 X188.754 Y138.103 E3.3857
G1 X188.929 Y138.109 E3.3936
G1 X188.955 Y138.111 E3.3948
G1 X189.615 Y138.160 E3.4245
G1 X189.648 Y138.163 E3.4260
G1 X189.866 Y138.190 E3.4358
G1 X189.899 Y138.195 E3.4373
G1 X190.584 Y138.311 E3.4685
G1 X190.616 Y138.317 E3.4700
G1 X190.835 Y138.365 E3.4800
G1 X190.867 Y138.373 E3.4815
G1 X191.549 Y138.557 E3.5133
G1 X191.582 Y138.567 E3.5148
G1 X191.799 Y138.637 E3.5251
G1 X191.832 Y138.648 E3.5266
G1 X192.536 Y138.914 E3.5604
G1 X192.576 Y138.930 E3.5623
G1 X192.843 Y139.051 E3.5755
G1 X192.883 Y139.070 E3.5775
G1 X193.838 Y139.574 E3.6259
G1 X193.884 Y139.600 E3.6283
G1 X194.187 Y139.791 E3.6444
G1 X194.231 Y139.821 E3.6468
G1 X195.136 Y140.492 E3.6974
G1 X195.179 Y140.526 E3.6998
G1 X195.452 Y140.763 E3.7161
G1 X195.491 Y140.800 E3.7185
G1 X196.290 Y141.609 E3.7696
G1 X196.327 Y141.650 E3.7720
G1 X196.565 Y141.932 E3.7886
G1 X196.599 Y141.975 E3.7911
G1 X197.257 Y142.893 E3.8418
G1 X197.282 Y142.931 E3.8438
G1 X197.444 Y143.189 E3.8575
G1 X197.466 Y143.229 E3.8596
G1 X197.832 Y143.910 E3.8943
G1 X197.848 Y143.941 E3.8958
G1 X197.946 Y144.148 E3.9061
G1 X197.960 Y144.179 E3.9077
G1 X198.241 Y144.855 E3.9405
G1 X198.257 Y144.894 E3.9424
G1 X198.350 Y145.163 E3.9552
G1 X198.363 Y145.204 E3.9571
G1 X198.637 Y146.180 E4.0026
G1 X198.647 Y146.221 E4.0045
G1 X198.707 Y146.497 E4.0172
G1 X198.714 Y146.538 E4.0191
G1 X198.824 Y147.249 E4.0514
G1 X198.829 Y147.280 E4.0528
G1 X198.852 Y147.493 E4.0624
G1 X198.854 Y147.525 E4.0639
G1 X198.893 Y148.147 E4.0918
G1 X198.894 Y148.169 E4.0928
G1 X198.899 Y148.315 E4.0994
G1 X198.899 Y148.337 E4.1004
G1 X198.899 Y161.697 E4.7003
G1 X198.898 Y161.722 E4.7014
G1 X198.893 Y161.886 E4.7087
G1 X198.891 Y161.910 E4.7098
G1 X198.845 Y162.567 E4.7394
G1 X198.842 Y162.599 E4.7408
G1 X198.817 Y162.818 E4.7508
G1 X198.812 Y162.851 E4.7522
G1 X198.699 Y163.536 E4.7834
G1 X198.693 Y163.569 E4.7849
G1 X198.645 Y163.789 E4.7950
G1 X198.638 Y163.822 E4.7965
G1 X198.455 Y164.509 E4.8284
G1 X198.446 Y164.541 E4.8299
G1 X198.378 Y164.754 E4.8400
G1 X198.367 Y164.786 E4.8415
G1 X198.125 Y165.440 E4.8728
G1 X198.112 Y165.472 E4.8744
G1 X198.022 Y165.683 E4.8847
G1 X198.008 Y165.714 E4.8862
G1 X197.684 Y166.382 E4.9195
G1 X197.667 Y166.414 E4.9212
G1 X197.548 Y166.628 E4.9322
G1 X197.530 Y166.660 E4.9338
G1 X197.094 Y167.360 E4.9708
G1 X197.066 Y167.402 E4.9731
G1 X196.868 Y167.674 E4.9882
G1 X196.837 Y167.713 E4.9905
G1 X196.044 Y168.656 E5.0458
G1 X196.011 Y168.693 E5.0480
G1 X195.779 Y168.931 E5.0629
G1 X195.743 Y168.966 E5.0651
G1 X195.124 Y169.519 E5.1025
G1 X195.090 Y169.548 E5.1045
G1 X194.853 Y169.734 E5.1180
G1 X194.817 Y169.761 E5.1200
G1 X193.951 Y170.355 E5.1671
G1 X193.918 Y170.376 E5.1689
G1 X193.688 Y170.516 E5.1810
G1 X193.653 Y170.535 E5.1828
G1 X193.084 Y170.837 E5.2117
G1 X193.049 Y170.854 E5.2134
G1 X192.811 Y170.964 E5.2252
G1 X192.775 Y170.979 E5.2270
G1 X191.831 Y171.351 E5.2725
G1 X191.791 Y171.365 E5.2745
G1 X191.518 Y171.454 E5.2873
G1 X191.477 Y171.466 E5.2892
G1 X190.740 Y171.657 E5.3235
G1 X190.699 Y171.666 E5.3253
G1 X190.425 Y171.720 E5.3379
G1 X190.384 Y171.727 E5.3397
G1 X189.388 Y171.862 E5.3849
G1 X189.341 Y171.867 E5.3870
G1 X189.027 Y171.888 E5.4011
G1 X188.980 Y171.890 E5.4032
G1 X169.489 Y171.901 E6.2784
G1 X169.487 Y171.900 E6.2785
G1 X125.181 Y171.900 E8.2679
G1 X124.666 Y171.687 E8.2929
G1 X123.179 Y170.200 E8.3873
G1 X114.565 Y170.200 E8.7741
G1 X114.050 Y169.987 E8.7991
G1 X111.313 Y167.250 E8.9729
G1 X111.100 Y166.735 E8.9979
G1 X111.100 Y143.265 E10.0518
G1 X111.313 Y142.750 E10.0768
G1 X114.050 Y140.013 E10.2506
G1 X114.277 Y140.352 F4800
G92 E0
G1 X114.644 Y140.200 E0.0179 F1800
G1 X123.345 Y140.200 E0.4085
G1 X124.893 Y138.652 E0.5068
G1 X125.260 Y138.500 E0.5247
G1 X169.433 Y138.500 E2.5081
G1 X169.500 Y138.528 E2.5113
G1 X169.567 Y138.500 E2.5146
G1 X188.724 Y138.502 E3.3748
G1 X188.743 Y138.502 E3.3756
G1 X188.911 Y138.509 E3.3832
G1 X188.929 Y138.510 E3.3840
G1 X189.581 Y138.558 E3.4133
G1 X189.604 Y138.561 E3.4144
G1 X189.813 Y138.586 E3.4238
G1 X189.836 Y138.590 E3.4249
G1 X190.512 Y138.704 E3.4557
G1 X190.535 Y138.709 E3.4567
G1 X190.744 Y138.755 E3.4663
G1 X190.768 Y138.760 E3.4674
G1 X191.440 Y138.942 E3.4987
G1 X191.464 Y138.949 E3.4998
G1 X191.672 Y139.016 E3.5096
G1 X191.695 Y139.024 E3.5107
G1 X192.389 Y139.286 E3.5440
G1 X192.418 Y139.298 E3.5454
G1 X192.674 Y139.413 E3.5580
G1 X192.702 Y139.427 E3.5594
G1 X193.644 Y139.924 E3.6073
G1 X193.677 Y139.943 E3.6090
G1 X193.967 Y140.125 E3.6244
G1 X193.999 Y140.147 E3.6261
G1 X194.892 Y140.809 E3.6760
G1 X194.922 Y140.833 E3.6777
G1 X195.184 Y141.060 E3.6933
G1 X195.212 Y141.087 E3.6950
G1 X196.000 Y141.885 E3.7454
G1 X196.027 Y141.913 E3.7471
G1 X196.254 Y142.184 E3.7630
G1 X196.278 Y142.215 E3.7648
G1 X196.928 Y143.121 E3.8149
G1 X196.946 Y143.148 E3.8163
G1 X197.101 Y143.395 E3.8294
G1 X197.117 Y143.424 E3.8309
G1 X197.477 Y144.095 E3.8651
G1 X197.488 Y144.117 E3.8662
G1 X197.583 Y144.315 E3.8760
G1 X197.593 Y144.338 E3.8771
G1 X197.870 Y145.003 E3.9095
G1 X197.881 Y145.031 E3.9109
G1 X197.970 Y145.289 E3.9231
G1 X197.979 Y145.318 E3.9245
G1 X198.250 Y146.283 E3.9695
G1 X198.257 Y146.312 E3.9708
G1 X198.315 Y146.576 E3.9830
G1 X198.320 Y146.605 E3.9843
G1 X198.428 Y147.305 E4.0161
G1 X198.431 Y147.328 E4.0171
G1 X198.453 Y147.532 E4.0263
G1 X198.455 Y147.554 E4.0274
G1 X198.494 Y148.169 E4.0550
G1 X198.494 Y148.184 E4.0557
G1 X198.499 Y148.325 E4.0620
G1 X198.499 Y148.340 E4.0627
G1 X198.499 Y161.694 E4.6623
G1 X198.498 Y161.711 E4.6631
G1 X198.493 Y161.868 E4.6701
G1 X198.492 Y161.885 E4.6709
G1 X198.447 Y162.534 E4.7001
G1 X198.444 Y162.557 E4.7011
G1 X198.420 Y162.767 E4.7106
G1 X198.417 Y162.790 E4.7117
G1 X198.305 Y163.466 E4.7424
G1 X198.301 Y163.490 E4.7435
G1 X198.255 Y163.701 E4.7532
G1 X198.250 Y163.724 E4.7543
G1 X198.070 Y164.401 E4.7857
G1 X198.063 Y164.424 E4.7868
G1 X197.998 Y164.629 E4.7965
G1 X197.991 Y164.652 E4.7975
G1 X197.752 Y165.297 E4.8284
G1 X197.743 Y165.319 E4.8295
G1 X197.656 Y165.522 E4.8394
G1 X197.646 Y165.544 E4.8405
G1 X197.326 Y166.202 E4.8733
G1 X197.314 Y166.225 E4.8745
G1 X197.201 Y166.430 E4.8850
G1 X197.188 Y166.453 E4.8862
G1 X196.758 Y167.143 E4.9227
G1 X196.738 Y167.172 E4.9243
G1 X196.549 Y167.433 E4.9388
G1 X196.527 Y167.461 E4.9404
G1 X195.742 Y168.393 E4.9951
G1 X195.719 Y168.419 E4.9967
G1 X195.497 Y168.648 E5.0109
G1 X195.471 Y168.672 E5.0125
G1 X194.862 Y169.217 E5.0492
G1 X194.838 Y169.238 E5.0507
G1 X194.611 Y169.415 E5.0636
G1 X194.585 Y169.434 E5.0651
G1 X193.730 Y170.022 E5.1116
G1 X193.706 Y170.037 E5.1129
G1 X193.485 Y170.170 E5.1245
G1 X193.461 Y170.185 E5.1258
G1 X192.902 Y170.480 E5.1541
G1 X192.877 Y170.493 E5.1554
G1 X192.649 Y170.598 E5.1667
G1 X192.623 Y170.609 E5.1680
G1 X191.690 Y170.977 E5.2130
G1 X191.661 Y170.987 E5.2143
G1 X191.400 Y171.072 E5.2267
G1 X191.371 Y171.080 E5.2280
G1 X190.645 Y171.268 E5.2617
G1 X190.616 Y171.275 E5.2630
G1 X190.354 Y171.327 E5.2751
G1 X190.324 Y171.332 E5.2764
G1 X189.341 Y171.465 E5.3209
G1 X189.308 Y171.468 E5.3224
G1 X189.007 Y171.489 E5.3360
G1 X188.973 Y171.490 E5.3375
G1 X169.569 Y171.501 E6.2088
G1 X169.499 Y171.472 E6.2121
G1 X169.433 Y171.500 E6.2154
G1 X125.260 Y171.500 E8.1988
G1 X124.893 Y171.348 E8.2166
G1 X123.345 Y169.800 E8.3149
G1 X114.644 Y169.800 E8.7056
G1 X114.277 Y169.648 E8.7235
G1 X111.652 Y167.023 E8.8901
G1 X111.500 Y166.656 E8.9080
G1 X111.500 Y143.344 E9.9547
G1 X111.652 Y142.977 E9.9726
G1 X114.277 Y140.352 E10.1392
G1 X114.503 Y140.691 F4800
G92 E0
G1 X114.724 Y140.600 E0.0107 F1800
G1 X123.511 Y140.600 E0.4053
G1 X125.119 Y138.991 E0.5074
G1 X125.340 Y138.900 E0.5181
G1 X169.354 Y138.900 E2.4944
G1 X169.500 Y138.961 E2.5015
G1 X169.647 Y138.900 E2.5086
G1 X188.721 Y138.902 E3.3651
G1 X188.732 Y138.902 E3.3656
G1 X188.892 Y138.908 E3.3728
G1 X188.903 Y138.909 E3.3733
G1 X189.546 Y138.957 E3.4022
G1 X189.560 Y138.958 E3.4029
G1 X189.760 Y138.983 E3.4119
G1 X189.774 Y138.985 E3.4125
G1 X190.440 Y139.098 E3.4429
G1 X190.454 Y139.101 E3.4435
G1 X190.654 Y139.145 E3.4527
G1 X190.668 Y139.148 E3.4534
G1 X191.332 Y139.327 E3.4842
G1 X191.346 Y139.331 E3.4849
G1 X191.545 Y139.395 E3.4943
G1 X191.558 Y139.400 E3.4949
G1 X192.242 Y139.658 E3.5277
G1 X192.259 Y139.665 E3.5286
G1 X192.504 Y139.775 E3.5406
G1 X192.520 Y139.783 E3.5414
G1 X193.451 Y140.274 E3.5887
G1 X193.471 Y140.286 E3.5897
G1 X193.748 Y140.460 E3.6044
G1 X193.767 Y140.473 E3.6054
G1 X194.648 Y141.126 E3.6547
G1 X194.666 Y141.140 E3.6557
G1 X194.916 Y141.357 E3.6706
G1 X194.933 Y141.373 E3.6716
G1 X195.710 Y142.160 E3.7213
G1 X195.726 Y142.177 E3.7223
G1 X195.943 Y142.435 E3.7375
G1 X195.958 Y142.454 E3.7385
G1 X196.600 Y143.349 E3.7880
G1 X196.610 Y143.365 E3.7889
G1 X196.758 Y143.602 E3.8014
G1 X196.768 Y143.618 E3.8022
G1 X197.123 Y144.280 E3.8360
G1 X197.129 Y144.293 E3.8366
G1 X197.219 Y144.483 E3.8460
G1 X197.225 Y144.496 E3.8467
G1 X197.498 Y145.151 E3.8786
G1 X197.505 Y145.168 E3.8794
G1 X197.590 Y145.414 E3.8911
G1 X197.596 Y145.432 E3.8919
G1 X197.863 Y146.385 E3.9364
G1 X197.868 Y146.402 E3.9372
G1 X197.922 Y146.655 E3.9488
G1 X197.926 Y146.673 E3.9496
G1 X198.032 Y147.362 E3.9809
G1 X198.034 Y147.376 E3.9815
G1 X198.055 Y147.570 E3.9903
G1 X198.056 Y147.584 E3.9909
G1 X198.094 Y148.190 E4.0182
G1 X198.095 Y148.200 E4.0186
G1 X198.099 Y148.334 E4.0247
G1 X198.099 Y148.343 E4.0251
G1 X198.099 Y161.690 E4.6244
G1 X198.098 Y161.701 E4.6248
G1 X198.093 Y161.851 E4.6316
G1 X198.093 Y161.861 E4.6320
G1 X198.048 Y162.501 E4.6609
G1 X198.047 Y162.515 E4.6615
G1 X198.023 Y162.716 E4.6706
G1 X198.021 Y162.730 E4.6712
G1 X197.911 Y163.397 E4.7015
G1 X197.908 Y163.411 E4.7022
G1 X197.865 Y163.612 E4.7114
G1 X197.862 Y163.626 E4.7121
G1 X197.685 Y164.294 E4.7431
G1 X197.681 Y164.308 E4.7438
G1 X197.619 Y164.504 E4.7530
G1 X197.614 Y164.517 E4.7536
G1 X197.378 Y165.153 E4.7841
G1 X197.373 Y165.167 E4.7847
G1 X197.290 Y165.360 E4.7942
G1 X197.284 Y165.373 E4.7948
G1 X196.969 Y166.022 E4.8272
G1 X196.961 Y166.036 E4.8279
G1 X196.853 Y166.232 E4.8380
G1 X196.845 Y166.246 E4.8387
G1 X196.422 Y166.925 E4.8746
G1 X196.410 Y166.943 E4.8756
G1 X196.229 Y167.192 E4.8894
