; G-Code generated by Simplify3D(R) Version 4.0.1
; Dec 16, 2019 at 12:24:31 PM
; Settings Summary
;   processName,Process1
;   applyToModels,Coupler
;   profileName,Default (modified)
;   profileVersion,2017-03-01 08:00:00
;   baseProfile,
;   printMaterial,PLA
;   printQuality,Medium
;   printExtruders,
;   extruderName,Primary Extruder
;   extruderToolheadNumber,0
;   extruderDiameter,0.4
;   extruderAutoWidth,0
;   extruderWidth,0.4
;   extrusionMultiplier,0.9
;   extruderUseRetract,1
;   extruderRetractionDistance,1
;   extruderExtraRestartDistance,0
;   extruderRetractionZLift,0
;   extruderRetractionSpeed,1800
;   extruderUseCoasting,0
;   extruderCoastingDistance,0.2
;   extruderUseWipe,0
;   extruderWipeDistance,5
;   primaryExtruder,0
;   layerHeight,0.3
;   topSolidLayers,6
;   bottomSolidLayers,6
;   perimeterOutlines,6
;   printPerimetersInsideOut,1
;   startPointOption,2
;   startPointOriginX,0
;   startPointOriginY,0
;   sequentialIslands,0
;   spiralVaseMode,0
;   firstLayerHeightPercentage,100
;   firstLayerWidthPercentage,100
;   firstLayerUnderspeed,0.5
;   useRaft,0
;   raftExtruder,0
;   raftTopLayers,3
;   raftBaseLayers,2
;   raftOffset,3
;   raftSeparationDistance,0.14
;   raftTopInfill,100
;   aboveRaftSpeedMultiplier,0.3
;   useSkirt,1
;   skirtExtruder,0
;   skirtLayers,1
;   skirtOutlines,4
;   skirtOffset,4
;   usePrimePillar,0
;   primePillarExtruder,999
;   primePillarWidth,12
;   primePillarLocation,7
;   primePillarSpeedMultiplier,1
;   useOozeShield,0
;   oozeShieldExtruder,999
;   oozeShieldOffset,2
;   oozeShieldOutlines,1
;   oozeShieldSidewallShape,1
;   oozeShieldSidewallAngle,30
;   oozeShieldSpeedMultiplier,1
;   infillExtruder,0
;   internalInfillPattern,Full Honeycomb
;   externalInfillPattern,Rectilinear
;   infillPercentage,20
;   outlineOverlapPercentage,15
;   infillExtrusionWidthPercentage,100
;   minInfillLength,5
;   infillLayerInterval,1
;   internalInfillAngles,0,120,-120
;   overlapInternalInfillAngles,0
;   externalInfillAngles,45,-45
;   generateSupport,0
;   supportExtruder,0
;   supportInfillPercentage,30
;   supportExtraInflation,0
;   supportBaseLayers,0
;   denseSupportExtruder,0
;   denseSupportLayers,0
;   denseSupportInfillPercentage,70
;   supportLayerInterval,1
;   supportHorizontalPartOffset,0.3
;   supportUpperSeparationLayers,1
;   supportLowerSeparationLayers,1
;   supportType,0
;   supportGridSpacing,4
;   maxOverhangAngle,45
;   supportAngles,0
;   temperatureName,Primary Extruder,Bed
;   temperatureNumber,0,0
;   temperatureSetpointCount,1,1
;   temperatureSetpointLayers,1,1
;   temperatureSetpointTemperatures,205,65
;   temperatureStabilizeAtStartup,1,1
;   temperatureHeatedBed,0,1
;   temperatureRelayBetweenLayers,0,0
;   temperatureRelayBetweenLoops,0,0
;   fanLayers,1,2
;   fanSpeeds,0,100
;   blipFanToFullPower,0
;   adjustSpeedForCooling,1
;   minSpeedLayerTime,15
;   minCoolingSpeedSlowdown,20
;   increaseFanForCooling,0
;   minFanLayerTime,45
;   maxCoolingFanSpeed,100
;   increaseFanForBridging,0
;   bridgingFanSpeed,100
;   use5D,1
;   relativeEdistances,0
;   allowEaxisZeroing,1
;   independentExtruderAxes,0
;   includeM10123,0
;   stickySupport,1
;   applyToolheadOffsets,0
;   gcodeXoffset,0
;   gcodeYoffset,0
;   gcodeZoffset,0
;   overrideMachineDefinition,0
;   machineTypeOverride,0
;   strokeXoverride,200
;   strokeYoverride,200
;   strokeZoverride,200
;   originOffsetXoverride,0
;   originOffsetYoverride,0
;   originOffsetZoverride,0
;   homeXdirOverride,-1
;   homeYdirOverride,-1
;   homeZdirOverride,-1
;   flipXoverride,1
;   flipYoverride,-1
;   flipZoverride,1
;   toolheadOffsets,0,0|0,0|0,0|0,0|0,0|0,0
;   overrideFirmwareConfiguration,0
;   firmwareTypeOverride,RepRap (Marlin/Repetier/Sprinter)
;   GPXconfigOverride,r2
;   baudRateOverride,115200
;   overridePrinterModels,0
;   printerModelsOverride
;   startingGcode,G28 ; home all axes
;   layerChangeGcode,
;   retractionGcode,
;   toolChangeGcode,
;   endingGcode,M104 S0 ; turn off extruder,M140 S0 ; turn off bed,M84 ; disable motors
;   exportFileFormat,gcode
;   celebration,0
;   celebrationSong,Random Song
;   postProcessing,
;   defaultSpeed,3600
;   outlineUnderspeed,0.5
;   solidInfillUnderspeed,0.8
;   supportUnderspeed,0.8
;   rapidXYspeed,4800
;   rapidZspeed,1002
;   minBridgingArea,50
;   bridgingExtraInflation,0
;   bridgingExtrusionMultiplier,1
;   bridgingSpeedMultiplier,1
;   useFixedBridgingAngle,0
;   fixedBridgingAngle,0
;   applyBridgingToPerimeters,0
;   filamentDiameters,1.75|1.75|1.75|1.75|1.75|1.75
;   filamentPricesPerKg,46|46|46|46|46|46
;   filamentDensities,1.25|1.25|1.25|1.25|1.25|1.25
;   useMinPrintHeight,0
;   minPrintHeight,0
;   useMaxPrintHeight,0
;   maxPrintHeight,0
;   useDiaphragm,0
;   diaphragmLayerInterval,20
;   robustSlicing,1
;   mergeAllIntoSolid,0
;   onlyRetractWhenCrossingOutline,1
;   retractBetweenLayers,1
;   useRetractionMinTravel,0
;   retractionMinTravel,3
;   retractWhileWiping,0
;   onlyWipeOutlines,1
;   avoidCrossingOutline,0
;   maxMovementDetourFactor,3
;   toolChangeRetractionDistance,12
;   toolChangeExtraRestartDistance,-0.5
;   toolChangeRetractionSpeed,600
;   externalThinWallType,0
;   internalThinWallType,2
;   thinWallAllowedOverlapPercentage,10
;   singleExtrusionMinLength,1
;   singleExtrusionMinPrintingWidthPercentage,50
;   singleExtrusionMaxPrintingWidthPercentage,200
;   singleExtrusionEndpointExtension,0.2
;   horizontalSizeCompensation,0
G90
M82
M106 S0
M140 S65
M190 S65
M104 S205 T0
M109 S205 T0
G28 ; home all axes
G92 E0
G1 E-1.0000 F1800
G1 Z0.300 F1002
; process Process1
; layer 1, Z = 0.300
T0
; tool H0.300 W0.400
; skirt
G1 X147.050 Y146.829 F4800
G1 E0.0000 F540
G92 E0
G1 X147.202 Y146.684 E0.0094 F1309
G1 X147.226 Y146.663 E0.0108
G1 X147.858 Y146.115 E0.0484
G1 X147.885 Y146.092 E0.0500
G1 X148.074 Y145.945 E0.0608
G1 X148.102 Y145.923 E0.0624
G1 X148.793 Y145.438 E0.1003
G1 X148.822 Y145.419 E0.1018
G1 X149.017 Y145.295 E0.1122
G1 X149.047 Y145.278 E0.1137
G1 X149.752 Y144.879 E0.1501
G1 X149.783 Y144.863 E0.1517
G1 X149.996 Y144.756 E0.1624
G1 X150.029 Y144.741 E0.1640
G1 X150.832 Y144.389 E0.2034
G1 X150.865 Y144.376 E0.2050
G1 X151.091 Y144.291 E0.2158
G1 X151.125 Y144.279 E0.2174
G1 X151.916 Y144.025 E0.2547
G1 X151.949 Y144.015 E0.2563
G1 X152.171 Y143.956 E0.2666
G1 X152.205 Y143.948 E0.2682
G1 X152.992 Y143.778 E0.3043
G1 X153.024 Y143.772 E0.3058
G1 X153.240 Y143.736 E0.3156
G1 X153.272 Y143.732 E0.3171
G1 X154.039 Y143.640 E0.3517
G1 X154.075 Y143.637 E0.3534
G1 X154.315 Y143.620 E0.3642
G1 X154.351 Y143.619 E0.3658
G1 X155.277 Y143.604 E0.4074
G1 X155.313 Y143.604 E0.4090
G1 X155.560 Y143.613 E0.4201
G1 X155.596 Y143.615 E0.4217
G1 X156.404 Y143.687 E0.4581
G1 X156.438 Y143.691 E0.4596
G1 X156.660 Y143.721 E0.4697
G1 X156.693 Y143.726 E0.4712
G1 X157.479 Y143.873 E0.5071
G1 X157.512 Y143.880 E0.5086
G1 X157.731 Y143.931 E0.5187
G1 X157.763 Y143.940 E0.5202
G1 X158.533 Y144.161 E0.5562
G1 X158.565 Y144.171 E0.5577
G1 X158.781 Y144.245 E0.5680
G1 X158.813 Y144.257 E0.5695
G1 X159.573 Y144.558 E0.6062
G1 X159.605 Y144.571 E0.6078
G1 X159.817 Y144.667 E0.6182
G1 X159.848 Y144.682 E0.6198
G1 X160.589 Y145.064 E0.6572
G1 X160.619 Y145.081 E0.6587
G1 X160.824 Y145.199 E0.6693
G1 X160.854 Y145.218 E0.6709
G1 X161.561 Y145.677 E0.7088
G1 X161.590 Y145.697 E0.7104
G1 X161.784 Y145.837 E0.7211
G1 X161.812 Y145.859 E0.7227
G1 X162.463 Y146.383 E0.7602
G1 X162.487 Y146.403 E0.7616
G1 X162.644 Y146.542 E0.7710
G1 X162.667 Y146.563 E0.7725
G1 X163.149 Y147.028 E0.8025
G1 X163.171 Y147.050 E0.8039
G1 X163.316 Y147.202 E0.8134
G1 X163.337 Y147.226 E0.8148
G1 X163.885 Y147.858 E0.8524
G1 X163.908 Y147.885 E0.8540
G1 X164.055 Y148.074 E0.8647
G1 X164.077 Y148.102 E0.8663
G1 X164.562 Y148.793 E0.9042
G1 X164.581 Y148.822 E0.9057
G1 X164.705 Y149.017 E0.9161
G1 X164.722 Y149.047 E0.9177
G1 X165.121 Y149.752 E0.9540
G1 X165.137 Y149.783 E0.9556
G1 X165.244 Y149.996 E0.9663
G1 X165.259 Y150.029 E0.9679
G1 X165.611 Y150.832 E1.0073
G1 X165.624 Y150.865 E1.0089
G1 X165.709 Y151.091 E1.0197
G1 X165.721 Y151.125 E1.0213
G1 X165.975 Y151.916 E1.0587
G1 X165.985 Y151.949 E1.0602
G1 X166.044 Y152.172 E1.0706
G1 X166.052 Y152.205 E1.0721
G1 X166.222 Y152.992 E1.1082
G1 X166.228 Y153.024 E1.1097
G1 X166.264 Y153.240 E1.1195
G1 X166.268 Y153.272 E1.1210
G1 X166.360 Y154.039 E1.1557
G1 X166.363 Y154.075 E1.1573
G1 X166.380 Y154.315 E1.1681
G1 X166.381 Y154.351 E1.1697
G1 X166.396 Y155.277 E1.2113
G1 X166.396 Y155.313 E1.2129
G1 X166.387 Y155.560 E1.2240
G1 X166.385 Y155.596 E1.2256
G1 X166.313 Y156.404 E1.2621
G1 X166.309 Y156.437 E1.2636
G1 X166.279 Y156.660 E1.2737
G1 X166.274 Y156.693 E1.2752
G1 X166.127 Y157.479 E1.3110
G1 X166.120 Y157.512 E1.3125
G1 X166.069 Y157.731 E1.3227
G1 X166.060 Y157.763 E1.3242
G1 X165.839 Y158.533 E1.3601
G1 X165.829 Y158.565 E1.3617
G1 X165.755 Y158.781 E1.3719
G1 X165.743 Y158.813 E1.3734
G1 X165.442 Y159.574 E1.4101
G1 X165.429 Y159.605 E1.4117
G1 X165.333 Y159.817 E1.4221
G1 X165.318 Y159.848 E1.4237
G1 X164.936 Y160.589 E1.4611
G1 X164.919 Y160.619 E1.4627
G1 X164.801 Y160.824 E1.4733
G1 X164.782 Y160.853 E1.4748
G1 X164.323 Y161.561 E1.5127
G1 X164.303 Y161.590 E1.5143
G1 X164.163 Y161.784 E1.5250
G1 X164.141 Y161.812 E1.5266
G1 X163.617 Y162.463 E1.5641
G1 X163.597 Y162.487 E1.5655
G1 X163.458 Y162.644 E1.5750
G1 X163.437 Y162.667 E1.5764
G1 X162.972 Y163.149 E1.6065
G1 X162.950 Y163.172 E1.6079
G1 X162.798 Y163.316 E1.6173
G1 X162.774 Y163.337 E1.6187
G1 X162.142 Y163.885 E1.6563
G1 X162.115 Y163.908 E1.6579
G1 X161.926 Y164.055 E1.6686
G1 X161.898 Y164.077 E1.6702
G1 X161.207 Y164.562 E1.7081
G1 X161.178 Y164.581 E1.7097
G1 X160.983 Y164.705 E1.7201
G1 X160.953 Y164.722 E1.7216
G1 X160.248 Y165.121 E1.7580
G1 X160.217 Y165.137 E1.7596
G1 X160.003 Y165.244 E1.7703
G1 X159.971 Y165.259 E1.7719
G1 X159.168 Y165.611 E1.8112
G1 X159.135 Y165.624 E1.8128
G1 X158.909 Y165.709 E1.8237
G1 X158.875 Y165.721 E1.8253
G1 X158.084 Y165.975 E1.8626
G1 X158.051 Y165.985 E1.8641
G1 X157.828 Y166.044 E1.8745
G1 X157.795 Y166.052 E1.8760
G1 X157.008 Y166.222 E1.9122
G1 X156.976 Y166.228 E1.9136
G1 X156.760 Y166.264 E1.9235
G1 X156.728 Y166.268 E1.9249
G1 X155.961 Y166.360 E1.9596
G1 X155.925 Y166.363 E1.9612
G1 X155.685 Y166.380 E1.9720
G1 X155.649 Y166.381 E1.9736
G1 X154.723 Y166.396 E2.0152
G1 X154.687 Y166.396 E2.0169
G1 X154.440 Y166.387 E2.0279
G1 X154.404 Y166.385 E2.0296
G1 X153.596 Y166.313 E2.0660
G1 X153.563 Y166.309 E2.0675
G1 X153.340 Y166.279 E2.0776
G1 X153.307 Y166.274 E2.0791
G1 X152.521 Y166.127 E2.1150
G1 X152.488 Y166.120 E2.1165
G1 X152.269 Y166.069 E2.1266
G1 X152.237 Y166.060 E2.1281
G1 X151.467 Y165.839 E2.1641
G1 X151.435 Y165.829 E2.1656
G1 X151.219 Y165.755 E2.1758
G1 X151.187 Y165.743 E2.1773
G1 X150.427 Y165.442 E2.2141
G1 X150.395 Y165.429 E2.2156
G1 X150.183 Y165.333 E2.2261
G1 X150.152 Y165.318 E2.2276
G1 X149.412 Y164.936 E2.2650
G1 X149.381 Y164.919 E2.2666
G1 X149.177 Y164.801 E2.2772
G1 X149.147 Y164.782 E2.2788
G1 X148.439 Y164.323 E2.3167
G1 X148.410 Y164.303 E2.3183
G1 X148.216 Y164.163 E2.3290
G1 X148.188 Y164.141 E2.3306
G1 X147.537 Y163.617 E2.3681
G1 X147.513 Y163.597 E2.3695
G1 X147.356 Y163.458 E2.3789
G1 X147.333 Y163.437 E2.3803
G1 X146.851 Y162.972 E2.4104
G1 X146.828 Y162.950 E2.4118
G1 X146.684 Y162.798 E2.4212
G1 X146.663 Y162.774 E2.4226
G1 X146.115 Y162.142 E2.4602
G1 X146.092 Y162.115 E2.4618
G1 X145.945 Y161.926 E2.4726
G1 X145.923 Y161.898 E2.4742
G1 X145.438 Y161.207 E2.5120
G1 X145.419 Y161.178 E2.5136
G1 X145.295 Y160.983 E2.5240
G1 X145.278 Y160.953 E2.5255
G1 X144.879 Y160.248 E2.5619
G1 X144.863 Y160.217 E2.5635
G1 X144.756 Y160.004 E2.5742
G1 X144.741 Y159.971 E2.5758
G1 X144.389 Y159.168 E2.6152
G1 X144.376 Y159.135 E2.6168
G1 X144.291 Y158.909 E2.6276
G1 X144.279 Y158.875 E2.6292
G1 X144.025 Y158.084 E2.6665
G1 X144.015 Y158.051 E2.6681
G1 X143.956 Y157.828 E2.6784
G1 X143.948 Y157.795 E2.6800
G1 X143.778 Y157.008 E2.7161
G1 X143.772 Y156.976 E2.7176
G1 X143.736 Y156.760 E2.7274
G1 X143.732 Y156.728 E2.7289
G1 X143.637 Y155.933 E2.7648
G1 X143.633 Y155.889 E2.7668
G1 X143.616 Y155.593 E2.7801
G1 X143.615 Y155.549 E2.7821
G1 X143.625 Y154.255 E2.8402
G1 X143.627 Y154.202 E2.8426
G1 X143.657 Y153.844 E2.8587
G1 X143.664 Y153.791 E2.8611
G1 X143.852 Y152.622 E2.9143
G1 X143.860 Y152.581 E2.9162
G1 X143.922 Y152.305 E2.9288
G1 X143.932 Y152.264 E2.9307
G1 X144.161 Y151.467 E2.9680
G1 X144.171 Y151.435 E2.9695
G1 X144.245 Y151.219 E2.9797
G1 X144.257 Y151.187 E2.9812
G1 X144.558 Y150.427 E3.0180
G1 X144.571 Y150.395 E3.0195
G1 X144.667 Y150.183 E3.0300
G1 X144.682 Y150.152 E3.0315
G1 X145.064 Y149.411 E3.0689
G1 X145.081 Y149.381 E3.0705
G1 X145.199 Y149.176 E3.0811
G1 X145.218 Y149.146 E3.0827
G1 X145.677 Y148.439 E3.1206
G1 X145.697 Y148.410 E3.1222
G1 X145.837 Y148.216 E3.1329
G1 X145.859 Y148.188 E3.1345
G1 X146.383 Y147.537 E3.1720
G1 X146.403 Y147.513 E3.1734
G1 X146.542 Y147.356 E3.1828
G1 X146.563 Y147.333 E3.1842
G1 X147.028 Y146.851 E3.2143
G1 X147.050 Y146.829 E3.2157
G1 X147.329 Y147.116 F4800
G92 E0
G1 X147.474 Y146.977 E0.0090 F1309
G1 X147.491 Y146.962 E0.0100
G1 X148.116 Y146.420 E0.0472
G1 X148.136 Y146.404 E0.0483
G1 X148.316 Y146.263 E0.0586
G1 X148.337 Y146.248 E0.0598
G1 X149.019 Y145.768 E0.0972
G1 X149.039 Y145.755 E0.0983
G1 X149.227 Y145.636 E0.1083
G1 X149.248 Y145.623 E0.1094
G1 X149.944 Y145.230 E0.1453
G1 X149.967 Y145.218 E0.1464
G1 X150.171 Y145.116 E0.1567
G1 X150.194 Y145.106 E0.1578
G1 X150.988 Y144.758 E0.1967
G1 X151.011 Y144.748 E0.1979
G1 X151.227 Y144.667 E0.2082
G1 X151.252 Y144.658 E0.2094
G1 X152.033 Y144.407 E0.2462
G1 X152.057 Y144.401 E0.2473
G1 X152.270 Y144.344 E0.2573
G1 X152.294 Y144.338 E0.2584
G1 X153.071 Y144.170 E0.2941
G1 X153.094 Y144.166 E0.2951
G1 X153.301 Y144.131 E0.3045
G1 X153.324 Y144.128 E0.3056
G1 X154.081 Y144.038 E0.3398
G1 X154.107 Y144.035 E0.3410
G1 X154.337 Y144.020 E0.3513
G1 X154.362 Y144.019 E0.3525
G1 X155.278 Y144.004 E0.3936
G1 X155.304 Y144.004 E0.3948
G1 X155.540 Y144.012 E0.4054
G1 X155.566 Y144.014 E0.4065
G1 X156.364 Y144.085 E0.4425
G1 X156.388 Y144.087 E0.4436
G1 X156.601 Y144.117 E0.4532
G1 X156.625 Y144.121 E0.4543
G1 X157.401 Y144.265 E0.4898
G1 X157.424 Y144.270 E0.4908
G1 X157.634 Y144.320 E0.5005
G1 X157.657 Y144.326 E0.5016
G1 X158.418 Y144.544 E0.5371
G1 X158.441 Y144.552 E0.5382
G1 X158.647 Y144.622 E0.5480
G1 X158.670 Y144.630 E0.5491
G1 X159.422 Y144.928 E0.5854
G1 X159.444 Y144.937 E0.5865
G1 X159.647 Y145.029 E0.5965
G1 X159.669 Y145.040 E0.5976
G1 X160.401 Y145.417 E0.6345
G1 X160.423 Y145.429 E0.6357
G1 X160.618 Y145.543 E0.6458
G1 X160.640 Y145.556 E0.6470
G1 X161.339 Y146.010 E0.6844
G1 X161.360 Y146.024 E0.6855
G1 X161.545 Y146.158 E0.6958
G1 X161.565 Y146.174 E0.6969
G1 X162.208 Y146.692 E0.7340
G1 X162.225 Y146.706 E0.7350
G1 X162.376 Y146.839 E0.7440
G1 X162.393 Y146.854 E0.7450
G1 X162.869 Y147.313 E0.7747
G1 X162.884 Y147.329 E0.7757
G1 X163.023 Y147.475 E0.7848
G1 X163.038 Y147.491 E0.7858
G1 X163.580 Y148.116 E0.8229
G1 X163.596 Y148.136 E0.8240
G1 X163.737 Y148.316 E0.8343
G1 X163.752 Y148.337 E0.8355
G1 X164.232 Y149.019 E0.8729
G1 X164.246 Y149.039 E0.8740
G1 X164.364 Y149.227 E0.8840
G1 X164.376 Y149.248 E0.8851
G1 X164.770 Y149.944 E0.9210
G1 X164.782 Y149.967 E0.9221
G1 X164.884 Y150.171 E0.9324
G1 X164.894 Y150.194 E0.9335
G1 X165.242 Y150.988 E0.9724
G1 X165.252 Y151.011 E0.9736
G1 X165.333 Y151.227 E0.9839
G1 X165.342 Y151.252 E0.9851
G1 X165.593 Y152.034 E1.0220
G1 X165.599 Y152.057 E1.0231
G1 X165.656 Y152.270 E1.0330
G1 X165.662 Y152.294 E1.0341
G1 X165.830 Y153.071 E1.0698
G1 X165.834 Y153.094 E1.0708
G1 X165.868 Y153.301 E1.0803
G1 X165.872 Y153.324 E1.0813
G1 X165.962 Y154.081 E1.1155
G1 X165.965 Y154.107 E1.1167
G1 X165.980 Y154.337 E1.1270
G1 X165.981 Y154.362 E1.1282
G1 X165.996 Y155.278 E1.1693
G1 X165.996 Y155.304 E1.1705
G1 X165.988 Y155.540 E1.1811
G1 X165.986 Y155.566 E1.1822
G1 X165.915 Y156.364 E1.2182
G1 X165.913 Y156.388 E1.2193
G1 X165.883 Y156.601 E1.2290
