; G-Code generated by Simplify3D(R) Version 4.0.1
; Dec 16, 2019 at 12:22:08 PM
; Settings Summary
;   processName,Process1
;   applyToModels,Elechtronics_Cover
;   profileName,Default (modified)
;   profileVersion,2017-03-01 08:00:00
;   baseProfile,
;   printMaterial,PLA
;   printQuality,Medium
;   printExtruders,
;   extruderName,Primary Extruder
;   extruderToolheadNumber,0
;   extruderDiameter,0.4
;   extruderAutoWidth,0
;   extruderWidth,0.4
;   extrusionMultiplier,0.9
;   extruderUseRetract,1
;   extruderRetractionDistance,1
;   extruderExtraRestartDistance,0
;   extruderRetractionZLift,0
;   extruderRetractionSpeed,1800
;   extruderUseCoasting,0
;   extruderCoastingDistance,0.2
;   extruderUseWipe,0
;   extruderWipeDistance,5
;   primaryExtruder,0
;   layerHeight,0.3
;   topSolidLayers,6
;   bottomSolidLayers,6
;   perimeterOutlines,6
;   printPerimetersInsideOut,1
;   startPointOption,2
;   startPointOriginX,0
;   startPointOriginY,0
;   sequentialIslands,0
;   spiralVaseMode,0
;   firstLayerHeightPercentage,100
;   firstLayerWidthPercentage,100
;   firstLayerUnderspeed,0.5
;   useRaft,0
;   raftExtruder,0
;   raftTopLayers,3
;   raftBaseLayers,2
;   raftOffset,3
;   raftSeparationDistance,0.14
;   raftTopInfill,100
;   aboveRaftSpeedMultiplier,0.3
;   useSkirt,1
;   skirtExtruder,0
;   skirtLayers,1
;   skirtOutlines,4
;   skirtOffset,4
;   usePrimePillar,0
;   primePillarExtruder,999
;   primePillarWidth,12
;   primePillarLocation,7
;   primePillarSpeedMultiplier,1
;   useOozeShield,0
;   oozeShieldExtruder,999
;   oozeShieldOffset,2
;   oozeShieldOutlines,1
;   oozeShieldSidewallShape,1
;   oozeShieldSidewallAngle,30
;   oozeShieldSpeedMultiplier,1
;   infillExtruder,0
;   internalInfillPattern,Full Honeycomb
;   externalInfillPattern,Rectilinear
;   infillPercentage,20
;   outlineOverlapPercentage,15
;   infillExtrusionWidthPercentage,100
;   minInfillLength,5
;   infillLayerInterval,1
;   internalInfillAngles,0,120,-120
;   overlapInternalInfillAngles,0
;   externalInfillAngles,45,-45
;   generateSupport,0
;   supportExtruder,0
;   supportInfillPercentage,30
;   supportExtraInflation,0
;   supportBaseLayers,0
;   denseSupportExtruder,0
;   denseSupportLayers,0
;   denseSupportInfillPercentage,70
;   supportLayerInterval,1
;   supportHorizontalPartOffset,0.3
;   supportUpperSeparationLayers,1
;   supportLowerSeparationLayers,1
;   supportType,0
;   supportGridSpacing,4
;   maxOverhangAngle,45
;   supportAngles,0
;   temperatureName,Primary Extruder,Bed
;   temperatureNumber,0,0
;   temperatureSetpointCount,1,1
;   temperatureSetpointLayers,1,1
;   temperatureSetpointTemperatures,205,65
;   temperatureStabilizeAtStartup,1,1
;   temperatureHeatedBed,0,1
;   temperatureRelayBetweenLayers,0,0
;   temperatureRelayBetweenLoops,0,0
;   fanLayers,1,2
;   fanSpeeds,0,100
;   blipFanToFullPower,0
;   adjustSpeedForCooling,1
;   minSpeedLayerTime,15
;   minCoolingSpeedSlowdown,20
;   increaseFanForCooling,0
;   minFanLayerTime,45
;   maxCoolingFanSpeed,100
;   increaseFanForBridging,0
;   bridgingFanSpeed,100
;   use5D,1
;   relativeEdistances,0
;   allowEaxisZeroing,1
;   independentExtruderAxes,0
;   includeM10123,0
;   stickySupport,1
;   applyToolheadOffsets,0
;   gcodeXoffset,0
;   gcodeYoffset,0
;   gcodeZoffset,0
;   overrideMachineDefinition,0
;   machineTypeOverride,0
;   strokeXoverride,200
;   strokeYoverride,200
;   strokeZoverride,200
;   originOffsetXoverride,0
;   originOffsetYoverride,0
;   originOffsetZoverride,0
;   homeXdirOverride,-1
;   homeYdirOverride,-1
;   homeZdirOverride,-1
;   flipXoverride,1
;   flipYoverride,-1
;   flipZoverride,1
;   toolheadOffsets,0,0|0,0|0,0|0,0|0,0|0,0
;   overrideFirmwareConfiguration,0
;   firmwareTypeOverride,RepRap (Marlin/Repetier/Sprinter)
;   GPXconfigOverride,r2
;   baudRateOverride,115200
;   overridePrinterModels,0
;   printerModelsOverride
;   startingGcode,G28 ; home all axes
;   layerChangeGcode,
;   retractionGcode,
;   toolChangeGcode,
;   endingGcode,M104 S0 ; turn off extruder,M140 S0 ; turn off bed,M84 ; disable motors
;   exportFileFormat,gcode
;   celebration,0
;   celebrationSong,Random Song
;   postProcessing,
;   defaultSpeed,3600
;   outlineUnderspeed,0.5
;   solidInfillUnderspeed,0.8
;   supportUnderspeed,0.8
;   rapidXYspeed,4800
;   rapidZspeed,1002
;   minBridgingArea,50
;   bridgingExtraInflation,0
;   bridgingExtrusionMultiplier,1
;   bridgingSpeedMultiplier,1
;   useFixedBridgingAngle,0
;   fixedBridgingAngle,0
;   applyBridgingToPerimeters,0
;   filamentDiameters,1.75|1.75|1.75|1.75|1.75|1.75
;   filamentPricesPerKg,46|46|46|46|46|46
;   filamentDensities,1.25|1.25|1.25|1.25|1.25|1.25
;   useMinPrintHeight,0
;   minPrintHeight,0
;   useMaxPrintHeight,0
;   maxPrintHeight,0
;   useDiaphragm,0
;   diaphragmLayerInterval,20
;   robustSlicing,1
;   mergeAllIntoSolid,0
;   onlyRetractWhenCrossingOutline,1
;   retractBetweenLayers,1
;   useRetractionMinTravel,0
;   retractionMinTravel,3
;   retractWhileWiping,0
;   onlyWipeOutlines,1
;   avoidCrossingOutline,0
;   maxMovementDetourFactor,3
;   toolChangeRetractionDistance,12
;   toolChangeExtraRestartDistance,-0.5
;   toolChangeRetractionSpeed,600
;   externalThinWallType,0
;   internalThinWallType,2
;   thinWallAllowedOverlapPercentage,10
;   singleExtrusionMinLength,1
;   singleExtrusionMinPrintingWidthPercentage,50
;   singleExtrusionMaxPrintingWidthPercentage,200
;   singleExtrusionEndpointExtension,0.2
;   horizontalSizeCompensation,0
G90
M82
M106 S0
M140 S65
M190 S65
M104 S205 T0
M109 S205 T0
G28 ; home all axes
G92 E0
G1 E-1.0000 F1800
G1 Z0.300 F1002
; process Process1
; layer 1, Z = 0.300
T0
; tool H0.300 W0.400
; skirt
G1 X93.785 Y111.659 F4800
G1 E0.0000 F540
G92 E0
G1 X94.098 Y111.434 E0.0173 F1800
G1 X94.146 Y111.403 E0.0199
G1 X95.145 Y110.805 E0.0721
G1 X95.185 Y110.782 E0.0742
G1 X95.458 Y110.642 E0.0880
G1 X95.500 Y110.622 E0.0901
G1 X96.235 Y110.303 E0.1260
G1 X96.279 Y110.286 E0.1281
G1 X96.574 Y110.181 E0.1422
G1 X96.618 Y110.167 E0.1443
G1 X97.766 Y109.842 E0.1979
G1 X97.822 Y109.829 E0.2004
G1 X98.201 Y109.755 E0.2178
G1 X98.258 Y109.746 E0.2204
G1 X99.376 Y109.621 E0.2709
G1 X99.415 Y109.618 E0.2726
G1 X99.676 Y109.603 E0.2844
G1 X99.715 Y109.602 E0.2861
G1 X210.044 Y109.600 E5.2401
G1 X210.058 Y109.600 E5.2407
G1 X210.147 Y109.602 E5.2447
G1 X210.160 Y109.602 E5.2452
G1 X210.701 Y109.623 E5.2696
G1 X210.740 Y109.625 E5.2713
G1 X211.000 Y109.650 E5.2830
G1 X211.039 Y109.654 E5.2848
G1 X212.053 Y109.807 E5.3309
G1 X212.091 Y109.814 E5.3326
G1 X212.346 Y109.866 E5.3443
G1 X212.384 Y109.875 E5.3460
G1 X212.943 Y110.024 E5.3720
G1 X212.976 Y110.034 E5.3736
G1 X213.196 Y110.104 E5.3839
G1 X213.229 Y110.115 E5.3855
G1 X214.088 Y110.437 E5.4267
G1 X214.130 Y110.454 E5.4287
G1 X214.409 Y110.580 E5.4424
G1 X214.450 Y110.600 E5.4445
G1 X215.259 Y111.029 E5.4856
G1 X215.289 Y111.046 E5.4872
G1 X215.486 Y111.163 E5.4975
G1 X215.515 Y111.182 E5.4990
G1 X215.998 Y111.502 E5.5250
G1 X216.031 Y111.525 E5.5268
G1 X216.249 Y111.689 E5.5391
G1 X216.281 Y111.714 E5.5409
G1 X217.120 Y112.423 E5.5902
G1 X217.151 Y112.450 E5.5921
G1 X217.348 Y112.638 E5.6043
G1 X217.377 Y112.667 E5.6061
G1 X217.777 Y113.094 E5.6324
G1 X217.800 Y113.119 E5.6340
G1 X217.951 Y113.297 E5.6444
G1 X217.973 Y113.324 E5.6460
G1 X218.517 Y114.033 E5.6861
G1 X218.537 Y114.061 E5.6877
G1 X218.669 Y114.252 E5.6981
G1 X218.688 Y114.281 E5.6996
G1 X218.982 Y114.756 E5.7247
G1 X219.000 Y114.785 E5.7262
G1 X219.111 Y114.986 E5.7366
G1 X219.127 Y115.016 E5.7381
G1 X219.532 Y115.839 E5.7793
G1 X219.551 Y115.881 E5.7813
G1 X219.668 Y116.165 E5.7951
G1 X219.684 Y116.208 E5.7972
G1 X219.989 Y117.106 E5.8398
G1 X220.001 Y117.145 E5.8416
G1 X220.073 Y117.408 E5.8538
G1 X220.083 Y117.447 E5.8557
G1 X220.245 Y118.204 E5.8904
G1 X220.252 Y118.244 E5.8922
G1 X220.293 Y118.510 E5.9043
G1 X220.298 Y118.550 E5.9061
G1 X220.384 Y119.439 E5.9462
G1 X220.386 Y119.472 E5.9477
G1 X220.397 Y119.697 E5.9578
G1 X220.398 Y119.731 E5.9593
G1 X220.398 Y190.272 E9.1267
G1 X220.397 Y190.308 E9.1283
G1 X220.384 Y190.548 E9.1391
G1 X220.382 Y190.584 E9.1407
G1 X220.281 Y191.559 E9.1848
G1 X220.276 Y191.601 E9.1867
G1 X220.230 Y191.880 E9.1994
G1 X220.222 Y191.922 E9.2013
G1 X220.045 Y192.704 E9.2373
G1 X220.032 Y192.754 E9.2396
G1 X219.929 Y193.089 E9.2553
G1 X219.912 Y193.138 E9.2577
G1 X219.419 Y194.402 E9.3186
G1 X219.398 Y194.450 E9.3209
G1 X219.245 Y194.770 E9.3369
G1 X219.220 Y194.817 E9.3392
G1 X218.806 Y195.535 E9.3765
G1 X218.783 Y195.573 E9.3785
G1 X218.618 Y195.821 E9.3918
G1 X218.593 Y195.857 E9.3938
G1 X217.951 Y196.702 E9.4414
G1 X217.923 Y196.736 E9.4434
G1 X217.727 Y196.963 E9.4569
G1 X217.697 Y196.996 E9.4589
G1 X217.129 Y197.574 E9.4953
G1 X217.097 Y197.605 E9.4973
G1 X216.874 Y197.804 E9.5107
G1 X216.839 Y197.833 E9.5127
G1 X216.005 Y198.490 E9.5604
G1 X215.969 Y198.516 E9.5624
G1 X215.724 Y198.685 E9.5758
G1 X215.687 Y198.709 E9.5778
G1 X214.998 Y199.122 E9.6138
G1 X214.959 Y199.143 E9.6158
G1 X214.692 Y199.281 E9.6293
G1 X214.652 Y199.300 E9.6313
G1 X213.678 Y199.726 E9.6790
G1 X213.639 Y199.742 E9.6809
G1 X213.371 Y199.840 E9.6937
G1 X213.331 Y199.853 E9.6956
G1 X212.658 Y200.055 E9.7272
G1 X212.627 Y200.063 E9.7286
G1 X212.414 Y200.116 E9.7385
G1 X212.382 Y200.124 E9.7400
G1 X211.667 Y200.267 E9.7727
G1 X211.624 Y200.274 E9.7746
G1 X211.339 Y200.313 E9.7876
G1 X211.296 Y200.318 E9.7895
G1 X210.317 Y200.391 E9.8336
G1 X210.291 Y200.393 E9.8348
G1 X210.115 Y200.400 E9.8427
G1 X210.088 Y200.400 E9.8439
G1 X99.696 Y200.398 E14.8006
G1 X99.650 Y200.396 E14.8027
G1 X99.346 Y200.376 E14.8164
G1 X99.301 Y200.372 E14.8184
G1 X98.001 Y200.202 E14.8773
G1 X97.951 Y200.194 E14.8795
G1 X97.619 Y200.126 E14.8948
G1 X97.570 Y200.114 E14.8970
G1 X96.824 Y199.904 E14.9318
G1 X96.783 Y199.892 E14.9337
G1 X96.511 Y199.797 E14.9467
G1 X96.471 Y199.782 E14.9486
G1 X95.503 Y199.376 E14.9957
G1 X95.463 Y199.358 E14.9977
G1 X95.197 Y199.226 E15.0110
G1 X95.158 Y199.206 E15.0130
G1 X94.465 Y198.806 E15.0489
G1 X94.427 Y198.783 E15.0509
G1 X94.179 Y198.618 E15.0643
G1 X94.143 Y198.593 E15.0663
G1 X93.298 Y197.951 E15.1139
G1 X93.264 Y197.923 E15.1159
G1 X93.037 Y197.727 E15.1293
G1 X93.004 Y197.697 E15.1313
G1 X92.448 Y197.150 E15.1664
G1 X92.423 Y197.124 E15.1680
G1 X92.260 Y196.948 E15.1788
G1 X92.237 Y196.921 E15.1804
G1 X91.759 Y196.344 E15.2140
G1 X91.737 Y196.316 E15.2156
G1 X91.594 Y196.124 E15.2263
G1 X91.573 Y196.095 E15.2279
G1 X91.143 Y195.453 E15.2626
G1 X91.120 Y195.416 E15.2646
G1 X90.971 Y195.162 E15.2778
G1 X90.951 Y195.123 E15.2798
G1 X90.485 Y194.195 E15.3264
G1 X90.467 Y194.156 E15.3284
G1 X90.353 Y193.889 E15.3414
G1 X90.337 Y193.849 E15.3433
G1 X90.088 Y193.148 E15.3767
G1 X90.077 Y193.116 E15.3783
G1 X90.012 Y192.900 E15.3884
G1 X90.003 Y192.867 E15.3899
G1 X89.826 Y192.161 E15.4226
G1 X89.817 Y192.120 E15.4245
G1 X89.765 Y191.843 E15.4371
G1 X89.758 Y191.801 E15.4390
G1 X89.631 Y190.798 E15.4844
G1 X89.627 Y190.755 E15.4864
G1 X89.609 Y190.460 E15.4997
G1 X89.607 Y190.416 E15.5016
G1 X89.600 Y119.943 E18.6660
G1 X89.600 Y119.926 E18.6667
G1 X89.603 Y119.811 E18.6719
G1 X89.604 Y119.794 E18.6727
G1 X89.637 Y119.115 E18.7032
G1 X89.640 Y119.075 E18.7050
G1 X89.668 Y118.811 E18.7169
G1 X89.673 Y118.771 E18.7187
G1 X89.820 Y117.874 E18.7595
G1 X89.827 Y117.835 E18.7613
G1 X89.885 Y117.575 E18.7733
G1 X89.895 Y117.536 E18.7750
G1 X90.102 Y116.803 E18.8093
G1 X90.115 Y116.765 E18.8111
G1 X90.204 Y116.507 E18.8233
G1 X90.218 Y116.469 E18.8251
G1 X90.576 Y115.603 E18.8672
G1 X90.592 Y115.566 E18.8690
G1 X90.710 Y115.322 E18.8812
G1 X90.728 Y115.286 E18.8830
G1 X91.106 Y114.607 E18.9179
G1 X91.129 Y114.568 E18.9199
G1 X91.296 Y114.309 E18.9337
G1 X91.322 Y114.272 E18.9358
G1 X91.980 Y113.382 E18.9855
G1 X92.005 Y113.351 E18.9873
G1 X92.178 Y113.144 E18.9994
G1 X92.204 Y113.114 E19.0012
G1 X92.612 Y112.678 E19.0280
G1 X92.641 Y112.649 E19.0298
G1 X92.836 Y112.463 E19.0419
G1 X92.866 Y112.436 E19.0437
G1 X93.740 Y111.694 E19.0952
G1 X93.785 Y111.659 E19.0978
G1 X94.025 Y111.979 F4800
G92 E0
G1 X94.325 Y111.764 E0.0166 F1800
G1 X94.359 Y111.742 E0.0184
G1 X95.345 Y111.151 E0.0700
G1 X95.373 Y111.135 E0.0715
G1 X95.635 Y111.001 E0.0847
G1 X95.665 Y110.987 E0.0862
G1 X96.388 Y110.673 E0.1216
G1 X96.419 Y110.661 E0.1231
G1 X96.702 Y110.560 E0.1365
G1 X96.734 Y110.550 E0.1380
G1 X97.867 Y110.230 E0.1909
G1 X97.907 Y110.220 E0.1927
G1 X98.270 Y110.149 E0.2094
G1 X98.311 Y110.143 E0.2112
G1 X99.415 Y110.019 E0.2611
G1 X99.443 Y110.017 E0.2624
G1 X99.692 Y110.003 E0.2736
G1 X99.720 Y110.002 E0.2748
G1 X210.042 Y110.000 E5.2284
G1 X210.052 Y110.000 E5.2289
G1 X210.137 Y110.002 E5.2327
G1 X210.147 Y110.002 E5.2331
G1 X210.680 Y110.022 E5.2571
G1 X210.708 Y110.024 E5.2583
G1 X210.957 Y110.047 E5.2696
G1 X210.985 Y110.051 E5.2708
G1 X211.988 Y110.202 E5.3164
G1 X212.016 Y110.206 E5.3176
G1 X212.259 Y110.257 E5.3288
G1 X212.286 Y110.263 E5.3301
G1 X212.836 Y110.409 E5.3556
G1 X212.859 Y110.416 E5.3567
G1 X213.070 Y110.484 E5.3666
G1 X213.093 Y110.492 E5.3677
G1 X213.942 Y110.809 E5.4084
G1 X213.972 Y110.822 E5.4099
G1 X214.239 Y110.942 E5.4230
G1 X214.268 Y110.956 E5.4245
G1 X215.067 Y111.380 E5.4651
G1 X215.089 Y111.392 E5.4662
G1 X215.278 Y111.505 E5.4761
G1 X215.298 Y111.518 E5.4772
G1 X215.772 Y111.832 E5.5027
G1 X215.796 Y111.849 E5.5040
G1 X216.004 Y112.005 E5.5157
G1 X216.027 Y112.023 E5.5170
G1 X216.858 Y112.725 E5.5658
G1 X216.879 Y112.745 E5.5671
G1 X217.069 Y112.924 E5.5789
G1 X217.089 Y112.945 E5.5802
G1 X217.482 Y113.364 E5.6059
G1 X217.498 Y113.382 E5.6071
G1 X217.643 Y113.552 E5.6171
G1 X217.659 Y113.572 E5.6182
G1 X218.196 Y114.273 E5.6579
G1 X218.211 Y114.293 E5.6590
G1 X218.337 Y114.476 E5.6690
G1 X218.351 Y114.496 E5.6701
G1 X218.640 Y114.963 E5.6947
G1 X218.652 Y114.984 E5.6958
G1 X218.759 Y115.176 E5.7057
G1 X218.770 Y115.198 E5.7068
G1 X219.170 Y116.010 E5.7474
G1 X219.184 Y116.040 E5.7489
G1 X219.296 Y116.312 E5.7621
G1 X219.308 Y116.342 E5.7636
G1 X219.608 Y117.229 E5.8056
G1 X219.617 Y117.256 E5.8069
G1 X219.686 Y117.508 E5.8186
G1 X219.693 Y117.537 E5.8200
G1 X219.852 Y118.282 E5.8542
G1 X219.857 Y118.310 E5.8555
G1 X219.897 Y118.566 E5.8671
G1 X219.900 Y118.594 E5.8684
G1 X219.985 Y119.472 E5.9080
G1 X219.987 Y119.496 E5.9090
G1 X219.997 Y119.712 E5.9187
G1 X219.998 Y119.736 E5.9198
G1 X219.998 Y190.267 E9.0867
G1 X219.997 Y190.292 E9.0879
G1 X219.985 Y190.522 E9.0982
G1 X219.983 Y190.548 E9.0994
G1 X219.884 Y191.512 E9.1429
G1 X219.880 Y191.542 E9.1443
G1 X219.836 Y191.810 E9.1564
G1 X219.831 Y191.839 E9.1578
G1 X219.656 Y192.608 E9.1932
G1 X219.647 Y192.644 E9.1949
G1 X219.549 Y192.965 E9.2099
G1 X219.536 Y193.000 E9.2116
G1 X219.049 Y194.249 E9.2718
G1 X219.034 Y194.284 E9.2735
G1 X218.887 Y194.590 E9.2887
G1 X218.870 Y194.623 E9.2904
G1 X218.463 Y195.330 E9.3270
G1 X218.446 Y195.357 E9.3285
G1 X218.289 Y195.594 E9.3413
G1 X218.270 Y195.620 E9.3427
G1 X217.637 Y196.455 E9.3897
G1 X217.617 Y196.479 E9.3912
G1 X217.429 Y196.696 E9.4040
G1 X217.407 Y196.720 E9.4055
G1 X216.848 Y197.289 E9.4413
G1 X216.825 Y197.311 E9.4427
G1 X216.612 Y197.502 E9.4556
G1 X216.587 Y197.523 E9.4570
G1 X215.763 Y198.172 E9.5041
G1 X215.737 Y198.190 E9.5056
G1 X215.502 Y198.352 E9.5184
G1 X215.476 Y198.369 E9.5198
G1 X214.798 Y198.775 E9.5553
G1 X214.770 Y198.791 E9.5567
G1 X214.515 Y198.923 E9.5696
G1 X214.486 Y198.936 E9.5710
G1 X213.524 Y199.357 E9.6182
G1 X213.495 Y199.368 E9.6196
G1 X213.239 Y199.462 E9.6318
G1 X213.211 Y199.472 E9.6332
G1 X212.548 Y199.670 E9.6642
G1 X212.526 Y199.676 E9.6653
G1 X212.322 Y199.727 E9.6747
G1 X212.299 Y199.732 E9.6757
G1 X211.594 Y199.873 E9.7080
G1 X211.564 Y199.879 E9.7094
G1 X211.291 Y199.916 E9.7218
G1 X211.260 Y199.919 E9.7232
G1 X210.291 Y199.992 E9.7668
G1 X210.272 Y199.993 E9.7676
G1 X210.103 Y200.000 E9.7752
G1 X210.084 Y200.000 E9.7761
G1 X99.702 Y199.998 E14.7324
G1 X99.670 Y199.997 E14.7338
G1 X99.379 Y199.978 E14.7469
G1 X99.346 Y199.974 E14.7484
G1 X98.060 Y199.807 E14.8066
G1 X98.024 Y199.801 E14.8083
G1 X97.706 Y199.736 E14.8229
G1 X97.671 Y199.727 E14.8245
