; G-Code generated by Simplify3D(R) Version 4.0.1
; Dec 16, 2019 at 12:23:07 PM
; Settings Summary
;   processName,Process1
;   applyToModels,Logo_Cover
;   profileName,Default (modified)
;   profileVersion,2017-03-01 08:00:00
;   baseProfile,
;   printMaterial,PLA
;   printQuality,Medium
;   printExtruders,
;   extruderName,Primary Extruder
;   extruderToolheadNumber,0
;   extruderDiameter,0.4
;   extruderAutoWidth,0
;   extruderWidth,0.4
;   extrusionMultiplier,0.9
;   extruderUseRetract,1
;   extruderRetractionDistance,1
;   extruderExtraRestartDistance,0
;   extruderRetractionZLift,0
;   extruderRetractionSpeed,1800
;   extruderUseCoasting,0
;   extruderCoastingDistance,0.2
;   extruderUseWipe,0
;   extruderWipeDistance,5
;   primaryExtruder,0
;   layerHeight,0.3
;   topSolidLayers,6
;   bottomSolidLayers,6
;   perimeterOutlines,6
;   printPerimetersInsideOut,1
;   startPointOption,2
;   startPointOriginX,0
;   startPointOriginY,0
;   sequentialIslands,0
;   spiralVaseMode,0
;   firstLayerHeightPercentage,100
;   firstLayerWidthPercentage,100
;   firstLayerUnderspeed,0.5
;   useRaft,0
;   raftExtruder,0
;   raftTopLayers,3
;   raftBaseLayers,2
;   raftOffset,3
;   raftSeparationDistance,0.14
;   raftTopInfill,100
;   aboveRaftSpeedMultiplier,0.3
;   useSkirt,1
;   skirtExtruder,0
;   skirtLayers,1
;   skirtOutlines,4
;   skirtOffset,4
;   usePrimePillar,0
;   primePillarExtruder,999
;   primePillarWidth,12
;   primePillarLocation,7
;   primePillarSpeedMultiplier,1
;   useOozeShield,0
;   oozeShieldExtruder,999
;   oozeShieldOffset,2
;   oozeShieldOutlines,1
;   oozeShieldSidewallShape,1
;   oozeShieldSidewallAngle,30
;   oozeShieldSpeedMultiplier,1
;   infillExtruder,0
;   internalInfillPattern,Full Honeycomb
;   externalInfillPattern,Rectilinear
;   infillPercentage,20
;   outlineOverlapPercentage,15
;   infillExtrusionWidthPercentage,100
;   minInfillLength,5
;   infillLayerInterval,1
;   internalInfillAngles,0,120,-120
;   overlapInternalInfillAngles,0
;   externalInfillAngles,45,-45
;   generateSupport,0
;   supportExtruder,0
;   supportInfillPercentage,30
;   supportExtraInflation,0
;   supportBaseLayers,0
;   denseSupportExtruder,0
;   denseSupportLayers,0
;   denseSupportInfillPercentage,70
;   supportLayerInterval,1
;   supportHorizontalPartOffset,0.3
;   supportUpperSeparationLayers,1
;   supportLowerSeparationLayers,1
;   supportType,0
;   supportGridSpacing,4
;   maxOverhangAngle,45
;   supportAngles,0
;   temperatureName,Primary Extruder,Bed
;   temperatureNumber,0,0
;   temperatureSetpointCount,1,1
;   temperatureSetpointLayers,1,1
;   temperatureSetpointTemperatures,205,65
;   temperatureStabilizeAtStartup,1,1
;   temperatureHeatedBed,0,1
;   temperatureRelayBetweenLayers,0,0
;   temperatureRelayBetweenLoops,0,0
;   fanLayers,1,2
;   fanSpeeds,0,100
;   blipFanToFullPower,0
;   adjustSpeedForCooling,1
;   minSpeedLayerTime,15
;   minCoolingSpeedSlowdown,20
;   increaseFanForCooling,0
;   minFanLayerTime,45
;   maxCoolingFanSpeed,100
;   increaseFanForBridging,0
;   bridgingFanSpeed,100
;   use5D,1
;   relativeEdistances,0
;   allowEaxisZeroing,1
;   independentExtruderAxes,0
;   includeM10123,0
;   stickySupport,1
;   applyToolheadOffsets,0
;   gcodeXoffset,0
;   gcodeYoffset,0
;   gcodeZoffset,0
;   overrideMachineDefinition,0
;   machineTypeOverride,0
;   strokeXoverride,200
;   strokeYoverride,200
;   strokeZoverride,200
;   originOffsetXoverride,0
;   originOffsetYoverride,0
;   originOffsetZoverride,0
;   homeXdirOverride,-1
;   homeYdirOverride,-1
;   homeZdirOverride,-1
;   flipXoverride,1
;   flipYoverride,-1
;   flipZoverride,1
;   toolheadOffsets,0,0|0,0|0,0|0,0|0,0|0,0
;   overrideFirmwareConfiguration,0
;   firmwareTypeOverride,RepRap (Marlin/Repetier/Sprinter)
;   GPXconfigOverride,r2
;   baudRateOverride,115200
;   overridePrinterModels,0
;   printerModelsOverride
;   startingGcode,G28 ; home all axes
;   layerChangeGcode,
;   retractionGcode,
;   toolChangeGcode,
;   endingGcode,M104 S0 ; turn off extruder,M140 S0 ; turn off bed,M84 ; disable motors
;   exportFileFormat,gcode
;   celebration,0
;   celebrationSong,Random Song
;   postProcessing,
;   defaultSpeed,3600
;   outlineUnderspeed,0.5
;   solidInfillUnderspeed,0.8
;   supportUnderspeed,0.8
;   rapidXYspeed,4800
;   rapidZspeed,1002
;   minBridgingArea,50
;   bridgingExtraInflation,0
;   bridgingExtrusionMultiplier,1
;   bridgingSpeedMultiplier,1
;   useFixedBridgingAngle,0
;   fixedBridgingAngle,0
;   applyBridgingToPerimeters,0
;   filamentDiameters,1.75|1.75|1.75|1.75|1.75|1.75
;   filamentPricesPerKg,46|46|46|46|46|46
;   filamentDensities,1.25|1.25|1.25|1.25|1.25|1.25
;   useMinPrintHeight,0
;   minPrintHeight,0
;   useMaxPrintHeight,0
;   maxPrintHeight,0
;   useDiaphragm,0
;   diaphragmLayerInterval,20
;   robustSlicing,1
;   mergeAllIntoSolid,0
;   onlyRetractWhenCrossingOutline,1
;   retractBetweenLayers,1
;   useRetractionMinTravel,0
;   retractionMinTravel,3
;   retractWhileWiping,0
;   onlyWipeOutlines,1
;   avoidCrossingOutline,0
;   maxMovementDetourFactor,3
;   toolChangeRetractionDistance,12
;   toolChangeExtraRestartDistance,-0.5
;   toolChangeRetractionSpeed,600
;   externalThinWallType,0
;   internalThinWallType,2
;   thinWallAllowedOverlapPercentage,10
;   singleExtrusionMinLength,1
;   singleExtrusionMinPrintingWidthPercentage,50
;   singleExtrusionMaxPrintingWidthPercentage,200
;   singleExtrusionEndpointExtension,0.2
;   horizontalSizeCompensation,0
G90
M82
M106 S0
M140 S65
M190 S65
M104 S205 T0
M109 S205 T0
G28 ; home all axes
G92 E0
G1 E-1.0000 F1800
G1 Z0.300 F1002
; process Process1
; layer 1, Z = 0.300
T0
; tool H0.300 W0.400
; skirt
G1 X129.247 Y133.716 F4800
G1 E0.0000 F540
G92 E0
G1 X129.272 Y133.691 E0.0016 F1800
G1 X129.445 Y133.525 E0.0124
G1 X129.472 Y133.501 E0.0140
G1 X130.328 Y132.760 E0.0648
G1 X130.356 Y132.738 E0.0664
G1 X130.545 Y132.591 E0.0772
G1 X130.573 Y132.569 E0.0788
G1 X131.180 Y132.144 E0.1121
G1 X131.202 Y132.129 E0.1132
G1 X131.352 Y132.033 E0.1212
G1 X131.375 Y132.019 E0.1224
G1 X131.995 Y131.651 E0.1548
G1 X132.022 Y131.636 E0.1562
G1 X132.205 Y131.538 E0.1655
G1 X132.233 Y131.524 E0.1669
G1 X133.047 Y131.134 E0.2075
G1 X133.072 Y131.123 E0.2087
G1 X133.235 Y131.052 E0.2167
G1 X133.260 Y131.042 E0.2179
G1 X133.766 Y130.845 E0.2423
G1 X133.795 Y130.834 E0.2436
G1 X133.988 Y130.769 E0.2528
G1 X134.017 Y130.760 E0.2541
G1 X135.052 Y130.457 E0.3026
G1 X135.085 Y130.448 E0.3041
G1 X135.309 Y130.395 E0.3144
G1 X135.342 Y130.388 E0.3160
G1 X136.064 Y130.252 E0.3489
G1 X136.098 Y130.246 E0.3505
G1 X136.328 Y130.214 E0.3609
G1 X136.362 Y130.210 E0.3625
G1 X137.460 Y130.114 E0.4119
G1 X137.490 Y130.112 E0.4133
G1 X137.697 Y130.103 E0.4226
G1 X137.727 Y130.102 E0.4240
G1 X172.348 Y130.105 E1.9785
G1 X172.376 Y130.105 E1.9798
G1 X172.568 Y130.113 E1.9884
G1 X172.596 Y130.115 E1.9896
G1 X173.411 Y130.181 E2.0263
G1 X173.439 Y130.184 E2.0276
G1 X173.626 Y130.207 E2.0361
G1 X173.654 Y130.211 E2.0373
G1 X174.345 Y130.324 E2.0688
G1 X174.374 Y130.329 E2.0701
G1 X174.567 Y130.369 E2.0789
G1 X174.596 Y130.375 E2.0803
G1 X175.431 Y130.585 E2.1189
G1 X175.459 Y130.593 E2.1203
G1 X175.649 Y130.649 E2.1291
G1 X175.677 Y130.658 E2.1304
G1 X176.347 Y130.887 E2.1622
G1 X176.375 Y130.897 E2.1636
G1 X176.563 Y130.970 E2.1726
G1 X176.590 Y130.982 E2.1740
G1 X177.408 Y131.343 E2.2141
G1 X177.436 Y131.355 E2.2155
G1 X177.619 Y131.446 E2.2247
G1 X177.646 Y131.460 E2.2260
G1 X178.275 Y131.805 E2.2582
G1 X178.298 Y131.818 E2.2594
G1 X178.450 Y131.910 E2.2674
G1 X178.472 Y131.923 E2.2686
G1 X179.066 Y132.311 E2.3004
G1 X179.088 Y132.326 E2.3016
G1 X179.234 Y132.429 E2.3096
G1 X179.255 Y132.445 E2.3108
G1 X179.834 Y132.888 E2.3435
G1 X179.858 Y132.907 E2.3449
G1 X180.019 Y133.042 E2.3544
G1 X180.042 Y133.063 E2.3558
G1 X180.734 Y133.699 E2.3980
G1 X180.760 Y133.724 E2.3996
G1 X180.928 Y133.895 E2.4103
G1 X180.953 Y133.921 E2.4120
G1 X181.586 Y134.635 E2.4548
G1 X181.609 Y134.662 E2.4564
G1 X181.758 Y134.849 E2.4671
G1 X181.780 Y134.878 E2.4687
G1 X182.326 Y135.636 E2.5107
G1 X182.343 Y135.661 E2.5121
G1 X182.457 Y135.836 E2.5214
G1 X182.474 Y135.862 E2.5228
G1 X182.864 Y136.521 E2.5572
G1 X182.883 Y136.555 E2.5590
G1 X183.006 Y136.792 E2.5710
G1 X183.024 Y136.828 E2.5728
G1 X183.573 Y138.053 E2.6330
G1 X183.590 Y138.093 E2.6350
G1 X183.693 Y138.369 E2.6482
G1 X183.707 Y138.411 E2.6502
G1 X183.990 Y139.337 E2.6937
G1 X184.000 Y139.374 E2.6954
G1 X184.062 Y139.623 E2.7069
G1 X184.070 Y139.661 E2.7087
G1 X184.274 Y140.739 E2.7580
G1 X184.280 Y140.778 E2.7597
G1 X184.314 Y141.036 E2.7714
G1 X184.318 Y141.074 E2.7731
G1 X184.389 Y142.010 E2.8152
G1 X184.391 Y142.036 E2.8164
G1 X184.397 Y142.216 E2.8245
G1 X184.398 Y142.242 E2.8257
G1 X184.390 Y168.024 E3.9833
G1 X184.388 Y168.068 E3.9853
G1 X184.370 Y168.362 E3.9985
G1 X184.365 Y168.406 E4.0005
G1 X184.202 Y169.695 E4.0589
G1 X184.196 Y169.737 E4.0607
G1 X184.144 Y170.014 E4.0734
G1 X184.135 Y170.054 E4.0753
G1 X183.915 Y170.931 E4.1159
G1 X183.907 Y170.959 E4.1172
G1 X183.851 Y171.148 E4.1260
G1 X183.842 Y171.176 E4.1273
G1 X183.613 Y171.847 E4.1592
G1 X183.603 Y171.875 E4.1605
G1 X183.530 Y172.063 E4.1696
G1 X183.518 Y172.090 E4.1709
G1 X183.157 Y172.909 E4.2110
G1 X183.144 Y172.936 E4.2124
G1 X183.054 Y173.119 E4.2216
G1 X183.040 Y173.146 E4.2230
G1 X182.695 Y173.775 E4.2551
G1 X182.682 Y173.797 E4.2563
G1 X182.590 Y173.950 E4.2643
G1 X182.576 Y173.972 E4.2655
G1 X182.189 Y174.566 E4.2973
G1 X182.174 Y174.588 E4.2985
G1 X182.071 Y174.734 E4.3065
G1 X182.055 Y174.755 E4.3077
G1 X181.612 Y175.334 E4.3404
G1 X181.593 Y175.358 E4.3418
G1 X181.458 Y175.519 E4.3513
G1 X181.437 Y175.542 E4.3527
G1 X180.801 Y176.234 E4.3949
G1 X180.776 Y176.260 E4.3965
G1 X180.605 Y176.428 E4.4073
G1 X180.579 Y176.453 E4.4089
G1 X179.865 Y177.086 E4.4517
G1 X179.838 Y177.109 E4.4533
G1 X179.651 Y177.259 E4.4641
G1 X179.622 Y177.280 E4.4657
G1 X178.840 Y177.843 E4.5090
G1 X178.807 Y177.865 E4.5107
G1 X178.581 Y178.009 E4.5228
G1 X178.547 Y178.030 E4.5245
G1 X177.544 Y178.590 E4.5761
G1 X177.509 Y178.609 E4.5779
G1 X177.269 Y178.726 E4.5899
G1 X177.232 Y178.742 E4.5917
G1 X176.348 Y179.112 E4.6348
G1 X176.315 Y179.125 E4.6363
G1 X176.094 Y179.205 E4.6469
G1 X176.061 Y179.216 E4.6485
G1 X175.163 Y179.490 E4.6906
G1 X175.126 Y179.500 E4.6923
G1 X174.877 Y179.562 E4.7039
G1 X174.839 Y179.570 E4.7056
G1 X173.761 Y179.774 E4.7549
G1 X173.722 Y179.780 E4.7566
G1 X173.464 Y179.814 E4.7683
G1 X173.425 Y179.818 E4.7701
G1 X172.491 Y179.889 E4.8121
G1 X172.464 Y179.891 E4.8133
G1 X172.285 Y179.897 E4.8214
G1 X172.259 Y179.898 E4.8226
G1 X137.652 Y179.895 E6.3765
G1 X137.623 Y179.895 E6.3777
G1 X137.432 Y179.887 E6.3863
G1 X137.404 Y179.885 E6.3876
G1 X136.589 Y179.819 E6.4243
G1 X136.561 Y179.816 E6.4256
G1 X136.374 Y179.793 E6.4341
G1 X136.346 Y179.789 E6.4353
G1 X135.655 Y179.676 E6.4668
G1 X135.626 Y179.671 E6.4681
G1 X135.433 Y179.631 E6.4769
G1 X135.404 Y179.625 E6.4782
G1 X134.569 Y179.415 E6.5169
G1 X134.540 Y179.407 E6.5182
G1 X134.351 Y179.351 E6.5271
G1 X134.324 Y179.342 E6.5284
G1 X133.653 Y179.113 E6.5602
G1 X133.625 Y179.103 E6.5616
G1 X133.437 Y179.030 E6.5706
G1 X133.410 Y179.018 E6.5720
G1 X132.592 Y178.657 E6.6121
G1 X132.564 Y178.645 E6.6135
G1 X132.381 Y178.554 E6.6227
G1 X132.354 Y178.540 E6.6240
G1 X131.725 Y178.195 E6.6562
G1 X131.702 Y178.182 E6.6574
G1 X131.550 Y178.091 E6.6653
G1 X131.528 Y178.077 E6.6665
G1 X130.934 Y177.689 E6.6984
G1 X130.912 Y177.674 E6.6996
G1 X130.766 Y177.571 E6.7076
G1 X130.745 Y177.555 E6.7088
G1 X130.166 Y177.112 E6.7415
G1 X130.142 Y177.093 E6.7429
G1 X129.981 Y176.958 E6.7523
G1 X129.958 Y176.937 E6.7537
G1 X129.266 Y176.301 E6.7959
G1 X129.240 Y176.276 E6.7975
G1 X129.072 Y176.105 E6.8083
G1 X129.047 Y176.079 E6.8099
G1 X128.414 Y175.365 E6.8528
G1 X128.391 Y175.338 E6.8544
G1 X128.242 Y175.151 E6.8651
G1 X128.220 Y175.123 E6.8667
G1 X127.666 Y174.352 E6.9093
G1 X127.646 Y174.323 E6.9109
G1 X127.517 Y174.123 E6.9216
G1 X127.498 Y174.093 E6.9232
G1 X127.028 Y173.277 E6.9655
G1 X127.011 Y173.246 E6.9670
G1 X126.903 Y173.034 E6.9777
G1 X126.888 Y173.003 E6.9793
G1 X126.501 Y172.138 E7.0218
G1 X126.487 Y172.106 E7.0234
G1 X126.401 Y171.886 E7.0340
G1 X126.389 Y171.853 E7.0356
G1 X126.096 Y170.970 E7.0774
G1 X126.086 Y170.937 E7.0789
G1 X126.024 Y170.715 E7.0893
G1 X126.015 Y170.681 E7.0908
G1 X125.814 Y169.794 E7.1317
G1 X125.808 Y169.760 E7.1332
G1 X125.768 Y169.532 E7.1436
G1 X125.762 Y169.498 E7.1451
G1 X125.648 Y168.584 E7.1865
G1 X125.645 Y168.554 E7.1879
G1 X125.629 Y168.354 E7.1969
G1 X125.627 Y168.324 E7.1982
G1 X125.603 Y167.707 E7.2260
G1 X125.602 Y167.693 E7.2266
G1 X125.601 Y167.601 E7.2307
G1 X125.600 Y167.588 E7.2313
G1 X125.605 Y142.123 E8.3747
G1 X125.606 Y142.086 E8.3764
G1 X125.619 Y141.839 E8.3875
G1 X125.622 Y141.802 E8.3892
G1 X125.750 Y140.594 E8.4437
G1 X125.754 Y140.557 E8.4454
G1 X125.793 Y140.315 E8.4564
G1 X125.800 Y140.280 E8.4580
G1 X125.952 Y139.565 E8.4908
G1 X125.960 Y139.532 E8.4923
G1 X126.017 Y139.315 E8.5024
G1 X126.026 Y139.283 E8.5039
G1 X126.344 Y138.276 E8.5513
G1 X126.353 Y138.248 E8.5526
G1 X126.421 Y138.061 E8.5616
G1 X126.432 Y138.033 E8.5629
G1 X126.640 Y137.528 E8.5874
G1 X126.652 Y137.500 E8.5888
G1 X126.738 Y137.315 E8.5980
G1 X126.751 Y137.287 E8.5993
G1 X127.254 Y136.317 E8.6484
G1 X127.270 Y136.286 E8.6500
G1 X127.389 Y136.082 E8.6606
G1 X127.408 Y136.052 E8.6622
G1 X127.819 Y135.421 E8.6960
G1 X127.836 Y135.396 E8.6974
G1 X127.958 Y135.226 E8.7067
G1 X127.977 Y135.201 E8.7081
G1 X128.547 Y134.477 E8.7495
G1 X128.567 Y134.452 E8.7509
G1 X128.704 Y134.293 E8.7604
G1 X128.725 Y134.270 E8.7618
G1 X129.247 Y133.716 E8.7960
G1 X129.534 Y133.994 F4800
G92 E0
G1 X129.552 Y133.976 E0.0011 F1800
G1 X129.718 Y133.817 E0.0115
G1 X129.737 Y133.800 E0.0126
G1 X130.586 Y133.066 E0.0630
G1 X130.606 Y133.050 E0.0641
G1 X130.786 Y132.909 E0.0744
G1 X130.807 Y132.894 E0.0756
G1 X131.407 Y132.474 E0.1084
G1 X131.423 Y132.463 E0.1093
G1 X131.566 Y132.371 E0.1170
G1 X131.582 Y132.361 E0.1178
G1 X132.195 Y131.997 E0.1498
G1 X132.214 Y131.986 E0.1508
G1 X132.390 Y131.893 E0.1598
G1 X132.410 Y131.882 E0.1608
G1 X133.217 Y131.496 E0.2009
G1 X133.234 Y131.488 E0.2018
G1 X133.391 Y131.420 E0.2094
G1 X133.408 Y131.413 E0.2103
G1 X133.907 Y131.219 E0.2343
G1 X133.927 Y131.212 E0.2353
G1 X134.112 Y131.149 E0.2441
G1 X134.133 Y131.142 E0.2450
G1 X135.160 Y130.842 E0.2931
G1 X135.183 Y130.836 E0.2942
G1 X135.397 Y130.785 E0.3040
G1 X135.421 Y130.780 E0.3051
G1 X136.133 Y130.646 E0.3377
G1 X136.157 Y130.642 E0.3388
G1 X136.377 Y130.611 E0.3487
G1 X136.402 Y130.608 E0.3499
G1 X137.490 Y130.513 E0.3989
G1 X137.512 Y130.511 E0.3999
G1 X137.710 Y130.503 E0.4088
G1 X137.732 Y130.502 E0.4098
G1 X172.344 Y130.505 E1.9639
G1 X172.364 Y130.505 E1.9648
G1 X172.547 Y130.512 E1.9730
G1 X172.568 Y130.514 E1.9739
G1 X173.374 Y130.580 E2.0103
G1 X173.394 Y130.582 E2.0112
G1 X173.574 Y130.604 E2.0193
G1 X173.594 Y130.606 E2.0202
G1 X174.277 Y130.718 E2.0513
G1 X174.297 Y130.722 E2.0522
G1 X174.482 Y130.760 E2.0607
G1 X174.502 Y130.764 E2.0616
G1 X175.330 Y130.972 E2.0999
G1 X175.350 Y130.977 E2.1009
G1 X175.531 Y131.031 E2.1094
G1 X175.551 Y131.037 E2.1103
G1 X176.213 Y131.264 E2.1417
G1 X176.234 Y131.271 E2.1427
G1 X176.413 Y131.341 E2.1513
G1 X176.433 Y131.350 E2.1523
G1 X177.243 Y131.707 E2.1921
G1 X177.263 Y131.716 E2.1930
G1 X177.438 Y131.803 E2.2018
G1 X177.458 Y131.813 E2.2028
G1 X178.079 Y132.154 E2.2346
G1 X178.095 Y132.163 E2.2355
G1 X178.241 Y132.251 E2.2431
G1 X178.257 Y132.261 E2.2439
G1 X178.844 Y132.644 E2.2754
G1 X178.860 Y132.654 E2.2763
G1 X179.000 Y132.753 E2.2840
G1 X179.015 Y132.765 E2.2848
G1 X179.587 Y133.203 E2.3172
G1 X179.604 Y133.217 E2.3182
G1 X179.758 Y133.346 E2.3272
G1 X179.775 Y133.360 E2.3282
G1 X180.460 Y133.990 E2.3700
G1 X180.478 Y134.008 E2.3711
G1 X180.639 Y134.172 E2.3814
G1 X180.657 Y134.190 E2.3826
G1 X181.283 Y134.897 E2.4250
G1 X181.300 Y134.916 E2.4261
G1 X181.443 Y135.095 E2.4364
G1 X181.458 Y135.115 E2.4376
G1 X181.998 Y135.866 E2.4791
G1 X182.011 Y135.884 E2.4801
