; G-Code generated by Simplify3D(R) Version 4.0.1
; Dec 16, 2019 at 12:22:45 PM
; Settings Summary
;   processName,Process1
;   applyToModels,Motors_Cover
;   profileName,Default (modified)
;   profileVersion,2017-03-01 08:00:00
;   baseProfile,
;   printMaterial,PLA
;   printQuality,Medium
;   printExtruders,
;   extruderName,Primary Extruder
;   extruderToolheadNumber,0
;   extruderDiameter,0.4
;   extruderAutoWidth,0
;   extruderWidth,0.4
;   extrusionMultiplier,0.9
;   extruderUseRetract,1
;   extruderRetractionDistance,1
;   extruderExtraRestartDistance,0
;   extruderRetractionZLift,0
;   extruderRetractionSpeed,1800
;   extruderUseCoasting,0
;   extruderCoastingDistance,0.2
;   extruderUseWipe,0
;   extruderWipeDistance,5
;   primaryExtruder,0
;   layerHeight,0.3
;   topSolidLayers,6
;   bottomSolidLayers,6
;   perimeterOutlines,6
;   printPerimetersInsideOut,1
;   startPointOption,2
;   startPointOriginX,0
;   startPointOriginY,0
;   sequentialIslands,0
;   spiralVaseMode,0
;   firstLayerHeightPercentage,100
;   firstLayerWidthPercentage,100
;   firstLayerUnderspeed,0.5
;   useRaft,0
;   raftExtruder,0
;   raftTopLayers,3
;   raftBaseLayers,2
;   raftOffset,3
;   raftSeparationDistance,0.14
;   raftTopInfill,100
;   aboveRaftSpeedMultiplier,0.3
;   useSkirt,1
;   skirtExtruder,0
;   skirtLayers,1
;   skirtOutlines,4
;   skirtOffset,4
;   usePrimePillar,0
;   primePillarExtruder,999
;   primePillarWidth,12
;   primePillarLocation,7
;   primePillarSpeedMultiplier,1
;   useOozeShield,0
;   oozeShieldExtruder,999
;   oozeShieldOffset,2
;   oozeShieldOutlines,1
;   oozeShieldSidewallShape,1
;   oozeShieldSidewallAngle,30
;   oozeShieldSpeedMultiplier,1
;   infillExtruder,0
;   internalInfillPattern,Full Honeycomb
;   externalInfillPattern,Rectilinear
;   infillPercentage,20
;   outlineOverlapPercentage,15
;   infillExtrusionWidthPercentage,100
;   minInfillLength,5
;   infillLayerInterval,1
;   internalInfillAngles,0,120,-120
;   overlapInternalInfillAngles,0
;   externalInfillAngles,45,-45
;   generateSupport,0
;   supportExtruder,0
;   supportInfillPercentage,30
;   supportExtraInflation,0
;   supportBaseLayers,0
;   denseSupportExtruder,0
;   denseSupportLayers,0
;   denseSupportInfillPercentage,70
;   supportLayerInterval,1
;   supportHorizontalPartOffset,0.3
;   supportUpperSeparationLayers,1
;   supportLowerSeparationLayers,1
;   supportType,0
;   supportGridSpacing,4
;   maxOverhangAngle,45
;   supportAngles,0
;   temperatureName,Primary Extruder,Bed
;   temperatureNumber,0,0
;   temperatureSetpointCount,1,1
;   temperatureSetpointLayers,1,1
;   temperatureSetpointTemperatures,205,65
;   temperatureStabilizeAtStartup,1,1
;   temperatureHeatedBed,0,1
;   temperatureRelayBetweenLayers,0,0
;   temperatureRelayBetweenLoops,0,0
;   fanLayers,1,2
;   fanSpeeds,0,100
;   blipFanToFullPower,0
;   adjustSpeedForCooling,1
;   minSpeedLayerTime,15
;   minCoolingSpeedSlowdown,20
;   increaseFanForCooling,0
;   minFanLayerTime,45
;   maxCoolingFanSpeed,100
;   increaseFanForBridging,0
;   bridgingFanSpeed,100
;   use5D,1
;   relativeEdistances,0
;   allowEaxisZeroing,1
;   independentExtruderAxes,0
;   includeM10123,0
;   stickySupport,1
;   applyToolheadOffsets,0
;   gcodeXoffset,0
;   gcodeYoffset,0
;   gcodeZoffset,0
;   overrideMachineDefinition,0
;   machineTypeOverride,0
;   strokeXoverride,200
;   strokeYoverride,200
;   strokeZoverride,200
;   originOffsetXoverride,0
;   originOffsetYoverride,0
;   originOffsetZoverride,0
;   homeXdirOverride,-1
;   homeYdirOverride,-1
;   homeZdirOverride,-1
;   flipXoverride,1
;   flipYoverride,-1
;   flipZoverride,1
;   toolheadOffsets,0,0|0,0|0,0|0,0|0,0|0,0
;   overrideFirmwareConfiguration,0
;   firmwareTypeOverride,RepRap (Marlin/Repetier/Sprinter)
;   GPXconfigOverride,r2
;   baudRateOverride,115200
;   overridePrinterModels,0
;   printerModelsOverride
;   startingGcode,G28 ; home all axes
;   layerChangeGcode,
;   retractionGcode,
;   toolChangeGcode,
;   endingGcode,M104 S0 ; turn off extruder,M140 S0 ; turn off bed,M84 ; disable motors
;   exportFileFormat,gcode
;   celebration,0
;   celebrationSong,Random Song
;   postProcessing,
;   defaultSpeed,3600
;   outlineUnderspeed,0.5
;   solidInfillUnderspeed,0.8
;   supportUnderspeed,0.8
;   rapidXYspeed,4800
;   rapidZspeed,1002
;   minBridgingArea,50
;   bridgingExtraInflation,0
;   bridgingExtrusionMultiplier,1
;   bridgingSpeedMultiplier,1
;   useFixedBridgingAngle,0
;   fixedBridgingAngle,0
;   applyBridgingToPerimeters,0
;   filamentDiameters,1.75|1.75|1.75|1.75|1.75|1.75
;   filamentPricesPerKg,46|46|46|46|46|46
;   filamentDensities,1.25|1.25|1.25|1.25|1.25|1.25
;   useMinPrintHeight,0
;   minPrintHeight,0
;   useMaxPrintHeight,0
;   maxPrintHeight,0
;   useDiaphragm,0
;   diaphragmLayerInterval,20
;   robustSlicing,1
;   mergeAllIntoSolid,0
;   onlyRetractWhenCrossingOutline,1
;   retractBetweenLayers,1
;   useRetractionMinTravel,0
;   retractionMinTravel,3
;   retractWhileWiping,0
;   onlyWipeOutlines,1
;   avoidCrossingOutline,0
;   maxMovementDetourFactor,3
;   toolChangeRetractionDistance,12
;   toolChangeExtraRestartDistance,-0.5
;   toolChangeRetractionSpeed,600
;   externalThinWallType,0
;   internalThinWallType,2
;   thinWallAllowedOverlapPercentage,10
;   singleExtrusionMinLength,1
;   singleExtrusionMinPrintingWidthPercentage,50
;   singleExtrusionMaxPrintingWidthPercentage,200
;   singleExtrusionEndpointExtension,0.2
;   horizontalSizeCompensation,0
G90
M82
M106 S0
M140 S65
M190 S65
M104 S205 T0
M109 S205 T0
G28 ; home all axes
G92 E0
G1 E-1.0000 F1800
G1 Z0.300 F1002
; process Process1
; layer 1, Z = 0.300
T0
; tool H0.300 W0.400
; skirt
G1 X92.550 Y147.813 F4800
G1 E0.0000 F540
G92 E0
G1 X93.065 Y147.600 E0.0250 F1800
G1 X144.598 Y147.600 E2.3389
G1 X144.600 Y113.064 E3.8896
G1 X144.813 Y112.550 E3.9146
G1 X147.550 Y109.813 E4.0884
G1 X148.065 Y109.600 E4.1134
G1 X210.032 Y109.600 E6.8958
G1 X210.041 Y109.600 E6.8962
G1 X210.105 Y109.601 E6.8991
G1 X210.114 Y109.601 E6.8995
G1 X210.501 Y109.612 E6.9169
G1 X210.527 Y109.613 E6.9181
G1 X210.703 Y109.624 E6.9260
G1 X210.729 Y109.626 E6.9271
G1 X211.436 Y109.698 E6.9591
G1 X211.478 Y109.704 E6.9609
G1 X211.756 Y109.749 E6.9736
G1 X211.797 Y109.757 E6.9755
G1 X212.797 Y109.983 E7.0215
G1 X212.846 Y109.996 E7.0238
G1 X213.172 Y110.094 E7.0391
G1 X213.220 Y110.111 E7.0414
G1 X214.199 Y110.486 E7.0884
G1 X214.238 Y110.503 E7.0904
G1 X214.502 Y110.623 E7.1034
G1 X214.541 Y110.642 E7.1053
G1 X215.214 Y111.001 E7.1396
G1 X215.245 Y111.019 E7.1412
G1 X215.448 Y111.140 E7.1518
G1 X215.478 Y111.159 E7.1534
G1 X216.123 Y111.592 E7.1883
G1 X216.160 Y111.619 E7.1903
G1 X216.403 Y111.805 E7.2041
G1 X216.438 Y111.834 E7.2061
G1 X217.287 Y112.580 E7.2569
G1 X217.326 Y112.617 E7.2593
G1 X217.578 Y112.875 E7.2755
G1 X217.614 Y112.915 E7.2779
G1 X218.293 Y113.726 E7.3254
G1 X218.320 Y113.760 E7.3273
G1 X218.493 Y113.994 E7.3404
G1 X218.517 Y114.030 E7.3423
G1 X218.934 Y114.676 E7.3769
G1 X218.953 Y114.707 E7.3785
G1 X219.071 Y114.913 E7.3891
G1 X219.088 Y114.944 E7.3907
G1 X219.439 Y115.631 E7.4254
G1 X219.458 Y115.671 E7.4274
G1 X219.576 Y115.942 E7.4406
G1 X219.592 Y115.983 E7.4426
G1 X219.946 Y116.964 E7.4894
G1 X219.959 Y117.005 E7.4914
G1 X220.041 Y117.284 E7.5044
G1 X220.052 Y117.326 E7.5063
G1 X220.222 Y118.078 E7.5410
G1 X220.230 Y118.120 E7.5429
G1 X220.276 Y118.399 E7.5556
G1 X220.281 Y118.441 E7.5575
G1 X220.382 Y119.416 E7.6015
G1 X220.384 Y119.452 E7.6031
G1 X220.397 Y119.692 E7.6139
G1 X220.398 Y119.728 E7.6156
G1 X220.393 Y190.387 E10.7882
G1 X220.392 Y190.423 E10.7898
G1 X220.380 Y190.662 E10.8006
G1 X220.377 Y190.697 E10.8022
G1 X220.301 Y191.436 E10.8355
G1 X220.296 Y191.478 E10.8374
G1 X220.251 Y191.756 E10.8500
G1 X220.243 Y191.797 E10.8519
G1 X220.017 Y192.797 E10.8980
G1 X220.004 Y192.846 E10.9002
G1 X219.906 Y193.172 E10.9155
G1 X219.889 Y193.220 E10.9178
G1 X219.514 Y194.199 E10.9649
G1 X219.497 Y194.238 E10.9668
G1 X219.377 Y194.502 E10.9798
G1 X219.358 Y194.541 E10.9818
G1 X218.984 Y195.241 E11.0174
G1 X218.963 Y195.279 E11.0194
G1 X218.807 Y195.531 E11.0327
G1 X218.783 Y195.568 E11.0346
G1 X218.169 Y196.435 E11.0823
G1 X218.142 Y196.471 E11.0844
G1 X217.949 Y196.709 E11.0981
G1 X217.919 Y196.743 E11.1001
G1 X217.345 Y197.364 E11.1381
G1 X217.314 Y197.396 E11.1401
G1 X217.096 Y197.604 E11.1536
G1 X217.062 Y197.633 E11.1557
G1 X216.274 Y198.293 E11.2018
G1 X216.240 Y198.320 E11.2038
G1 X216.006 Y198.493 E11.2168
G1 X215.970 Y198.517 E11.2188
G1 X215.299 Y198.951 E11.2547
G1 X215.261 Y198.973 E11.2566
G1 X215.001 Y199.118 E11.2700
G1 X214.962 Y199.139 E11.2720
G1 X214.011 Y199.594 E11.3193
G1 X213.971 Y199.612 E11.3213
G1 X213.697 Y199.722 E11.3345
G1 X213.656 Y199.738 E11.3365
G1 X212.934 Y199.978 E11.3707
G1 X212.901 Y199.988 E11.3722
G1 X212.679 Y200.050 E11.3826
G1 X212.645 Y200.058 E11.3841
G1 X211.922 Y200.222 E11.4174
G1 X211.880 Y200.230 E11.4193
G1 X211.601 Y200.276 E11.4320
G1 X211.559 Y200.281 E11.4339
G1 X210.584 Y200.382 E11.4780
G1 X210.548 Y200.384 E11.4796
G1 X210.308 Y200.397 E11.4904
G1 X210.272 Y200.398 E11.4920
G1 X99.894 Y200.400 E16.4481
G1 X99.862 Y200.399 E16.4495
G1 X99.650 Y200.390 E16.4590
G1 X99.619 Y200.388 E16.4605
G1 X98.457 Y200.282 E16.5128
G1 X98.410 Y200.277 E16.5150
G1 X98.097 Y200.227 E16.5292
G1 X98.051 Y200.218 E16.5313
G1 X97.303 Y200.047 E16.5658
G1 X97.255 Y200.034 E16.5680
G1 X96.936 Y199.937 E16.5830
G1 X96.889 Y199.920 E16.5852
G1 X95.633 Y199.437 E16.6456
G1 X95.577 Y199.413 E16.6484
G1 X95.211 Y199.235 E16.6666
G1 X95.157 Y199.206 E16.6694
G1 X94.208 Y198.637 E16.7191
G1 X94.171 Y198.613 E16.7210
G1 X93.926 Y198.444 E16.7344
G1 X93.891 Y198.418 E16.7364
G1 X93.303 Y197.956 E16.7699
G1 X93.282 Y197.939 E16.7711
G1 X93.146 Y197.822 E16.7792
G1 X93.126 Y197.805 E16.7804
G1 X92.772 Y197.480 E16.8020
G1 X92.743 Y197.452 E16.8038
G1 X92.555 Y197.258 E16.8159
G1 X92.528 Y197.228 E16.8177
G1 X91.749 Y196.327 E16.8712
G1 X91.718 Y196.289 E16.8734
G1 X91.521 Y196.026 E16.8882
G1 X91.493 Y195.986 E16.8903
G1 X91.066 Y195.323 E16.9257
G1 X91.047 Y195.293 E16.9273
G1 X90.929 Y195.087 E16.9380
G1 X90.912 Y195.056 E16.9396
G1 X90.574 Y194.394 E16.9730
G1 X90.559 Y194.363 E16.9745
G1 X90.462 Y194.146 E16.9852
G1 X90.448 Y194.114 E16.9868
G1 X90.170 Y193.399 E17.0212
G1 X90.155 Y193.358 E17.0232
G1 X90.067 Y193.082 E17.0362
G1 X90.055 Y193.040 E17.0381
G1 X89.799 Y192.024 E17.0852
G1 X89.788 Y191.975 E17.0875
G1 X89.728 Y191.638 E17.1028
G1 X89.721 Y191.588 E17.1051
G1 X89.618 Y190.584 E17.1504
G1 X89.616 Y190.548 E17.1520
G1 X89.603 Y190.308 E17.1628
G1 X89.602 Y190.272 E17.1644
G1 X89.600 Y151.065 E18.9249
G1 X89.813 Y150.550 E18.9499
G1 X92.550 Y147.813 E19.1237
G1 X92.777 Y148.152 F4800
G92 E0
G1 X93.144 Y148.000 E0.0179 F1800
G1 X144.998 Y148.000 E2.3462
G1 X145.000 Y113.144 E3.9112
G1 X145.152 Y112.776 E3.9291
G1 X147.777 Y110.152 E4.0958
G1 X148.144 Y110.000 E4.1136
G1 X210.030 Y110.000 E6.8924
G1 X210.037 Y110.000 E6.8927
G1 X210.098 Y110.001 E6.8954
G1 X210.105 Y110.001 E6.8957
G1 X210.487 Y110.011 E6.9129
G1 X210.505 Y110.012 E6.9137
G1 X210.673 Y110.023 E6.9213
G1 X210.692 Y110.025 E6.9221
G1 X211.389 Y110.096 E6.9536
G1 X211.419 Y110.100 E6.9549
G1 X211.685 Y110.143 E6.9670
G1 X211.715 Y110.149 E6.9684
G1 X212.702 Y110.371 E7.0138
G1 X212.737 Y110.381 E7.0155
G1 X213.050 Y110.475 E7.0301
G1 X213.084 Y110.487 E7.0317
G1 X214.050 Y110.857 E7.0782
G1 X214.078 Y110.869 E7.0796
G1 X214.331 Y110.985 E7.0920
G1 X214.358 Y110.998 E7.0934
G1 X215.022 Y111.352 E7.1272
G1 X215.044 Y111.364 E7.1283
G1 X215.238 Y111.481 E7.1385
G1 X215.259 Y111.494 E7.1396
G1 X215.895 Y111.921 E7.1740
G1 X215.922 Y111.940 E7.1755
G1 X216.154 Y112.118 E7.1886
G1 X216.179 Y112.139 E7.1901
G1 X217.018 Y112.875 E7.2402
G1 X217.046 Y112.902 E7.2419
G1 X217.287 Y113.149 E7.2574
G1 X217.312 Y113.177 E7.2591
G1 X217.983 Y113.978 E7.3060
G1 X218.002 Y114.002 E7.3074
G1 X218.167 Y114.227 E7.3199
G1 X218.184 Y114.252 E7.3213
G1 X218.596 Y114.889 E7.3553
G1 X218.609 Y114.911 E7.3565
G1 X218.722 Y115.108 E7.3667
G1 X218.734 Y115.130 E7.3678
G1 X219.080 Y115.808 E7.4020
G1 X219.094 Y115.836 E7.4034
G1 X219.206 Y116.096 E7.4161
G1 X219.218 Y116.125 E7.4175
G1 X219.567 Y117.094 E7.4638
G1 X219.577 Y117.123 E7.4652
G1 X219.655 Y117.390 E7.4776
G1 X219.663 Y117.420 E7.4790
G1 X219.831 Y118.161 E7.5131
G1 X219.836 Y118.190 E7.5145
G1 X219.880 Y118.458 E7.5267
G1 X219.884 Y118.488 E7.5280
G1 X219.983 Y119.452 E7.5715
G1 X219.985 Y119.478 E7.5727
G1 X219.997 Y119.708 E7.5830
G1 X219.998 Y119.733 E7.5842
G1 X219.993 Y190.382 E10.7564
G1 X219.992 Y190.408 E10.7575
G1 X219.980 Y190.636 E10.7678
G1 X219.979 Y190.662 E10.7690
G1 X219.904 Y191.389 E10.8018
G1 X219.900 Y191.419 E10.8032
G1 X219.857 Y191.685 E10.8153
G1 X219.851 Y191.715 E10.8166
G1 X219.629 Y192.702 E10.8621
G1 X219.619 Y192.737 E10.8637
G1 X219.525 Y193.049 E10.8783
G1 X219.513 Y193.084 E10.8800
G1 X219.143 Y194.050 E10.9264
G1 X219.131 Y194.078 E10.9278
G1 X219.015 Y194.331 E10.9403
G1 X219.002 Y194.358 E10.9417
G1 X218.634 Y195.047 E10.9767
G1 X218.619 Y195.074 E10.9781
G1 X218.470 Y195.316 E10.9909
G1 X218.452 Y195.342 E10.9923
G1 X217.847 Y196.198 E11.0394
G1 X217.827 Y196.224 E11.0408
G1 X217.642 Y196.452 E11.0540
G1 X217.621 Y196.476 E11.0554
G1 X217.056 Y197.088 E11.0928
G1 X217.033 Y197.111 E11.0943
G1 X216.825 Y197.310 E11.1072
G1 X216.801 Y197.331 E11.1087
G1 X216.022 Y197.983 E11.1543
G1 X215.998 Y198.002 E11.1556
G1 X215.773 Y198.167 E11.1681
G1 X215.748 Y198.184 E11.1695
G1 X215.087 Y198.611 E11.2049
G1 X215.060 Y198.627 E11.2063
G1 X214.812 Y198.766 E11.2191
G1 X214.783 Y198.781 E11.2205
G1 X213.844 Y199.231 E11.2672
G1 X213.815 Y199.243 E11.2687
G1 X213.553 Y199.349 E11.2814
G1 X213.524 Y199.360 E11.2828
G1 X212.812 Y199.597 E11.3164
G1 X212.789 Y199.604 E11.3175
G1 X212.576 Y199.663 E11.3274
G1 X212.552 Y199.669 E11.3285
G1 X211.839 Y199.831 E11.3614
G1 X211.810 Y199.836 E11.3627
G1 X211.542 Y199.880 E11.3749
G1 X211.512 Y199.884 E11.3762
G1 X210.548 Y199.983 E11.4198
G1 X210.522 Y199.985 E11.4209
G1 X210.293 Y199.997 E11.4313
G1 X210.267 Y199.998 E11.4324
G1 X99.898 Y200.000 E16.3881
G1 X99.876 Y199.999 E16.3891
G1 X99.673 Y199.990 E16.3982
G1 X99.650 Y199.989 E16.3992
G1 X98.500 Y199.885 E16.4511
G1 X98.466 Y199.880 E16.4526
G1 X98.167 Y199.833 E16.4662
G1 X98.134 Y199.826 E16.4677
G1 X97.399 Y199.658 E16.5016
G1 X97.365 Y199.649 E16.5032
G1 X97.060 Y199.556 E16.5175
G1 X97.026 Y199.544 E16.5191
G1 X95.784 Y199.067 E16.5788
G1 X95.744 Y199.050 E16.5808
G1 X95.394 Y198.879 E16.5983
G1 X95.356 Y198.858 E16.6002
G1 X94.419 Y198.297 E16.6493
G1 X94.393 Y198.280 E16.6507
G1 X94.159 Y198.118 E16.6635
G1 X94.133 Y198.100 E16.6649
G1 X93.553 Y197.644 E16.6980
G1 X93.539 Y197.632 E16.6989
G1 X93.408 Y197.520 E16.7066
G1 X93.393 Y197.507 E16.7074
G1 X93.047 Y197.189 E16.7286
G1 X93.026 Y197.169 E16.7299
G1 X92.846 Y196.984 E16.7415
G1 X92.827 Y196.962 E16.7428
G1 X92.056 Y196.071 E16.7957
G1 X92.034 Y196.044 E16.7972
G1 X91.845 Y195.792 E16.8114
G1 X91.825 Y195.763 E16.8129
G1 X91.404 Y195.111 E16.8478
G1 X91.391 Y195.089 E16.8489
G1 X91.278 Y194.892 E16.8591
G1 X91.266 Y194.870 E16.8603
G1 X90.932 Y194.217 E16.8932
G1 X90.922 Y194.194 E16.8943
G1 X90.829 Y193.987 E16.9045
G1 X90.819 Y193.964 E16.9056
G1 X90.545 Y193.260 E16.9396
G1 X90.535 Y193.231 E16.9410
G1 X90.450 Y192.966 E16.9535
G1 X90.441 Y192.936 E16.9548
G1 X90.188 Y191.933 E17.0013
G1 X90.181 Y191.898 E17.0029
G1 X90.124 Y191.576 E17.0176
G1 X90.119 Y191.540 E17.0192
G1 X90.017 Y190.548 E17.0640
G1 X90.015 Y190.522 E17.0651
G1 X90.003 Y190.293 E17.0755
G1 X90.002 Y190.267 E17.0766
G1 X90.000 Y151.144 E18.8333
G1 X90.152 Y150.777 E18.8511
G1 X92.777 Y148.152 E19.0178
G1 X93.003 Y148.491 F4800
G92 E0
G1 X93.224 Y148.400 E0.0107 F1800
G1 X145.398 Y148.400 E2.3534
G1 X145.400 Y113.224 E3.9329
G1 X145.491 Y113.003 E3.9436
G1 X148.003 Y110.491 E4.1031
G1 X148.224 Y110.400 E4.1138
G1 X210.029 Y110.400 E6.8889
G1 X210.033 Y110.400 E6.8891
G1 X210.091 Y110.401 E6.8917
G1 X210.095 Y110.401 E6.8919
