; G-Code generated by Simplify3D(R) Version 4.0.1
; Dec 16, 2019 at 12:49:32 PM
; Settings Summary
;   processName,Process1
;   applyToModels,Paper_Support_Left
;   profileName,Default (modified)
;   profileVersion,2017-03-01 08:00:00
;   baseProfile,
;   printMaterial,PLA
;   printQuality,Medium
;   printExtruders,
;   extruderName,Primary Extruder
;   extruderToolheadNumber,0
;   extruderDiameter,0.4
;   extruderAutoWidth,0
;   extruderWidth,0.4
;   extrusionMultiplier,0.9
;   extruderUseRetract,1
;   extruderRetractionDistance,1
;   extruderExtraRestartDistance,0
;   extruderRetractionZLift,0
;   extruderRetractionSpeed,1800
;   extruderUseCoasting,0
;   extruderCoastingDistance,0.2
;   extruderUseWipe,0
;   extruderWipeDistance,5
;   primaryExtruder,0
;   layerHeight,0.3
;   topSolidLayers,6
;   bottomSolidLayers,6
;   perimeterOutlines,6
;   printPerimetersInsideOut,1
;   startPointOption,2
;   startPointOriginX,0
;   startPointOriginY,0
;   sequentialIslands,0
;   spiralVaseMode,0
;   firstLayerHeightPercentage,100
;   firstLayerWidthPercentage,100
;   firstLayerUnderspeed,0.5
;   useRaft,0
;   raftExtruder,0
;   raftTopLayers,3
;   raftBaseLayers,2
;   raftOffset,3
;   raftSeparationDistance,0.14
;   raftTopInfill,100
;   aboveRaftSpeedMultiplier,0.3
;   useSkirt,1
;   skirtExtruder,0
;   skirtLayers,1
;   skirtOutlines,4
;   skirtOffset,4
;   usePrimePillar,0
;   primePillarExtruder,999
;   primePillarWidth,12
;   primePillarLocation,7
;   primePillarSpeedMultiplier,1
;   useOozeShield,0
;   oozeShieldExtruder,999
;   oozeShieldOffset,2
;   oozeShieldOutlines,1
;   oozeShieldSidewallShape,1
;   oozeShieldSidewallAngle,30
;   oozeShieldSpeedMultiplier,1
;   infillExtruder,0
;   internalInfillPattern,Full Honeycomb
;   externalInfillPattern,Rectilinear
;   infillPercentage,20
;   outlineOverlapPercentage,15
;   infillExtrusionWidthPercentage,100
;   minInfillLength,5
;   infillLayerInterval,1
;   internalInfillAngles,0,120,-120
;   overlapInternalInfillAngles,0
;   externalInfillAngles,45,-45
;   generateSupport,1
;   supportExtruder,0
;   supportInfillPercentage,30
;   supportExtraInflation,0
;   supportBaseLayers,0
;   denseSupportExtruder,0
;   denseSupportLayers,0
;   denseSupportInfillPercentage,70
;   supportLayerInterval,1
;   supportHorizontalPartOffset,0.3
;   supportUpperSeparationLayers,1
;   supportLowerSeparationLayers,1
;   supportType,0
;   supportGridSpacing,4
;   maxOverhangAngle,45
;   supportAngles,0
;   temperatureName,Primary Extruder,Bed
;   temperatureNumber,0,0
;   temperatureSetpointCount,1,1
;   temperatureSetpointLayers,1,1
;   temperatureSetpointTemperatures,205,65
;   temperatureStabilizeAtStartup,1,1
;   temperatureHeatedBed,0,1
;   temperatureRelayBetweenLayers,0,0
;   temperatureRelayBetweenLoops,0,0
;   fanLayers,1,2
;   fanSpeeds,0,100
;   blipFanToFullPower,0
;   adjustSpeedForCooling,1
;   minSpeedLayerTime,15
;   minCoolingSpeedSlowdown,20
;   increaseFanForCooling,0
;   minFanLayerTime,45
;   maxCoolingFanSpeed,100
;   increaseFanForBridging,0
;   bridgingFanSpeed,100
;   use5D,1
;   relativeEdistances,0
;   allowEaxisZeroing,1
;   independentExtruderAxes,0
;   includeM10123,0
;   stickySupport,1
;   applyToolheadOffsets,0
;   gcodeXoffset,0
;   gcodeYoffset,0
;   gcodeZoffset,0
;   overrideMachineDefinition,0
;   machineTypeOverride,0
;   strokeXoverride,200
;   strokeYoverride,200
;   strokeZoverride,200
;   originOffsetXoverride,0
;   originOffsetYoverride,0
;   originOffsetZoverride,0
;   homeXdirOverride,-1
;   homeYdirOverride,-1
;   homeZdirOverride,-1
;   flipXoverride,1
;   flipYoverride,-1
;   flipZoverride,1
;   toolheadOffsets,0,0|0,0|0,0|0,0|0,0|0,0
;   overrideFirmwareConfiguration,0
;   firmwareTypeOverride,RepRap (Marlin/Repetier/Sprinter)
;   GPXconfigOverride,r2
;   baudRateOverride,115200
;   overridePrinterModels,0
;   printerModelsOverride
;   startingGcode,G28 ; home all axes
;   layerChangeGcode,
;   retractionGcode,
;   toolChangeGcode,
;   endingGcode,M104 S0 ; turn off extruder,M140 S0 ; turn off bed,M84 ; disable motors
;   exportFileFormat,gcode
;   celebration,0
;   celebrationSong,Random Song
;   postProcessing,
;   defaultSpeed,3600
;   outlineUnderspeed,0.5
;   solidInfillUnderspeed,0.8
;   supportUnderspeed,0.8
;   rapidXYspeed,4800
;   rapidZspeed,1002
;   minBridgingArea,50
;   bridgingExtraInflation,0
;   bridgingExtrusionMultiplier,1
;   bridgingSpeedMultiplier,1
;   useFixedBridgingAngle,0
;   fixedBridgingAngle,0
;   applyBridgingToPerimeters,0
;   filamentDiameters,1.75|1.75|1.75|1.75|1.75|1.75
;   filamentPricesPerKg,46|46|46|46|46|46
;   filamentDensities,1.25|1.25|1.25|1.25|1.25|1.25
;   useMinPrintHeight,0
;   minPrintHeight,0
;   useMaxPrintHeight,0
;   maxPrintHeight,0
;   useDiaphragm,0
;   diaphragmLayerInterval,20
;   robustSlicing,1
;   mergeAllIntoSolid,0
;   onlyRetractWhenCrossingOutline,1
;   retractBetweenLayers,1
;   useRetractionMinTravel,0
;   retractionMinTravel,3
;   retractWhileWiping,0
;   onlyWipeOutlines,1
;   avoidCrossingOutline,0
;   maxMovementDetourFactor,3
;   toolChangeRetractionDistance,12
;   toolChangeExtraRestartDistance,-0.5
;   toolChangeRetractionSpeed,600
;   externalThinWallType,0
;   internalThinWallType,2
;   thinWallAllowedOverlapPercentage,10
;   singleExtrusionMinLength,1
;   singleExtrusionMinPrintingWidthPercentage,50
;   singleExtrusionMaxPrintingWidthPercentage,200
;   singleExtrusionEndpointExtension,0.2
;   horizontalSizeCompensation,0
G90
M82
M106 S0
M140 S65
M190 S65
M104 S205 T0
M109 S205 T0
G28 ; home all axes
G92 E0
G1 E-1.0000 F1800
G1 Z0.300 F1002
; process Process1
; layer 1, Z = 0.300
T0
; tool H0.300 W0.400
; skirt
G1 X106.256 Y141.482 F4800
G1 E0.0000 F540
G92 E0
G1 X106.313 Y141.436 E0.0033 F1800
G1 X108.403 Y139.917 E0.1193
G1 X108.464 Y139.877 E0.1226
G1 X108.892 Y139.631 E0.1447
G1 X108.957 Y139.597 E0.1480
G1 X111.317 Y138.547 E0.2640
G1 X111.385 Y138.521 E0.2673
G1 X111.853 Y138.369 E0.2894
G1 X111.924 Y138.350 E0.2927
G1 X114.451 Y137.812 E0.4087
G1 X114.523 Y137.801 E0.4120
G1 X115.013 Y137.749 E0.4341
G1 X115.087 Y137.745 E0.4374
G1 X117.669 Y137.745 E0.5534
G1 X117.743 Y137.749 E0.5567
G1 X118.233 Y137.801 E0.5788
G1 X118.305 Y137.812 E0.5821
G1 X120.832 Y138.350 E0.6981
G1 X120.903 Y138.369 E0.7014
G1 X121.371 Y138.521 E0.7234
G1 X121.439 Y138.547 E0.7267
G1 X123.799 Y139.597 E0.8427
G1 X123.864 Y139.631 E0.8460
G1 X124.292 Y139.877 E0.8682
G1 X124.353 Y139.917 E0.8715
G1 X126.443 Y141.436 E0.9875
G1 X126.500 Y141.482 E0.9908
G1 X126.866 Y141.812 E1.0129
G1 X126.918 Y141.864 E1.0162
G1 X128.380 Y143.488 E1.1143
G1 X163.899 Y150.205 E2.7374
G1 X164.398 Y150.277 E2.7600
G1 X164.657 Y150.295 E2.7717
G1 X164.986 Y150.296 E2.7865
G1 X165.229 Y150.281 E2.7974
G1 X165.860 Y150.183 E2.8261
G1 X166.079 Y150.129 E2.8362
G1 X166.367 Y150.038 E2.8498
G1 X166.793 Y149.863 E2.8704
G1 X167.091 Y149.713 E2.8854
G1 X173.408 Y146.091 E3.2124
G1 X173.436 Y146.076 E3.2138
G1 X173.628 Y145.977 E3.2235
G1 X173.657 Y145.963 E3.2250
G1 X174.419 Y145.614 E3.2626
G1 X174.440 Y145.605 E3.2636
G1 X174.584 Y145.545 E3.2706
G1 X174.605 Y145.537 E3.2716
G1 X175.362 Y145.249 E3.3080
G1 X175.383 Y145.242 E3.3090
G1 X175.527 Y145.192 E3.3158
G1 X175.549 Y145.185 E3.3169
G1 X176.324 Y144.948 E3.3533
G1 X176.346 Y144.941 E3.3543
G1 X176.494 Y144.901 E3.3612
G1 X176.516 Y144.895 E3.3622
G1 X177.314 Y144.706 E3.3990
G1 X177.339 Y144.701 E3.4002
G1 X177.509 Y144.667 E3.4079
G1 X177.534 Y144.663 E3.4091
G1 X178.509 Y144.507 E3.4534
G1 X178.540 Y144.502 E3.4548
G1 X178.751 Y144.478 E3.4644
G1 X178.782 Y144.475 E3.4658
G1 X179.999 Y144.392 E3.5206
G1 X180.023 Y144.390 E3.5216
G1 X180.184 Y144.385 E3.5289
G1 X180.208 Y144.385 E3.5299
G1 X184.755 Y144.384 E3.7341
G1 X185.648 Y143.736 E3.7836
G1 X185.709 Y143.696 E3.7869
G1 X186.135 Y143.450 E3.8090
G1 X186.200 Y143.417 E3.8123
G1 X188.560 Y142.365 E3.9283
G1 X188.629 Y142.339 E3.9316
G1 X189.098 Y142.186 E3.9538
G1 X189.169 Y142.167 E3.9571
G1 X191.696 Y141.631 E4.0731
G1 X191.769 Y141.620 E4.0764
G1 X192.258 Y141.568 E4.0984
G1 X192.331 Y141.564 E4.1017
G1 X194.913 Y141.564 E4.2177
G1 X194.986 Y141.568 E4.2209
G1 X195.475 Y141.620 E4.2430
G1 X195.547 Y141.631 E4.2463
G1 X198.075 Y142.167 E4.3623
G1 X198.146 Y142.186 E4.3656
G1 X198.615 Y142.339 E4.3878
G1 X198.684 Y142.365 E4.3911
G1 X201.044 Y143.417 E4.5071
G1 X201.109 Y143.450 E4.5104
G1 X201.535 Y143.696 E4.5325
G1 X201.596 Y143.736 E4.5357
G1 X203.686 Y145.253 E4.6517
G1 X203.743 Y145.299 E4.6550
G1 X204.109 Y145.629 E4.6771
G1 X204.161 Y145.681 E4.6804
G1 X205.890 Y147.602 E4.7965
G1 X205.936 Y147.659 E4.7998
G1 X206.226 Y148.058 E4.8219
G1 X206.266 Y148.119 E4.8252
G1 X207.557 Y150.357 E4.9412
G1 X207.590 Y150.422 E4.9445
G1 X207.790 Y150.871 E4.9666
G1 X207.817 Y150.940 E4.9698
G1 X208.615 Y153.396 E5.0858
G1 X208.634 Y153.466 E5.0891
G1 X208.736 Y153.948 E5.1112
G1 X208.747 Y154.020 E5.1145
G1 X209.018 Y156.589 E5.2305
G1 X209.022 Y156.663 E5.2338
G1 X209.022 Y157.156 E5.2559
G1 X209.018 Y157.230 E5.2592
G1 X208.747 Y159.799 E5.3752
G1 X208.736 Y159.871 E5.3785
G1 X208.634 Y160.353 E5.4006
G1 X208.615 Y160.423 E5.4039
G1 X207.817 Y162.879 E5.5198
G1 X207.790 Y162.948 E5.5231
G1 X207.590 Y163.397 E5.5452
G1 X207.557 Y163.462 E5.5485
G1 X206.266 Y165.700 E5.6645
G1 X206.226 Y165.762 E5.6678
G1 X205.936 Y166.161 E5.6900
G1 X205.889 Y166.218 E5.6933
G1 X204.161 Y168.137 E5.8093
G1 X204.109 Y168.189 E5.8126
G1 X203.743 Y168.518 E5.8346
G1 X203.687 Y168.564 E5.8379
G1 X201.598 Y170.082 E5.9539
G1 X201.536 Y170.122 E5.9572
G1 X201.110 Y170.369 E5.9793
G1 X201.045 Y170.402 E5.9826
G1 X198.684 Y171.454 E6.0986
G1 X198.615 Y171.480 E6.1019
G1 X198.146 Y171.633 E6.1241
G1 X198.075 Y171.652 E6.1274
G1 X195.547 Y172.188 E6.2434
G1 X195.475 Y172.199 E6.2467
G1 X194.986 Y172.251 E6.2687
G1 X194.913 Y172.255 E6.2720
G1 X192.331 Y172.255 E6.3880
G1 X192.258 Y172.251 E6.3912
G1 X191.769 Y172.199 E6.4133
G1 X191.697 Y172.188 E6.4166
G1 X189.169 Y171.652 E6.5326
G1 X189.098 Y171.633 E6.5359
G1 X188.629 Y171.480 E6.5581
G1 X188.560 Y171.454 E6.5614
G1 X186.199 Y170.402 E6.6774
G1 X186.134 Y170.369 E6.6807
G1 X185.708 Y170.122 E6.7028
G1 X185.646 Y170.082 E6.7061
G1 X184.958 Y169.582 E6.7443
G1 X170.953 Y169.584 E7.3732
G1 X170.801 Y169.567 E7.3800
G1 X169.800 Y169.346 E7.4261
G1 X169.656 Y169.297 E7.4329
G1 X167.443 Y168.270 E7.5425
G1 X167.005 Y168.125 E7.5632
G1 X166.612 Y168.033 E7.5813
G1 X130.426 Y161.189 E9.2349
G1 X129.679 Y161.059 E9.2689
G1 X129.506 Y161.043 E9.2767
G1 X129.020 Y161.883 E9.3203
G1 X128.981 Y161.945 E9.3236
G1 X128.692 Y162.342 E9.3457
G1 X128.646 Y162.399 E9.3489
G1 X126.918 Y164.318 E9.4649
G1 X126.866 Y164.370 E9.4682
G1 X126.500 Y164.700 E9.4903
G1 X126.443 Y164.746 E9.4936
G1 X124.353 Y166.265 E9.6096
G1 X124.292 Y166.305 E9.6129
G1 X123.864 Y166.551 E9.6350
G1 X123.799 Y166.585 E9.6383
G1 X121.439 Y167.635 E9.7543
G1 X121.371 Y167.661 E9.7576
G1 X120.903 Y167.813 E9.7797
G1 X120.832 Y167.832 E9.7830
G1 X118.305 Y168.370 E9.8990
G1 X118.233 Y168.381 E9.9023
G1 X117.743 Y168.433 E9.9244
G1 X117.669 Y168.437 E9.9277
G1 X115.087 Y168.437 E10.0437
G1 X115.013 Y168.433 E10.0470
G1 X114.523 Y168.381 E10.0691
G1 X114.451 Y168.370 E10.0724
G1 X111.924 Y167.832 E10.1884
G1 X111.853 Y167.813 E10.1917
G1 X111.385 Y167.661 E10.2138
G1 X111.317 Y167.635 E10.2170
G1 X108.957 Y166.585 E10.3330
G1 X108.892 Y166.551 E10.3363
G1 X108.464 Y166.305 E10.3585
G1 X108.403 Y166.265 E10.3618
G1 X106.313 Y164.746 E10.4778
G1 X106.256 Y164.700 E10.4811
G1 X105.890 Y164.370 E10.5032
G1 X105.838 Y164.318 E10.5065
G1 X104.110 Y162.399 E10.6225
G1 X104.064 Y162.342 E10.6257
G1 X103.774 Y161.943 E10.6479
G1 X103.735 Y161.882 E10.6511
G1 X102.443 Y159.645 E10.7671
G1 X102.410 Y159.580 E10.7704
G1 X102.210 Y159.130 E10.7925
G1 X102.183 Y159.062 E10.7958
G1 X101.385 Y156.605 E10.9118
G1 X101.366 Y156.535 E10.9151
G1 X101.264 Y156.053 E10.9372
G1 X101.252 Y155.981 E10.9404
G1 X100.982 Y153.411 E11.0565
G1 X100.978 Y153.337 E11.0598
G1 X100.978 Y152.844 E11.0819
G1 X100.982 Y152.770 E11.0852
G1 X101.252 Y150.201 E11.2012
G1 X101.264 Y150.129 E11.2045
G1 X101.366 Y149.647 E11.2266
G1 X101.385 Y149.577 E11.2299
G1 X102.183 Y147.120 E11.3459
G1 X102.210 Y147.052 E11.3492
G1 X102.410 Y146.602 E11.3713
G1 X102.443 Y146.537 E11.3746
G1 X103.735 Y144.300 E11.4905
G1 X103.774 Y144.239 E11.4938
G1 X104.064 Y143.840 E11.5159
G1 X104.110 Y143.784 E11.5192
G1 X105.838 Y141.864 E11.6352
G1 X105.890 Y141.812 E11.6385
G1 X106.256 Y141.482 E11.6606
G1 X106.557 Y141.753 F4800
G92 E0
G1 X108.629 Y140.247 E0.1151 F1800
G1 X108.673 Y140.218 E0.1174
G1 X109.083 Y139.982 E0.1386
G1 X109.129 Y139.958 E0.1410
G1 X111.470 Y138.917 E0.2560
G1 X111.519 Y138.898 E0.2584
G1 X111.967 Y138.752 E0.2795
G1 X112.017 Y138.739 E0.2819
G1 X114.523 Y138.206 E0.3969
G1 X114.575 Y138.198 E0.3993
G1 X115.045 Y138.148 E0.4205
G1 X115.097 Y138.145 E0.4228
G1 X117.659 Y138.145 E0.5378
G1 X117.711 Y138.148 E0.5402
G1 X118.181 Y138.198 E0.5614
G1 X118.232 Y138.206 E0.5637
G1 X120.739 Y138.739 E0.6788
G1 X120.789 Y138.752 E0.6811
G1 X121.237 Y138.898 E0.7023
G1 X121.286 Y138.917 E0.7046
G1 X123.627 Y139.958 E0.8197
G1 X123.673 Y139.982 E0.8220
G1 X124.083 Y140.218 E0.8432
G1 X124.127 Y140.247 E0.8456
G1 X126.199 Y141.753 E0.9606
G1 X126.240 Y141.786 E0.9630
G1 X126.590 Y142.102 E0.9842
G1 X126.627 Y142.139 E0.9865
G1 X128.173 Y143.856 E1.0903
G1 X163.834 Y150.599 E2.7198
G1 X164.355 Y150.675 E2.7435
G1 X164.642 Y150.695 E2.7564
G1 X164.998 Y150.696 E2.7724
G1 X165.272 Y150.679 E2.7847
G1 X165.939 Y150.576 E2.8150
G1 X166.187 Y150.514 E2.8265
G1 X166.503 Y150.414 E2.8414
G1 X166.959 Y150.227 E2.8635
G1 X167.281 Y150.065 E2.8797
G1 X173.603 Y146.440 E3.2069
G1 X173.623 Y146.429 E3.2079
G1 X173.807 Y146.335 E3.2172
G1 X173.827 Y146.325 E3.2182
G1 X174.582 Y145.980 E3.2555
G1 X174.598 Y145.973 E3.2563
G1 X174.735 Y145.916 E3.2629
G1 X174.750 Y145.909 E3.2637
G1 X175.501 Y145.625 E3.2997
G1 X175.516 Y145.619 E3.3005
G1 X175.654 Y145.572 E3.3070
G1 X175.670 Y145.567 E3.3077
G1 X176.438 Y145.331 E3.3438
G1 X176.454 Y145.326 E3.3446
G1 X176.596 Y145.288 E3.3512
G1 X176.612 Y145.284 E3.3519
G1 X177.403 Y145.096 E3.3884
G1 X177.421 Y145.093 E3.3892
G1 X177.583 Y145.060 E3.3967
G1 X177.601 Y145.057 E3.3975
G1 X178.567 Y144.902 E3.4414
G1 X178.590 Y144.899 E3.4425
G1 X178.792 Y144.876 E3.4516
G1 X178.814 Y144.874 E3.4526
G1 X180.023 Y144.791 E3.5070
G1 X180.040 Y144.790 E3.5078
G1 X180.195 Y144.785 E3.5147
G1 X180.212 Y144.785 E3.5155
G1 X184.884 Y144.784 E3.7253
G1 X185.874 Y144.065 E3.7802
G1 X185.918 Y144.037 E3.7826
G1 X186.326 Y143.802 E3.8037
G1 X186.372 Y143.778 E3.8060
G1 X188.713 Y142.735 E3.9211
G1 X188.762 Y142.716 E3.9235
G1 X189.212 Y142.570 E3.9447
G1 X189.263 Y142.557 E3.9471
G1 X191.769 Y142.025 E4.0621
G1 X191.821 Y142.016 E4.0645
G1 X192.289 Y141.967 E4.0856
G1 X192.342 Y141.964 E4.0880
G1 X194.902 Y141.964 E4.2029
G1 X194.955 Y141.967 E4.2053
G1 X195.423 Y142.016 E4.2264
G1 X195.475 Y142.025 E4.2288
G1 X197.981 Y142.557 E4.3438
G1 X198.032 Y142.570 E4.3462
G1 X198.482 Y142.716 E4.3674
G1 X198.531 Y142.735 E4.3698
G1 X200.872 Y143.778 E4.4849
G1 X200.918 Y143.802 E4.4872
G1 X201.326 Y144.037 E4.5083
G1 X201.370 Y144.066 E4.5107
G1 X203.442 Y145.571 E4.6257
G1 X203.483 Y145.604 E4.6280
G1 X203.834 Y145.920 E4.6493
G1 X203.871 Y145.957 E4.6516
G1 X205.586 Y147.862 E4.7667
G1 X205.619 Y147.902 E4.7691
G1 X205.896 Y148.284 E4.7902
G1 X205.925 Y148.328 E4.7926
G1 X207.205 Y150.548 E4.9077
G1 X207.229 Y150.594 E4.9100
G1 X207.421 Y151.024 E4.9312
G1 X207.439 Y151.073 E4.9335
G1 X208.231 Y153.509 E5.0485
G1 X208.245 Y153.560 E5.0509
G1 X208.343 Y154.021 E5.0720
G1 X208.351 Y154.072 E5.0744
G1 X208.619 Y156.621 E5.1894
G1 X208.622 Y156.673 E5.1918
G1 X208.622 Y157.146 E5.2130
G1 X208.619 Y157.198 E5.2154
G1 X208.351 Y159.747 E5.3304
G1 X208.343 Y159.798 E5.3328
G1 X208.245 Y160.259 E5.3539
G1 X208.231 Y160.310 E5.3563
G1 X207.439 Y162.746 E5.4713
G1 X207.421 Y162.794 E5.4736
G1 X207.229 Y163.225 E5.4948
G1 X207.205 Y163.271 E5.4971
