; G-Code generated by Simplify3D(R) Version 4.0.1
; Dec 16, 2019 at 12:43:55 PM
; Settings Summary
;   processName,Process1
;   applyToModels,Paper_Stand-modded,Paper_Stand-modded(2),Paper_Stand-modded(3),Paper_Stand-modded(4)
;   profileName,Default (modified)
;   profileVersion,2017-03-01 08:00:00
;   baseProfile,
;   printMaterial,PLA
;   printQuality,Medium
;   printExtruders,
;   extruderName,Primary Extruder
;   extruderToolheadNumber,0
;   extruderDiameter,0.4
;   extruderAutoWidth,0
;   extruderWidth,0.4
;   extrusionMultiplier,0.9
;   extruderUseRetract,1
;   extruderRetractionDistance,1
;   extruderExtraRestartDistance,0
;   extruderRetractionZLift,0
;   extruderRetractionSpeed,1800
;   extruderUseCoasting,0
;   extruderCoastingDistance,0.2
;   extruderUseWipe,0
;   extruderWipeDistance,5
;   primaryExtruder,0
;   layerHeight,0.3
;   topSolidLayers,6
;   bottomSolidLayers,6
;   perimeterOutlines,6
;   printPerimetersInsideOut,1
;   startPointOption,2
;   startPointOriginX,0
;   startPointOriginY,0
;   sequentialIslands,0
;   spiralVaseMode,0
;   firstLayerHeightPercentage,100
;   firstLayerWidthPercentage,100
;   firstLayerUnderspeed,0.5
;   useRaft,0
;   raftExtruder,0
;   raftTopLayers,3
;   raftBaseLayers,2
;   raftOffset,3
;   raftSeparationDistance,0.14
;   raftTopInfill,100
;   aboveRaftSpeedMultiplier,0.3
;   useSkirt,1
;   skirtExtruder,0
;   skirtLayers,1
;   skirtOutlines,4
;   skirtOffset,4
;   usePrimePillar,0
;   primePillarExtruder,999
;   primePillarWidth,12
;   primePillarLocation,7
;   primePillarSpeedMultiplier,1
;   useOozeShield,0
;   oozeShieldExtruder,999
;   oozeShieldOffset,2
;   oozeShieldOutlines,1
;   oozeShieldSidewallShape,1
;   oozeShieldSidewallAngle,30
;   oozeShieldSpeedMultiplier,1
;   infillExtruder,0
;   internalInfillPattern,Full Honeycomb
;   externalInfillPattern,Rectilinear
;   infillPercentage,20
;   outlineOverlapPercentage,15
;   infillExtrusionWidthPercentage,100
;   minInfillLength,5
;   infillLayerInterval,1
;   internalInfillAngles,0,120,-120
;   overlapInternalInfillAngles,0
;   externalInfillAngles,45,-45
;   generateSupport,1
;   supportExtruder,0
;   supportInfillPercentage,30
;   supportExtraInflation,0
;   supportBaseLayers,0
;   denseSupportExtruder,0
;   denseSupportLayers,0
;   denseSupportInfillPercentage,70
;   supportLayerInterval,1
;   supportHorizontalPartOffset,0.3
;   supportUpperSeparationLayers,1
;   supportLowerSeparationLayers,1
;   supportType,0
;   supportGridSpacing,4
;   maxOverhangAngle,45
;   supportAngles,0
;   temperatureName,Primary Extruder,Bed
;   temperatureNumber,0,0
;   temperatureSetpointCount,1,1
;   temperatureSetpointLayers,1,1
;   temperatureSetpointTemperatures,205,65
;   temperatureStabilizeAtStartup,1,1
;   temperatureHeatedBed,0,1
;   temperatureRelayBetweenLayers,0,0
;   temperatureRelayBetweenLoops,0,0
;   fanLayers,1,2
;   fanSpeeds,0,100
;   blipFanToFullPower,0
;   adjustSpeedForCooling,1
;   minSpeedLayerTime,15
;   minCoolingSpeedSlowdown,20
;   increaseFanForCooling,0
;   minFanLayerTime,45
;   maxCoolingFanSpeed,100
;   increaseFanForBridging,0
;   bridgingFanSpeed,100
;   use5D,1
;   relativeEdistances,0
;   allowEaxisZeroing,1
;   independentExtruderAxes,0
;   includeM10123,0
;   stickySupport,1
;   applyToolheadOffsets,0
;   gcodeXoffset,0
;   gcodeYoffset,0
;   gcodeZoffset,0
;   overrideMachineDefinition,0
;   machineTypeOverride,0
;   strokeXoverride,200
;   strokeYoverride,200
;   strokeZoverride,200
;   originOffsetXoverride,0
;   originOffsetYoverride,0
;   originOffsetZoverride,0
;   homeXdirOverride,-1
;   homeYdirOverride,-1
;   homeZdirOverride,-1
;   flipXoverride,1
;   flipYoverride,-1
;   flipZoverride,1
;   toolheadOffsets,0,0|0,0|0,0|0,0|0,0|0,0
;   overrideFirmwareConfiguration,0
;   firmwareTypeOverride,RepRap (Marlin/Repetier/Sprinter)
;   GPXconfigOverride,r2
;   baudRateOverride,115200
;   overridePrinterModels,0
;   printerModelsOverride
;   startingGcode,G28 ; home all axes
;   layerChangeGcode,
;   retractionGcode,
;   toolChangeGcode,
;   endingGcode,M104 S0 ; turn off extruder,M140 S0 ; turn off bed,M84 ; disable motors
;   exportFileFormat,gcode
;   celebration,0
;   celebrationSong,Random Song
;   postProcessing,
;   defaultSpeed,3600
;   outlineUnderspeed,0.5
;   solidInfillUnderspeed,0.8
;   supportUnderspeed,0.8
;   rapidXYspeed,4800
;   rapidZspeed,1002
;   minBridgingArea,50
;   bridgingExtraInflation,0
;   bridgingExtrusionMultiplier,1
;   bridgingSpeedMultiplier,1
;   useFixedBridgingAngle,0
;   fixedBridgingAngle,0
;   applyBridgingToPerimeters,0
;   filamentDiameters,1.75|1.75|1.75|1.75|1.75|1.75
;   filamentPricesPerKg,46|46|46|46|46|46
;   filamentDensities,1.25|1.25|1.25|1.25|1.25|1.25
;   useMinPrintHeight,0
;   minPrintHeight,0
;   useMaxPrintHeight,0
;   maxPrintHeight,0
;   useDiaphragm,0
;   diaphragmLayerInterval,20
;   robustSlicing,1
;   mergeAllIntoSolid,0
;   onlyRetractWhenCrossingOutline,1
;   retractBetweenLayers,1
;   useRetractionMinTravel,0
;   retractionMinTravel,3
;   retractWhileWiping,0
;   onlyWipeOutlines,1
;   avoidCrossingOutline,0
;   maxMovementDetourFactor,3
;   toolChangeRetractionDistance,12
;   toolChangeExtraRestartDistance,-0.5
;   toolChangeRetractionSpeed,600
;   externalThinWallType,0
;   internalThinWallType,2
;   thinWallAllowedOverlapPercentage,10
;   singleExtrusionMinLength,1
;   singleExtrusionMinPrintingWidthPercentage,50
;   singleExtrusionMaxPrintingWidthPercentage,200
;   singleExtrusionEndpointExtension,0.2
;   horizontalSizeCompensation,0
G90
M82
M106 S0
M140 S65
M190 S65
M104 S205 T0
M109 S205 T0
G28 ; home all axes
G92 E0
G1 E-1.0000 F1800
G1 Z0.300 F1002
; process Process1
; layer 1, Z = 0.300
T0
; tool H0.300 W0.400
; skirt
G1 X99.753 Y84.990 F4800
G1 E0.0000 F540
G92 E0
G1 X99.814 Y84.950 E0.0033 F1800
G1 X100.242 Y84.703 E0.0255
G1 X100.307 Y84.670 E0.0287
G1 X102.667 Y83.620 E0.1447
G1 X102.735 Y83.593 E0.1480
G1 X103.203 Y83.441 E0.1701
G1 X103.274 Y83.422 E0.1734
G1 X105.801 Y82.885 E0.2894
G1 X105.873 Y82.873 E0.2927
G1 X106.363 Y82.822 E0.3148
G1 X106.437 Y82.818 E0.3181
G1 X109.019 Y82.818 E0.4341
G1 X109.093 Y82.822 E0.4374
G1 X109.583 Y82.873 E0.4595
G1 X109.655 Y82.885 E0.4628
G1 X112.182 Y83.422 E0.5788
G1 X112.253 Y83.441 E0.5821
G1 X112.721 Y83.593 E0.6042
G1 X112.789 Y83.620 E0.6074
G1 X115.149 Y84.670 E0.7234
G1 X115.214 Y84.703 E0.7267
G1 X115.642 Y84.950 E0.7489
G1 X115.703 Y84.990 E0.7522
G1 X117.793 Y86.509 E0.8682
G1 X117.850 Y86.555 E0.8715
G1 X118.216 Y86.884 E0.8936
G1 X118.268 Y86.936 E0.8969
G1 X119.996 Y88.856 E1.0128
G1 X120.042 Y88.913 E1.0161
G1 X120.331 Y89.310 E1.0382
G1 X120.370 Y89.371 E1.0415
G1 X121.663 Y91.608 E1.1575
G1 X121.696 Y91.673 E1.1608
G1 X121.844 Y92.006 E1.1771
G1 X124.349 Y92.118 E1.2897
G1 X124.361 Y92.119 E1.2902
G1 X124.444 Y92.124 E1.2939
G1 X124.456 Y92.125 E1.2945
G1 X126.627 Y92.300 E1.3923
G1 X126.638 Y92.301 E1.3928
G1 X126.715 Y92.308 E1.3963
G1 X126.727 Y92.309 E1.3968
G1 X129.044 Y92.573 E1.5015
G1 X129.054 Y92.574 E1.5019
G1 X129.122 Y92.583 E1.5050
G1 X129.132 Y92.584 E1.5055
G1 X129.857 Y91.332 E1.5704
G1 X129.897 Y91.270 E1.5737
G1 X130.185 Y90.874 E1.5957
G1 X130.231 Y90.817 E1.5990
G1 X131.959 Y88.897 E1.7150
G1 X132.011 Y88.845 E1.7183
G1 X132.378 Y88.514 E1.7405
G1 X132.435 Y88.468 E1.7438
G1 X134.526 Y86.949 E1.8598
G1 X134.587 Y86.909 E1.8631
G1 X135.014 Y86.663 E1.8852
G1 X135.079 Y86.630 E1.8885
G1 X137.439 Y85.580 E2.0045
G1 X137.507 Y85.553 E2.0078
G1 X137.975 Y85.401 E2.0298
G1 X138.046 Y85.382 E2.0331
G1 X140.571 Y84.845 E2.1491
G1 X140.644 Y84.833 E2.1524
G1 X141.134 Y84.782 E2.1745
G1 X141.207 Y84.778 E2.1778
G1 X143.791 Y84.778 E2.2938
G1 X143.865 Y84.782 E2.2971
G1 X144.355 Y84.833 E2.3193
G1 X144.427 Y84.845 E2.3226
G1 X146.954 Y85.382 E2.4385
G1 X147.025 Y85.401 E2.4418
G1 X147.492 Y85.553 E2.4639
G1 X147.561 Y85.579 E2.4672
G1 X149.921 Y86.630 E2.5832
G1 X149.986 Y86.663 E2.5865
G1 X150.414 Y86.910 E2.6086
G1 X150.475 Y86.950 E2.6119
G1 X152.565 Y88.469 E2.7279
G1 X152.622 Y88.515 E2.7312
G1 X152.988 Y88.844 E2.7533
G1 X153.040 Y88.896 E2.7566
G1 X154.314 Y90.312 E2.8422
G1 X154.857 Y89.373 E2.8909
G1 X154.896 Y89.311 E2.8942
G1 X155.186 Y88.913 E2.9163
G1 X155.232 Y88.856 E2.9196
G1 X156.960 Y86.936 E3.0356
G1 X157.012 Y86.884 E3.0388
G1 X157.378 Y86.555 E3.0610
G1 X157.435 Y86.509 E3.0642
G1 X159.525 Y84.990 E3.1802
G1 X159.586 Y84.950 E3.1835
G1 X160.014 Y84.703 E3.2057
G1 X160.079 Y84.670 E3.2090
G1 X162.439 Y83.620 E3.3250
G1 X162.507 Y83.593 E3.3283
G1 X162.975 Y83.441 E3.3504
G1 X163.046 Y83.422 E3.3536
G1 X165.573 Y82.885 E3.4696
G1 X165.645 Y82.873 E3.4729
G1 X166.135 Y82.822 E3.4951
G1 X166.209 Y82.818 E3.4983
G1 X168.791 Y82.818 E3.6143
G1 X168.865 Y82.822 E3.6176
G1 X169.355 Y82.873 E3.6398
G1 X169.427 Y82.885 E3.6430
G1 X171.954 Y83.422 E3.7590
G1 X172.025 Y83.441 E3.7623
G1 X172.493 Y83.593 E3.7844
G1 X172.561 Y83.620 E3.7877
G1 X174.921 Y84.670 E3.9037
G1 X174.986 Y84.703 E3.9070
G1 X175.414 Y84.950 E3.9291
G1 X175.475 Y84.990 E3.9324
G1 X177.565 Y86.509 E4.0484
G1 X177.622 Y86.555 E4.0517
G1 X177.988 Y86.884 E4.0738
G1 X178.040 Y86.936 E4.0771
G1 X179.768 Y88.856 E4.1931
G1 X179.814 Y88.912 E4.1964
G1 X180.103 Y89.310 E4.2184
G1 X180.142 Y89.371 E4.2217
G1 X181.435 Y91.608 E4.3377
G1 X181.468 Y91.673 E4.3410
G1 X181.616 Y92.006 E4.3573
G1 X184.121 Y92.118 E4.4699
G1 X184.133 Y92.119 E4.4705
G1 X184.216 Y92.124 E4.4742
G1 X184.228 Y92.125 E4.4747
G1 X186.399 Y92.300 E4.5725
G1 X186.410 Y92.301 E4.5730
G1 X186.487 Y92.308 E4.5765
G1 X186.499 Y92.309 E4.5770
G1 X188.816 Y92.573 E4.6817
G1 X188.826 Y92.574 E4.6822
G1 X188.894 Y92.583 E4.6853
G1 X188.904 Y92.584 E4.6857
G1 X189.629 Y91.332 E4.7507
G1 X189.669 Y91.270 E4.7540
G1 X189.957 Y90.874 E4.7760
G1 X190.003 Y90.817 E4.7793
G1 X191.731 Y88.897 E4.8952
G1 X191.783 Y88.845 E4.8985
G1 X192.150 Y88.514 E4.9207
G1 X192.207 Y88.468 E4.9240
G1 X194.298 Y86.949 E5.0401
G1 X194.359 Y86.909 E5.0434
G1 X194.786 Y86.663 E5.0655
G1 X194.851 Y86.630 E5.0688
G1 X197.211 Y85.580 E5.1847
G1 X197.279 Y85.553 E5.1880
G1 X197.747 Y85.401 E5.2101
G1 X197.818 Y85.382 E5.2134
G1 X200.343 Y84.845 E5.3293
G1 X200.416 Y84.833 E5.3326
G1 X200.906 Y84.782 E5.3548
G1 X200.979 Y84.778 E5.3581
G1 X203.563 Y84.778 E5.4741
G1 X203.637 Y84.782 E5.4774
G1 X204.127 Y84.833 E5.4995
G1 X204.199 Y84.845 E5.5028
G1 X206.726 Y85.382 E5.6188
G1 X206.797 Y85.401 E5.6221
G1 X207.265 Y85.553 E5.6442
G1 X207.333 Y85.579 E5.6475
G1 X209.693 Y86.630 E5.7634
G1 X209.758 Y86.663 E5.7667
G1 X210.186 Y86.910 E5.7889
G1 X210.247 Y86.950 E5.7922
G1 X212.337 Y88.469 E5.9082
G1 X212.394 Y88.515 E5.9115
G1 X212.760 Y88.844 E5.9336
G1 X212.812 Y88.896 E5.9369
G1 X214.540 Y90.816 E6.0529
G1 X214.586 Y90.873 E6.0562
G1 X214.876 Y91.271 E6.0783
G1 X214.915 Y91.333 E6.0816
G1 X216.207 Y93.569 E6.1975
G1 X216.240 Y93.635 E6.2008
G1 X216.440 Y94.085 E6.2229
G1 X216.467 Y94.153 E6.2262
G1 X217.265 Y96.609 E6.3422
G1 X217.284 Y96.680 E6.3455
G1 X217.386 Y97.161 E6.3676
G1 X217.398 Y97.234 E6.3709
G1 X217.668 Y99.803 E6.4868
G1 X217.672 Y99.876 E6.4901
G1 X217.672 Y100.370 E6.5123
G1 X217.668 Y100.443 E6.5156
G1 X217.398 Y103.012 E6.6316
G1 X217.386 Y103.085 E6.6349
G1 X217.284 Y103.566 E6.6570
G1 X217.265 Y103.636 E6.6603
G1 X216.467 Y106.093 E6.7763
G1 X216.441 Y106.162 E6.7796
G1 X216.240 Y106.612 E6.8017
G1 X216.207 Y106.678 E6.8050
G1 X214.915 Y108.914 E6.9209
G1 X214.876 Y108.976 E6.9242
G1 X214.586 Y109.374 E6.9463
G1 X214.540 Y109.431 E6.9496
G1 X212.812 Y111.351 E7.0656
G1 X212.760 Y111.403 E7.0689
G1 X212.394 Y111.732 E7.0910
G1 X212.337 Y111.778 E7.0943
G1 X210.247 Y113.297 E7.2103
G1 X210.186 Y113.337 E7.2136
G1 X209.758 Y113.584 E7.2358
G1 X209.693 Y113.617 E7.2391
G1 X207.333 Y114.667 E7.3550
G1 X207.265 Y114.694 E7.3583
G1 X206.797 Y114.846 E7.3804
G1 X206.726 Y114.865 E7.3837
G1 X204.199 Y115.402 E7.4997
G1 X204.127 Y115.414 E7.5030
G1 X203.637 Y115.465 E7.5251
G1 X203.563 Y115.469 E7.5284
G1 X200.979 Y115.469 E7.6444
G1 X200.906 Y115.465 E7.6477
G1 X200.416 Y115.414 E7.6699
G1 X200.343 Y115.402 E7.6732
G1 X197.818 Y114.865 E7.7891
G1 X197.747 Y114.846 E7.7924
G1 X197.279 Y114.694 E7.8145
G1 X197.211 Y114.667 E7.8178
G1 X194.851 Y113.617 E7.9337
G1 X194.786 Y113.584 E7.9370
G1 X194.359 Y113.338 E7.9592
G1 X194.298 Y113.298 E7.9624
G1 X192.207 Y111.779 E8.0785
G1 X192.150 Y111.733 E8.0818
G1 X191.783 Y111.402 E8.1040
G1 X191.731 Y111.350 E8.1073
G1 X190.003 Y109.430 E8.2232
G1 X189.957 Y109.373 E8.2265
G1 X189.669 Y108.977 E8.2485
G1 X189.629 Y108.915 E8.2518
G1 X188.999 Y107.824 E8.3084
G1 X188.993 Y119.868 E8.8492
G1 X189.113 Y119.885 E8.8546
G1 X189.209 Y119.906 E8.8590
G1 X190.052 Y120.151 E8.8984
G1 X190.125 Y120.177 E8.9019
G1 X190.602 Y120.374 E8.9251
G1 X190.671 Y120.407 E8.9285
G1 X191.189 Y120.692 E8.9551
G1 X191.236 Y120.720 E8.9575
G1 X191.539 Y120.919 E8.9738
G1 X191.583 Y120.950 E8.9762
G1 X192.112 Y121.358 E9.0062
G1 X192.186 Y121.424 E9.0106
G1 X192.649 Y121.899 E9.0405
G1 X192.713 Y121.975 E9.0449
G1 X193.426 Y122.948 E9.0991
G1 X193.496 Y123.068 E9.1053
G1 X193.889 Y123.915 E9.1472
G1 X193.934 Y124.046 E9.1535
G1 X194.197 Y125.140 E9.2040
G1 X194.211 Y125.221 E9.2077
G1 X194.276 Y125.772 E9.2326
G1 X194.281 Y125.854 E9.2363
G1 X194.280 Y134.093 E9.6062
G1 X195.381 Y136.002 E9.7052
G1 X195.414 Y136.067 E9.7085
G1 X195.614 Y136.517 E9.7306
G1 X195.641 Y136.585 E9.7338
G1 X196.439 Y139.041 E9.8498
G1 X196.458 Y139.112 E9.8531
G1 X196.560 Y139.593 E9.8752
G1 X196.572 Y139.666 E9.8785
G1 X196.842 Y142.235 E9.9945
G1 X196.846 Y142.308 E9.9978
G1 X196.846 Y142.802 E10.0199
G1 X196.842 Y142.875 E10.0232
G1 X196.572 Y145.444 E10.1392
G1 X196.560 Y145.517 E10.1425
G1 X196.458 Y145.998 E10.1646
G1 X196.439 Y146.069 E10.1679
G1 X195.641 Y148.525 E10.2838
G1 X195.614 Y148.593 E10.2871
G1 X195.414 Y149.043 E10.3092
G1 X195.381 Y149.108 E10.3125
G1 X194.090 Y151.346 E10.4285
G1 X194.050 Y151.407 E10.4318
G1 X193.760 Y151.807 E10.4540
G1 X193.713 Y151.864 E10.4573
G1 X191.985 Y153.783 E10.5733
G1 X191.933 Y153.835 E10.5766
G1 X191.567 Y154.164 E10.5986
G1 X191.511 Y154.210 E10.6019
G1 X189.422 Y155.728 E10.7179
G1 X189.360 Y155.768 E10.7212
G1 X188.934 Y156.014 E10.7433
G1 X188.869 Y156.047 E10.7466
G1 X186.508 Y157.099 E10.8626
G1 X186.440 Y157.125 E10.8659
G1 X185.970 Y157.278 E10.8881
G1 X185.899 Y157.297 E10.8914
G1 X183.371 Y157.833 E11.0074
G1 X183.299 Y157.845 E11.0107
G1 X182.810 Y157.896 E11.0327
G1 X182.737 Y157.900 E11.0360
G1 X180.154 Y157.900 E11.1520
G1 X180.081 Y157.896 E11.1553
G1 X179.591 Y157.845 E11.1774
G1 X179.519 Y157.833 E11.1807
G1 X179.488 Y157.827 E11.1821
G1 X179.768 Y158.138 E11.2009
G1 X179.814 Y158.194 E11.2042
G1 X180.103 Y158.592 E11.2263
G1 X180.142 Y158.653 E11.2295
G1 X181.435 Y160.890 E11.3455
G1 X181.468 Y160.955 E11.3488
G1 X181.616 Y161.288 E11.3652
G1 X184.121 Y161.400 E11.4777
G1 X184.133 Y161.401 E11.4783
G1 X184.216 Y161.406 E11.4820
G1 X184.228 Y161.407 E11.4826
G1 X186.399 Y161.582 E11.5803
G1 X186.410 Y161.583 E11.5809
G1 X186.487 Y161.590 E11.5843
G1 X186.499 Y161.591 E11.5849
G1 X188.816 Y161.855 E11.6895
G1 X188.826 Y161.856 E11.6900
G1 X188.894 Y161.865 E11.6931
G1 X188.904 Y161.866 E11.6936
G1 X189.629 Y160.614 E11.7585
G1 X189.669 Y160.552 E11.7618
G1 X189.957 Y160.156 E11.7838
G1 X190.003 Y160.099 E11.7871
G1 X191.731 Y158.179 E11.9031
G1 X191.783 Y158.127 E11.9064
G1 X192.150 Y157.796 E11.9285
G1 X192.207 Y157.750 E11.9318
G1 X194.298 Y156.231 E12.0479
G1 X194.359 Y156.191 E12.0512
G1 X194.786 Y155.945 E12.0733
G1 X194.851 Y155.912 E12.0766
G1 X197.211 Y154.862 E12.1926
G1 X197.279 Y154.835 E12.1958
G1 X197.747 Y154.683 E12.2179
G1 X197.818 Y154.664 E12.2212
G1 X200.343 Y154.127 E12.3371
G1 X200.416 Y154.115 E12.3404
G1 X200.906 Y154.064 E12.3626
G1 X200.979 Y154.060 E12.3659
G1 X203.563 Y154.060 E12.4819
G1 X203.637 Y154.064 E12.4852
G1 X204.127 Y154.115 E12.5073
G1 X204.199 Y154.127 E12.5106
G1 X206.726 Y154.664 E12.6266
G1 X206.797 Y154.683 E12.6299
G1 X207.264 Y154.835 E12.6520
G1 X207.333 Y154.862 E12.6553
