; G-Code generated by Simplify3D(R) Version 4.0.1
; Dec 16, 2019 at 12:28:09 PM
; Settings Summary
;   processName,Process1
;   applyToModels,Paper_Roller_Roller,Paper_Roller_Roller(2),Paper_Roller_Roller(3),Paper_Roller_Roller(4)
;   profileName,Default (modified)
;   profileVersion,2017-03-01 08:00:00
;   baseProfile,
;   printMaterial,PLA
;   printQuality,Medium
;   printExtruders,
;   extruderName,Primary Extruder
;   extruderToolheadNumber,0
;   extruderDiameter,0.4
;   extruderAutoWidth,0
;   extruderWidth,0.4
;   extrusionMultiplier,0.9
;   extruderUseRetract,1
;   extruderRetractionDistance,1
;   extruderExtraRestartDistance,0
;   extruderRetractionZLift,0
;   extruderRetractionSpeed,1800
;   extruderUseCoasting,0
;   extruderCoastingDistance,0.2
;   extruderUseWipe,0
;   extruderWipeDistance,5
;   primaryExtruder,0
;   layerHeight,0.3
;   topSolidLayers,6
;   bottomSolidLayers,6
;   perimeterOutlines,6
;   printPerimetersInsideOut,1
;   startPointOption,2
;   startPointOriginX,0
;   startPointOriginY,0
;   sequentialIslands,0
;   spiralVaseMode,0
;   firstLayerHeightPercentage,100
;   firstLayerWidthPercentage,100
;   firstLayerUnderspeed,0.5
;   useRaft,0
;   raftExtruder,0
;   raftTopLayers,3
;   raftBaseLayers,2
;   raftOffset,3
;   raftSeparationDistance,0.14
;   raftTopInfill,100
;   aboveRaftSpeedMultiplier,0.3
;   useSkirt,1
;   skirtExtruder,0
;   skirtLayers,1
;   skirtOutlines,4
;   skirtOffset,4
;   usePrimePillar,0
;   primePillarExtruder,999
;   primePillarWidth,12
;   primePillarLocation,7
;   primePillarSpeedMultiplier,1
;   useOozeShield,0
;   oozeShieldExtruder,999
;   oozeShieldOffset,2
;   oozeShieldOutlines,1
;   oozeShieldSidewallShape,1
;   oozeShieldSidewallAngle,30
;   oozeShieldSpeedMultiplier,1
;   infillExtruder,0
;   internalInfillPattern,Full Honeycomb
;   externalInfillPattern,Rectilinear
;   infillPercentage,20
;   outlineOverlapPercentage,15
;   infillExtrusionWidthPercentage,100
;   minInfillLength,5
;   infillLayerInterval,1
;   internalInfillAngles,0,120,-120
;   overlapInternalInfillAngles,0
;   externalInfillAngles,45,-45
;   generateSupport,1
;   supportExtruder,0
;   supportInfillPercentage,30
;   supportExtraInflation,0
;   supportBaseLayers,0
;   denseSupportExtruder,0
;   denseSupportLayers,0
;   denseSupportInfillPercentage,70
;   supportLayerInterval,1
;   supportHorizontalPartOffset,0.3
;   supportUpperSeparationLayers,1
;   supportLowerSeparationLayers,1
;   supportType,0
;   supportGridSpacing,4
;   maxOverhangAngle,45
;   supportAngles,0
;   temperatureName,Primary Extruder,Bed
;   temperatureNumber,0,0
;   temperatureSetpointCount,1,1
;   temperatureSetpointLayers,1,1
;   temperatureSetpointTemperatures,205,65
;   temperatureStabilizeAtStartup,1,1
;   temperatureHeatedBed,0,1
;   temperatureRelayBetweenLayers,0,0
;   temperatureRelayBetweenLoops,0,0
;   fanLayers,1,2
;   fanSpeeds,0,100
;   blipFanToFullPower,0
;   adjustSpeedForCooling,1
;   minSpeedLayerTime,15
;   minCoolingSpeedSlowdown,20
;   increaseFanForCooling,0
;   minFanLayerTime,45
;   maxCoolingFanSpeed,100
;   increaseFanForBridging,0
;   bridgingFanSpeed,100
;   use5D,1
;   relativeEdistances,0
;   allowEaxisZeroing,1
;   independentExtruderAxes,0
;   includeM10123,0
;   stickySupport,1
;   applyToolheadOffsets,0
;   gcodeXoffset,0
;   gcodeYoffset,0
;   gcodeZoffset,0
;   overrideMachineDefinition,0
;   machineTypeOverride,0
;   strokeXoverride,200
;   strokeYoverride,200
;   strokeZoverride,200
;   originOffsetXoverride,0
;   originOffsetYoverride,0
;   originOffsetZoverride,0
;   homeXdirOverride,-1
;   homeYdirOverride,-1
;   homeZdirOverride,-1
;   flipXoverride,1
;   flipYoverride,-1
;   flipZoverride,1
;   toolheadOffsets,0,0|0,0|0,0|0,0|0,0|0,0
;   overrideFirmwareConfiguration,0
;   firmwareTypeOverride,RepRap (Marlin/Repetier/Sprinter)
;   GPXconfigOverride,r2
;   baudRateOverride,115200
;   overridePrinterModels,0
;   printerModelsOverride
;   startingGcode,G28 ; home all axes
;   layerChangeGcode,
;   retractionGcode,
;   toolChangeGcode,
;   endingGcode,M104 S0 ; turn off extruder,M140 S0 ; turn off bed,M84 ; disable motors
;   exportFileFormat,gcode
;   celebration,0
;   celebrationSong,Random Song
;   postProcessing,
;   defaultSpeed,3600
;   outlineUnderspeed,0.5
;   solidInfillUnderspeed,0.8
;   supportUnderspeed,0.8
;   rapidXYspeed,4800
;   rapidZspeed,1002
;   minBridgingArea,50
;   bridgingExtraInflation,0
;   bridgingExtrusionMultiplier,1
;   bridgingSpeedMultiplier,1
;   useFixedBridgingAngle,0
;   fixedBridgingAngle,0
;   applyBridgingToPerimeters,0
;   filamentDiameters,1.75|1.75|1.75|1.75|1.75|1.75
;   filamentPricesPerKg,46|46|46|46|46|46
;   filamentDensities,1.25|1.25|1.25|1.25|1.25|1.25
;   useMinPrintHeight,0
;   minPrintHeight,0
;   useMaxPrintHeight,0
;   maxPrintHeight,0
;   useDiaphragm,0
;   diaphragmLayerInterval,20
;   robustSlicing,1
;   mergeAllIntoSolid,0
;   onlyRetractWhenCrossingOutline,1
;   retractBetweenLayers,1
;   useRetractionMinTravel,0
;   retractionMinTravel,3
;   retractWhileWiping,0
;   onlyWipeOutlines,1
;   avoidCrossingOutline,0
;   maxMovementDetourFactor,3
;   toolChangeRetractionDistance,12
;   toolChangeExtraRestartDistance,-0.5
;   toolChangeRetractionSpeed,600
;   externalThinWallType,0
;   internalThinWallType,2
;   thinWallAllowedOverlapPercentage,10
;   singleExtrusionMinLength,1
;   singleExtrusionMinPrintingWidthPercentage,50
;   singleExtrusionMaxPrintingWidthPercentage,200
;   singleExtrusionEndpointExtension,0.2
;   horizontalSizeCompensation,0
G90
M82
M106 S0
M140 S65
M190 S65
M104 S205 T0
M109 S205 T0
G28 ; home all axes
G92 E0
G1 E-1.0000 F1800
G1 Z0.300 F1002
; process Process1
; layer 1, Z = 0.300
T0
; tool H0.300 W0.400
; skirt
G1 X140.830 Y140.157 F4800
G1 E0.0000 F540
G92 E0
G1 X140.878 Y140.116 E0.0028 F1800
G1 X141.853 Y139.344 E0.0587
G1 X141.893 Y139.315 E0.0609
G1 X142.167 Y139.128 E0.0758
G1 X142.209 Y139.102 E0.0780
G1 X142.889 Y138.705 E0.1134
G1 X142.924 Y138.686 E0.1152
G1 X143.162 Y138.565 E0.1271
G1 X143.198 Y138.548 E0.1289
G1 X143.988 Y138.200 E0.1677
G1 X144.024 Y138.185 E0.1695
G1 X144.269 Y138.093 E0.1812
G1 X144.306 Y138.080 E0.1829
G1 X144.986 Y137.867 E0.2149
G1 X145.018 Y137.858 E0.2165
G1 X145.238 Y137.801 E0.2266
G1 X145.271 Y137.793 E0.2282
G1 X145.936 Y137.654 E0.2587
G1 X145.968 Y137.648 E0.2601
G1 X146.185 Y137.612 E0.2700
G1 X146.218 Y137.608 E0.2715
G1 X146.886 Y137.532 E0.3017
G1 X146.922 Y137.529 E0.3033
G1 X147.161 Y137.514 E0.3141
G1 X147.197 Y137.513 E0.3157
G1 X147.972 Y137.504 E0.3505
G1 X148.008 Y137.504 E0.3521
G1 X148.247 Y137.514 E0.3628
G1 X148.282 Y137.516 E0.3644
G1 X148.947 Y137.576 E0.3944
G1 X148.980 Y137.580 E0.3959
G1 X149.196 Y137.610 E0.4057
G1 X149.228 Y137.615 E0.4072
G1 X149.892 Y137.738 E0.4375
G1 X149.925 Y137.745 E0.4390
G1 X150.144 Y137.796 E0.4491
G1 X150.176 Y137.805 E0.4506
G1 X150.843 Y137.996 E0.4817
G1 X150.875 Y138.006 E0.4832
G1 X151.094 Y138.081 E0.4936
G1 X151.126 Y138.092 E0.4951
G1 X151.786 Y138.354 E0.5270
G1 X151.818 Y138.367 E0.5286
G1 X152.032 Y138.465 E0.5391
G1 X152.064 Y138.480 E0.5407
G1 X152.705 Y138.812 E0.5732
G1 X152.737 Y138.829 E0.5748
G1 X152.943 Y138.950 E0.5855
G1 X152.974 Y138.969 E0.5871
G1 X153.586 Y139.369 E0.6200
G1 X153.616 Y139.390 E0.6216
G1 X153.811 Y139.532 E0.6324
G1 X153.839 Y139.554 E0.6340
G1 X154.447 Y140.048 E0.6692
G1 X154.485 Y140.081 E0.6714
G1 X154.729 Y140.309 E0.6865
G1 X154.764 Y140.345 E0.6887
G1 X154.993 Y140.592 E0.7038
G1 X155.078 Y140.495 E0.7096
G1 X155.122 Y140.450 E0.7125
G1 X155.430 Y140.157 E0.7316
G1 X155.478 Y140.116 E0.7344
G1 X156.453 Y139.344 E0.7902
G1 X156.493 Y139.315 E0.7925
G1 X156.767 Y139.128 E0.8074
G1 X156.809 Y139.102 E0.8096
G1 X157.489 Y138.705 E0.8449
G1 X157.524 Y138.686 E0.8467
G1 X157.762 Y138.565 E0.8587
G1 X157.798 Y138.548 E0.8605
G1 X158.588 Y138.200 E0.8993
G1 X158.624 Y138.185 E0.9010
G1 X158.869 Y138.093 E0.9127
G1 X158.906 Y138.080 E0.9145
G1 X159.586 Y137.868 E0.9465
G1 X159.618 Y137.858 E0.9480
G1 X159.838 Y137.801 E0.9582
G1 X159.871 Y137.793 E0.9597
G1 X160.536 Y137.654 E0.9902
G1 X160.568 Y137.648 E0.9917
G1 X160.785 Y137.612 E1.0016
G1 X160.818 Y137.608 E1.0031
G1 X161.486 Y137.532 E1.0333
G1 X161.522 Y137.529 E1.0349
G1 X161.761 Y137.514 E1.0456
G1 X161.797 Y137.513 E1.0472
G1 X162.572 Y137.504 E1.0821
G1 X162.608 Y137.504 E1.0837
G1 X162.847 Y137.514 E1.0944
G1 X162.882 Y137.516 E1.0960
G1 X163.547 Y137.576 E1.1260
G1 X163.580 Y137.580 E1.1274
G1 X163.796 Y137.610 E1.1372
G1 X163.828 Y137.615 E1.1387
G1 X164.492 Y137.738 E1.1690
G1 X164.525 Y137.745 E1.1705
G1 X164.744 Y137.796 E1.1806
G1 X164.776 Y137.805 E1.1821
G1 X165.443 Y137.996 E1.2133
G1 X165.475 Y138.006 E1.2148
G1 X165.694 Y138.081 E1.2252
G1 X165.726 Y138.092 E1.2267
G1 X166.386 Y138.354 E1.2586
G1 X166.418 Y138.367 E1.2601
G1 X166.632 Y138.465 E1.2707
G1 X166.664 Y138.480 E1.2723
G1 X167.305 Y138.812 E1.3047
G1 X167.337 Y138.829 E1.3063
G1 X167.543 Y138.950 E1.3171
G1 X167.574 Y138.969 E1.3187
G1 X168.186 Y139.369 E1.3515
G1 X168.216 Y139.390 E1.3531
G1 X168.411 Y139.532 E1.3640
G1 X168.439 Y139.554 E1.3656
G1 X169.048 Y140.048 E1.4008
G1 X169.085 Y140.081 E1.4030
G1 X169.329 Y140.309 E1.4180
G1 X169.364 Y140.345 E1.4203
G1 X170.180 Y141.227 E1.4742
G1 X170.212 Y141.264 E1.4764
G1 X170.421 Y141.524 E1.4914
G1 X170.451 Y141.564 E1.4936
G1 X170.894 Y142.205 E1.5286
G1 X170.913 Y142.235 E1.5302
G1 X171.039 Y142.439 E1.5410
G1 X171.057 Y142.470 E1.5426
G1 X171.407 Y143.105 E1.5752
G1 X171.423 Y143.137 E1.5767
G1 X171.526 Y143.350 E1.5874
G1 X171.541 Y143.382 E1.5890
G1 X171.820 Y144.038 E1.6210
G1 X171.833 Y144.070 E1.6225
G1 X171.913 Y144.287 E1.6329
G1 X171.924 Y144.320 E1.6345
G1 X172.133 Y144.986 E1.6658
G1 X172.142 Y145.018 E1.6673
G1 X172.199 Y145.238 E1.6775
G1 X172.207 Y145.271 E1.6790
G1 X172.346 Y145.936 E1.7095
G1 X172.352 Y145.968 E1.7110
G1 X172.387 Y146.185 E1.7209
G1 X172.392 Y146.218 E1.7224
G1 X172.468 Y146.886 E1.7526
G1 X172.471 Y146.922 E1.7542
G1 X172.486 Y147.161 E1.7649
G1 X172.487 Y147.197 E1.7665
G1 X172.496 Y147.972 E1.8014
G1 X172.496 Y148.008 E1.8030
G1 X172.486 Y148.247 E1.8137
G1 X172.484 Y148.282 E1.8153
G1 X172.424 Y148.947 E1.8453
G1 X172.420 Y148.980 E1.8467
G1 X172.390 Y149.196 E1.8566
G1 X172.385 Y149.228 E1.8580
G1 X172.262 Y149.892 E1.8883
G1 X172.255 Y149.925 E1.8898
G1 X172.204 Y150.144 E1.8999
G1 X172.195 Y150.176 E1.9014
G1 X172.004 Y150.843 E1.9326
G1 X171.994 Y150.876 E1.9341
G1 X171.919 Y151.094 E1.9445
G1 X171.908 Y151.126 E1.9460
G1 X171.646 Y151.786 E1.9779
G1 X171.633 Y151.818 E1.9794
G1 X171.535 Y152.032 E1.9900
G1 X171.520 Y152.064 E1.9916
G1 X171.188 Y152.705 E2.0240
G1 X171.171 Y152.737 E2.0256
G1 X171.050 Y152.943 E2.0364
G1 X171.031 Y152.974 E2.0380
G1 X170.631 Y153.586 E2.0708
G1 X170.610 Y153.616 E2.0724
G1 X170.468 Y153.811 E2.0833
G1 X170.446 Y153.839 E2.0849
G1 X169.952 Y154.447 E2.1201
G1 X169.919 Y154.485 E2.1223
G1 X169.691 Y154.729 E2.1373
G1 X169.655 Y154.764 E2.1396
G1 X169.408 Y154.993 E2.1547
G1 X170.047 Y155.666 E2.1964
G1 X170.077 Y155.700 E2.1984
G1 X170.271 Y155.933 E2.2120
G1 X170.299 Y155.969 E2.2141
G1 X170.750 Y156.587 E2.2485
G1 X170.771 Y156.617 E2.2501
G1 X170.902 Y156.818 E2.2609
G1 X170.921 Y156.848 E2.2625
G1 X171.288 Y157.477 E2.2951
G1 X171.305 Y157.508 E2.2967
G1 X171.414 Y157.719 E2.3074
G1 X171.430 Y157.751 E2.3090
G1 X171.726 Y158.403 E2.3411
G1 X171.740 Y158.435 E2.3427
G1 X171.826 Y158.651 E2.3532
G1 X171.838 Y158.684 E2.3547
G1 X172.064 Y159.348 E2.3862
G1 X172.074 Y159.381 E2.3878
G1 X172.137 Y159.600 E2.3980
G1 X172.145 Y159.633 E2.3995
G1 X172.302 Y160.299 E2.4303
G1 X172.309 Y160.331 E2.4317
G1 X172.349 Y160.549 E2.4417
G1 X172.355 Y160.582 E2.4432
G1 X172.447 Y161.253 E2.4736
G1 X172.451 Y161.289 E2.4752
G1 X172.471 Y161.529 E2.4861
G1 X172.473 Y161.565 E2.4877
G1 X172.500 Y162.343 E2.5226
G1 X172.500 Y162.378 E2.5242
G1 X172.496 Y162.617 E2.5349
G1 X172.495 Y162.652 E2.5365
G1 X172.450 Y163.314 E2.5663
G1 X172.447 Y163.346 E2.5677
G1 X172.422 Y163.561 E2.5775
G1 X172.418 Y163.593 E2.5789
G1 X172.311 Y164.255 E2.6090
G1 X172.305 Y164.287 E2.6105
G1 X172.259 Y164.506 E2.6205
G1 X172.252 Y164.538 E2.6220
G1 X172.078 Y165.205 E2.6529
G1 X172.068 Y165.238 E2.6545
G1 X172.000 Y165.457 E2.6648
G1 X171.989 Y165.489 E2.6663
G1 X171.745 Y166.152 E2.6980
G1 X171.732 Y166.184 E2.6996
G1 X171.641 Y166.400 E2.7101
G1 X171.626 Y166.431 E2.7117
G1 X171.312 Y167.078 E2.7440
G1 X171.295 Y167.110 E2.7456
G1 X171.181 Y167.319 E2.7563
G1 X171.163 Y167.350 E2.7579
G1 X170.779 Y167.970 E2.7906
G1 X170.759 Y168.000 E2.7922
G1 X170.622 Y168.199 E2.8031
G1 X170.601 Y168.228 E2.8047
G1 X170.124 Y168.848 E2.8398
G1 X170.092 Y168.886 E2.8420
G1 X169.870 Y169.136 E2.8570
G1 X169.835 Y169.171 E2.8593
G1 X168.975 Y170.010 E2.9132
G1 X168.938 Y170.044 E2.9155
G1 X168.683 Y170.259 E2.9305
G1 X168.644 Y170.290 E2.9327
G1 X168.013 Y170.750 E2.9678
G1 X167.983 Y170.771 E2.9694
G1 X167.782 Y170.902 E2.9802
G1 X167.752 Y170.921 E2.9818
G1 X167.123 Y171.288 E3.0145
G1 X167.092 Y171.305 E3.0160
G1 X166.881 Y171.414 E3.0267
G1 X166.849 Y171.430 E3.0283
G1 X166.197 Y171.726 E3.0605
G1 X166.166 Y171.740 E3.0620
G1 X165.949 Y171.826 E3.0725
G1 X165.916 Y171.838 E3.0740
G1 X165.252 Y172.064 E3.1056
G1 X165.219 Y172.074 E3.1071
G1 X165.000 Y172.137 E3.1173
G1 X164.967 Y172.145 E3.1188
G1 X164.301 Y172.302 E3.1496
G1 X164.269 Y172.309 E3.1511
G1 X164.051 Y172.349 E3.1610
G1 X164.018 Y172.355 E3.1625
G1 X163.347 Y172.447 E3.1929
G1 X163.311 Y172.451 E3.1945
G1 X163.071 Y172.471 E3.2054
G1 X163.035 Y172.473 E3.2070
G1 X162.257 Y172.500 E3.2419
G1 X162.222 Y172.500 E3.2435
G1 X161.983 Y172.496 E3.2542
G1 X161.948 Y172.495 E3.2558
G1 X161.286 Y172.450 E3.2856
G1 X161.254 Y172.447 E3.2870
G1 X161.039 Y172.422 E3.2968
G1 X161.007 Y172.418 E3.2982
G1 X160.345 Y172.311 E3.3283
G1 X160.313 Y172.305 E3.3298
G1 X160.094 Y172.259 E3.3398
G1 X160.062 Y172.252 E3.3413
G1 X159.395 Y172.078 E3.3723
G1 X159.362 Y172.068 E3.3738
G1 X159.143 Y172.000 E3.3841
G1 X159.111 Y171.989 E3.3856
G1 X158.448 Y171.745 E3.4173
G1 X158.416 Y171.732 E3.4189
G1 X158.200 Y171.641 E3.4294
G1 X158.169 Y171.626 E3.4310
G1 X157.522 Y171.312 E3.4633
G1 X157.490 Y171.295 E3.4649
G1 X157.281 Y171.181 E3.4756
G1 X157.250 Y171.163 E3.4772
G1 X156.630 Y170.779 E3.5099
G1 X156.599 Y170.759 E3.5116
G1 X156.401 Y170.622 E3.5224
G1 X156.372 Y170.601 E3.5240
G1 X155.752 Y170.124 E3.5591
G1 X155.714 Y170.092 E3.5614
G1 X155.464 Y169.870 E3.5763
G1 X155.428 Y169.835 E3.5786
G1 X155.009 Y169.405 E3.6056
G1 X154.334 Y170.047 E3.6474
G1 X154.300 Y170.077 E3.6494
G1 X154.067 Y170.271 E3.6630
G1 X154.031 Y170.299 E3.6651
G1 X153.413 Y170.750 E3.6994
G1 X153.383 Y170.771 E3.7011
G1 X153.182 Y170.902 E3.7119
G1 X153.152 Y170.921 E3.7135
G1 X152.523 Y171.288 E3.7461
G1 X152.492 Y171.305 E3.7477
G1 X152.281 Y171.414 E3.7584
G1 X152.249 Y171.430 E3.7600
G1 X151.597 Y171.726 E3.7921
G1 X151.566 Y171.740 E3.7937
G1 X151.349 Y171.826 E3.8042
G1 X151.316 Y171.838 E3.8057
G1 X150.652 Y172.064 E3.8372
G1 X150.619 Y172.074 E3.8388
G1 X150.400 Y172.137 E3.8490
G1 X150.367 Y172.145 E3.8505
G1 X149.701 Y172.302 E3.8812
G1 X149.669 Y172.309 E3.8827
G1 X149.451 Y172.349 E3.8927
G1 X149.418 Y172.355 E3.8942
G1 X148.747 Y172.447 E3.9246
G1 X148.711 Y172.451 E3.9262
G1 X148.470 Y172.471 E3.9371
G1 X148.435 Y172.473 E3.9387
G1 X147.657 Y172.500 E3.9736
G1 X147.622 Y172.500 E3.9752
G1 X147.383 Y172.496 E3.9859
G1 X147.348 Y172.495 E3.9875
G1 X146.686 Y172.450 E4.0173
G1 X146.654 Y172.447 E4.0187
G1 X146.439 Y172.422 E4.0285
G1 X146.407 Y172.418 E4.0299
G1 X145.745 Y172.311 E4.0600
G1 X145.713 Y172.305 E4.0615
G1 X145.494 Y172.259 E4.0715
G1 X145.462 Y172.252 E4.0730
G1 X144.795 Y172.078 E4.1039
G1 X144.762 Y172.068 E4.1055
G1 X144.543 Y172.000 E4.1158
G1 X144.511 Y171.989 E4.1173
G1 X143.848 Y171.745 E4.1490
G1 X143.816 Y171.732 E4.1506
G1 X143.600 Y171.641 E4.1611
G1 X143.569 Y171.626 E4.1626
G1 X142.922 Y171.312 E4.1949
G1 X142.890 Y171.296 E4.1965
G1 X142.681 Y171.181 E4.2072
G1 X142.650 Y171.163 E4.2088
