; G-Code generated by Simplify3D(R) Version 4.0.1
; Dec 16, 2019 at 12:48:01 PM
; Settings Summary
;   processName,Process1
;   applyToModels,Paper_Support_Right
;   profileName,Default (modified)
;   profileVersion,2017-03-01 08:00:00
;   baseProfile,
;   printMaterial,PLA
;   printQuality,Medium
;   printExtruders,
;   extruderName,Primary Extruder
;   extruderToolheadNumber,0
;   extruderDiameter,0.4
;   extruderAutoWidth,0
;   extruderWidth,0.4
;   extrusionMultiplier,0.9
;   extruderUseRetract,1
;   extruderRetractionDistance,1
;   extruderExtraRestartDistance,0
;   extruderRetractionZLift,0
;   extruderRetractionSpeed,1800
;   extruderUseCoasting,0
;   extruderCoastingDistance,0.2
;   extruderUseWipe,0
;   extruderWipeDistance,5
;   primaryExtruder,0
;   layerHeight,0.3
;   topSolidLayers,6
;   bottomSolidLayers,6
;   perimeterOutlines,6
;   printPerimetersInsideOut,1
;   startPointOption,2
;   startPointOriginX,0
;   startPointOriginY,0
;   sequentialIslands,0
;   spiralVaseMode,0
;   firstLayerHeightPercentage,100
;   firstLayerWidthPercentage,100
;   firstLayerUnderspeed,0.5
;   useRaft,0
;   raftExtruder,0
;   raftTopLayers,3
;   raftBaseLayers,2
;   raftOffset,3
;   raftSeparationDistance,0.14
;   raftTopInfill,100
;   aboveRaftSpeedMultiplier,0.3
;   useSkirt,1
;   skirtExtruder,0
;   skirtLayers,1
;   skirtOutlines,4
;   skirtOffset,4
;   usePrimePillar,0
;   primePillarExtruder,999
;   primePillarWidth,12
;   primePillarLocation,7
;   primePillarSpeedMultiplier,1
;   useOozeShield,0
;   oozeShieldExtruder,999
;   oozeShieldOffset,2
;   oozeShieldOutlines,1
;   oozeShieldSidewallShape,1
;   oozeShieldSidewallAngle,30
;   oozeShieldSpeedMultiplier,1
;   infillExtruder,0
;   internalInfillPattern,Full Honeycomb
;   externalInfillPattern,Rectilinear
;   infillPercentage,20
;   outlineOverlapPercentage,15
;   infillExtrusionWidthPercentage,100
;   minInfillLength,5
;   infillLayerInterval,1
;   internalInfillAngles,0,120,-120
;   overlapInternalInfillAngles,0
;   externalInfillAngles,45,-45
;   generateSupport,1
;   supportExtruder,0
;   supportInfillPercentage,30
;   supportExtraInflation,0
;   supportBaseLayers,0
;   denseSupportExtruder,0
;   denseSupportLayers,0
;   denseSupportInfillPercentage,70
;   supportLayerInterval,1
;   supportHorizontalPartOffset,0.3
;   supportUpperSeparationLayers,1
;   supportLowerSeparationLayers,1
;   supportType,0
;   supportGridSpacing,4
;   maxOverhangAngle,45
;   supportAngles,0
;   temperatureName,Primary Extruder,Bed
;   temperatureNumber,0,0
;   temperatureSetpointCount,1,1
;   temperatureSetpointLayers,1,1
;   temperatureSetpointTemperatures,205,65
;   temperatureStabilizeAtStartup,1,1
;   temperatureHeatedBed,0,1
;   temperatureRelayBetweenLayers,0,0
;   temperatureRelayBetweenLoops,0,0
;   fanLayers,1,2
;   fanSpeeds,0,100
;   blipFanToFullPower,0
;   adjustSpeedForCooling,1
;   minSpeedLayerTime,15
;   minCoolingSpeedSlowdown,20
;   increaseFanForCooling,0
;   minFanLayerTime,45
;   maxCoolingFanSpeed,100
;   increaseFanForBridging,0
;   bridgingFanSpeed,100
;   use5D,1
;   relativeEdistances,0
;   allowEaxisZeroing,1
;   independentExtruderAxes,0
;   includeM10123,0
;   stickySupport,1
;   applyToolheadOffsets,0
;   gcodeXoffset,0
;   gcodeYoffset,0
;   gcodeZoffset,0
;   overrideMachineDefinition,0
;   machineTypeOverride,0
;   strokeXoverride,200
;   strokeYoverride,200
;   strokeZoverride,200
;   originOffsetXoverride,0
;   originOffsetYoverride,0
;   originOffsetZoverride,0
;   homeXdirOverride,-1
;   homeYdirOverride,-1
;   homeZdirOverride,-1
;   flipXoverride,1
;   flipYoverride,-1
;   flipZoverride,1
;   toolheadOffsets,0,0|0,0|0,0|0,0|0,0|0,0
;   overrideFirmwareConfiguration,0
;   firmwareTypeOverride,RepRap (Marlin/Repetier/Sprinter)
;   GPXconfigOverride,r2
;   baudRateOverride,115200
;   overridePrinterModels,0
;   printerModelsOverride
;   startingGcode,G28 ; home all axes
;   layerChangeGcode,
;   retractionGcode,
;   toolChangeGcode,
;   endingGcode,M104 S0 ; turn off extruder,M140 S0 ; turn off bed,M84 ; disable motors
;   exportFileFormat,gcode
;   celebration,0
;   celebrationSong,Random Song
;   postProcessing,
;   defaultSpeed,3600
;   outlineUnderspeed,0.5
;   solidInfillUnderspeed,0.8
;   supportUnderspeed,0.8
;   rapidXYspeed,4800
;   rapidZspeed,1002
;   minBridgingArea,50
;   bridgingExtraInflation,0
;   bridgingExtrusionMultiplier,1
;   bridgingSpeedMultiplier,1
;   useFixedBridgingAngle,0
;   fixedBridgingAngle,0
;   applyBridgingToPerimeters,0
;   filamentDiameters,1.75|1.75|1.75|1.75|1.75|1.75
;   filamentPricesPerKg,46|46|46|46|46|46
;   filamentDensities,1.25|1.25|1.25|1.25|1.25|1.25
;   useMinPrintHeight,0
;   minPrintHeight,0
;   useMaxPrintHeight,0
;   maxPrintHeight,0
;   useDiaphragm,0
;   diaphragmLayerInterval,20
;   robustSlicing,1
;   mergeAllIntoSolid,0
;   onlyRetractWhenCrossingOutline,1
;   retractBetweenLayers,1
;   useRetractionMinTravel,0
;   retractionMinTravel,3
;   retractWhileWiping,0
;   onlyWipeOutlines,1
;   avoidCrossingOutline,0
;   maxMovementDetourFactor,3
;   toolChangeRetractionDistance,12
;   toolChangeExtraRestartDistance,-0.5
;   toolChangeRetractionSpeed,600
;   externalThinWallType,0
;   internalThinWallType,2
;   thinWallAllowedOverlapPercentage,10
;   singleExtrusionMinLength,1
;   singleExtrusionMinPrintingWidthPercentage,50
;   singleExtrusionMaxPrintingWidthPercentage,200
;   singleExtrusionEndpointExtension,0.2
;   horizontalSizeCompensation,0
G90
M82
M106 S0
M140 S65
M190 S65
M104 S205 T0
M109 S205 T0
G28 ; home all axes
G92 E0
G1 E-1.0000 F1800
G1 Z0.300 F1002
; process Process1
; layer 1, Z = 0.300
T0
; tool H0.300 W0.400
; skirt
G1 X105.943 Y145.668 F4800
G1 E0.0000 F540
G92 E0
G1 X108.032 Y144.149 E0.1160 F1800
G1 X108.094 Y144.109 E0.1193
G1 X108.521 Y143.863 E0.1414
G1 X108.587 Y143.829 E0.1447
G1 X110.947 Y142.779 E0.2607
G1 X111.015 Y142.753 E0.2640
G1 X111.483 Y142.601 E0.2861
G1 X111.553 Y142.582 E0.2894
G1 X114.080 Y142.044 E0.4054
G1 X114.153 Y142.033 E0.4087
G1 X114.643 Y141.981 E0.4308
G1 X114.716 Y141.977 E0.4341
G1 X117.299 Y141.977 E0.5501
G1 X117.372 Y141.981 E0.5534
G1 X117.862 Y142.033 E0.5755
G1 X117.935 Y142.044 E0.5788
G1 X120.462 Y142.582 E0.6948
G1 X120.532 Y142.601 E0.6981
G1 X121.000 Y142.753 E0.7202
G1 X121.068 Y142.779 E0.7234
G1 X123.428 Y143.829 E0.8394
G1 X123.494 Y143.863 E0.8427
G1 X123.921 Y144.109 E0.8649
G1 X123.983 Y144.149 E0.8682
G1 X126.072 Y145.668 E0.9842
G1 X126.129 Y145.714 E0.9875
G1 X126.495 Y146.044 E1.0096
G1 X126.547 Y146.096 E1.0129
G1 X128.275 Y148.015 E1.1289
G1 X128.322 Y148.072 E1.1321
G1 X128.611 Y148.471 E1.1543
G1 X128.651 Y148.532 E1.1575
G1 X128.850 Y148.877 E1.1754
G1 X129.407 Y149.038 E1.2014
G1 X129.727 Y149.096 E1.2160
G1 X129.937 Y149.119 E1.2256
G1 X130.176 Y149.131 E1.2363
G1 X130.667 Y149.119 E1.2584
G1 X131.147 Y149.061 E1.2800
G1 X167.819 Y142.127 E2.9558
G1 X168.247 Y142.029 E2.9756
G1 X168.728 Y141.872 E2.9983
G1 X169.147 Y141.692 E3.0187
G1 X170.848 Y140.873 E3.1035
G1 X170.997 Y140.821 E3.1106
G1 X172.029 Y140.586 E3.1581
G1 X172.185 Y140.568 E3.1652
G1 X184.548 Y140.571 E3.7203
G1 X186.017 Y139.503 E3.8018
G1 X186.079 Y139.463 E3.8051
G1 X186.506 Y139.217 E3.8273
G1 X186.572 Y139.183 E3.8306
G1 X188.932 Y138.133 E3.9466
G1 X189.000 Y138.107 E3.9499
G1 X189.468 Y137.955 E3.9720
G1 X189.538 Y137.936 E3.9752
G1 X192.065 Y137.398 E4.0912
G1 X192.138 Y137.387 E4.0945
G1 X192.628 Y137.335 E4.1167
G1 X192.701 Y137.332 E4.1199
G1 X195.284 Y137.332 E4.2359
G1 X195.357 Y137.335 E4.2392
G1 X195.847 Y137.387 E4.2614
G1 X195.920 Y137.398 E4.2646
G1 X198.447 Y137.936 E4.3806
G1 X198.517 Y137.955 E4.3839
G1 X198.985 Y138.107 E4.4060
G1 X199.053 Y138.133 E4.4093
G1 X201.413 Y139.183 E4.5253
G1 X201.479 Y139.217 E4.5286
G1 X201.906 Y139.463 E4.5507
G1 X201.968 Y139.503 E4.5540
G1 X204.057 Y141.022 E4.6700
G1 X204.114 Y141.068 E4.6733
G1 X204.480 Y141.398 E4.6954
G1 X204.532 Y141.450 E4.6987
G1 X206.261 Y143.370 E4.8147
G1 X206.307 Y143.426 E4.8180
G1 X206.596 Y143.825 E4.8401
G1 X206.636 Y143.886 E4.8434
G1 X207.927 Y146.123 E4.9594
G1 X207.961 Y146.188 E4.9627
G1 X208.161 Y146.639 E4.9848
G1 X208.187 Y146.707 E4.9881
G1 X208.985 Y149.164 E5.1041
G1 X209.004 Y149.235 E5.1074
G1 X209.107 Y149.716 E5.1295
G1 X209.118 Y149.788 E5.1327
G1 X209.389 Y152.357 E5.2487
G1 X209.392 Y152.431 E5.2520
G1 X209.392 Y152.924 E5.2742
G1 X209.389 Y152.998 E5.2775
G1 X209.118 Y155.567 E5.3935
G1 X209.107 Y155.639 E5.3968
G1 X209.004 Y156.121 E5.4189
G1 X208.985 Y156.191 E5.4222
G1 X208.187 Y158.647 E5.5381
G1 X208.161 Y158.716 E5.5414
G1 X207.961 Y159.165 E5.5635
G1 X207.928 Y159.230 E5.5668
G1 X206.636 Y161.468 E5.6828
G1 X206.596 Y161.530 E5.6861
G1 X206.306 Y161.929 E5.7083
G1 X206.260 Y161.986 E5.7116
G1 X204.531 Y163.905 E5.8275
G1 X204.479 Y163.957 E5.8308
G1 X204.114 Y164.286 E5.8529
G1 X204.057 Y164.332 E5.8562
G1 X201.968 Y165.851 E5.9722
G1 X201.906 Y165.891 E5.9755
G1 X201.479 Y166.137 E5.9976
G1 X201.413 Y166.171 E6.0009
G1 X199.053 Y167.221 E6.1169
G1 X198.985 Y167.247 E6.1202
G1 X198.517 Y167.399 E6.1423
G1 X198.447 Y167.418 E6.1456
G1 X195.920 Y167.956 E6.2615
G1 X195.847 Y167.967 E6.2648
G1 X195.357 Y168.019 E6.2870
G1 X195.284 Y168.022 E6.2903
G1 X192.701 Y168.022 E6.4062
G1 X192.628 Y168.019 E6.4095
G1 X192.138 Y167.967 E6.4317
G1 X192.065 Y167.956 E6.4350
G1 X189.538 Y167.418 E6.5509
G1 X189.468 Y167.399 E6.5542
G1 X189.000 Y167.247 E6.5763
G1 X188.932 Y167.221 E6.5796
G1 X186.572 Y166.171 E6.6956
G1 X186.506 Y166.137 E6.6989
G1 X186.079 Y165.891 E6.7210
G1 X186.017 Y165.851 E6.7243
G1 X185.903 Y165.767 E6.7307
G1 X181.462 Y165.767 E6.9301
G1 X181.440 Y165.767 E6.9311
G1 X181.289 Y165.762 E6.9379
G1 X181.267 Y165.761 E6.9389
G1 X180.136 Y165.689 E6.9898
G1 X180.105 Y165.686 E6.9912
G1 X179.897 Y165.663 E7.0005
G1 X179.866 Y165.659 E7.0019
G1 X178.867 Y165.505 E7.0473
G1 X178.842 Y165.501 E7.0485
G1 X178.674 Y165.469 E7.0562
G1 X178.649 Y165.463 E7.0573
G1 X177.875 Y165.286 E7.0929
G1 X177.853 Y165.280 E7.0940
G1 X177.704 Y165.241 E7.1009
G1 X177.682 Y165.235 E7.1019
G1 X176.880 Y164.994 E7.1395
G1 X176.858 Y164.987 E7.1405
G1 X176.712 Y164.938 E7.1475
G1 X176.690 Y164.930 E7.1485
G1 X175.903 Y164.636 E7.1862
G1 X175.873 Y164.625 E7.1877
G1 X175.677 Y164.541 E7.1972
G1 X175.648 Y164.528 E7.1987
G1 X174.446 Y163.950 E7.2586
G1 X174.422 Y163.938 E7.2597
G1 X174.266 Y163.856 E7.2677
G1 X174.243 Y163.843 E7.2688
G1 X168.399 Y160.473 E7.5718
G1 X167.853 Y160.211 E7.5990
G1 X167.367 Y160.040 E7.6221
G1 X166.890 Y159.930 E7.6441
G1 X166.353 Y159.867 E7.6684
G1 X165.789 Y159.865 E7.6937
G1 X165.547 Y159.886 E7.7046
G1 X165.167 Y159.944 E7.7218
G1 X127.960 Y166.981 E9.4221
G1 X126.547 Y168.550 E9.5169
G1 X126.495 Y168.602 E9.5202
G1 X126.129 Y168.932 E9.5423
G1 X126.072 Y168.978 E9.5456
G1 X123.983 Y170.497 E9.6616
G1 X123.921 Y170.537 E9.6649
G1 X123.494 Y170.783 E9.6871
G1 X123.428 Y170.817 E9.6904
G1 X121.068 Y171.867 E9.8063
G1 X121.000 Y171.893 E9.8096
G1 X120.532 Y172.045 E9.8317
G1 X120.462 Y172.064 E9.8350
G1 X117.935 Y172.602 E9.9510
G1 X117.862 Y172.613 E9.9543
G1 X117.372 Y172.665 E9.9764
G1 X117.299 Y172.668 E9.9797
G1 X114.716 Y172.668 E10.0957
G1 X114.643 Y172.665 E10.0990
G1 X114.153 Y172.613 E10.1211
G1 X114.080 Y172.602 E10.1244
G1 X111.553 Y172.064 E10.2404
G1 X111.483 Y172.045 E10.2437
G1 X111.015 Y171.893 E10.2658
G1 X110.947 Y171.867 E10.2691
G1 X108.587 Y170.817 E10.3850
G1 X108.521 Y170.783 E10.3883
G1 X108.094 Y170.537 E10.4105
G1 X108.032 Y170.497 E10.4138
G1 X105.943 Y168.978 E10.5298
G1 X105.886 Y168.932 E10.5331
G1 X105.520 Y168.602 E10.5552
G1 X105.468 Y168.550 E10.5585
G1 X103.739 Y166.631 E10.6745
G1 X103.693 Y166.574 E10.6778
G1 X103.404 Y166.175 E10.6999
G1 X103.364 Y166.114 E10.7032
G1 X102.073 Y163.877 E10.8191
G1 X102.040 Y163.812 E10.8224
G1 X101.839 Y163.362 E10.8445
G1 X101.813 Y163.294 E10.8478
G1 X101.015 Y160.837 E10.9638
G1 X100.996 Y160.766 E10.9671
G1 X100.893 Y160.285 E10.9892
G1 X100.882 Y160.213 E10.9925
G1 X100.611 Y157.642 E11.1085
G1 X100.607 Y157.569 E11.1118
G1 X100.608 Y157.076 E11.1340
G1 X100.611 Y157.002 E11.1373
G1 X100.882 Y154.433 E11.2533
G1 X100.893 Y154.361 E11.2565
G1 X100.996 Y153.879 E11.2786
G1 X101.015 Y153.809 E11.2819
G1 X101.813 Y151.352 E11.3979
G1 X101.839 Y151.284 E11.4012
G1 X102.040 Y150.834 E11.4233
G1 X102.073 Y150.769 E11.4266
G1 X103.364 Y148.532 E11.5426
G1 X103.404 Y148.471 E11.5458
G1 X103.693 Y148.072 E11.5680
G1 X103.740 Y148.015 E11.5712
G1 X105.468 Y146.096 E11.6872
G1 X105.520 Y146.044 E11.6905
G1 X105.886 Y145.714 E11.7126
G1 X105.943 Y145.668 E11.7159
G1 X106.186 Y145.985 F4800
G92 E0
G1 X108.259 Y144.479 E0.1151 F1800
G1 X108.303 Y144.450 E0.1174
G1 X108.712 Y144.214 E0.1386
G1 X108.759 Y144.190 E0.1410
G1 X111.100 Y143.149 E0.2560
G1 X111.149 Y143.130 E0.2584
G1 X111.596 Y142.984 E0.2795
G1 X111.647 Y142.971 E0.2819
G1 X114.153 Y142.438 E0.3969
G1 X114.205 Y142.430 E0.3993
G1 X114.674 Y142.380 E0.4205
G1 X114.727 Y142.377 E0.4228
G1 X117.288 Y142.377 E0.5378
G1 X117.341 Y142.380 E0.5402
G1 X117.810 Y142.430 E0.5614
G1 X117.862 Y142.438 E0.5637
G1 X120.368 Y142.971 E0.6788
G1 X120.419 Y142.984 E0.6811
G1 X120.866 Y143.130 E0.7023
G1 X120.915 Y143.149 E0.7046
G1 X123.256 Y144.190 E0.8197
G1 X123.303 Y144.214 E0.8220
G1 X123.712 Y144.450 E0.8432
G1 X123.756 Y144.479 E0.8456
G1 X125.829 Y145.985 E0.9606
G1 X125.869 Y146.018 E0.9630
G1 X126.220 Y146.334 E0.9842
G1 X126.257 Y146.371 E0.9865
G1 X127.971 Y148.275 E1.1016
G1 X128.004 Y148.316 E1.1039
G1 X128.281 Y148.697 E1.1251
G1 X128.310 Y148.741 E1.1274
G1 X128.581 Y149.211 E1.1518
G1 X128.613 Y149.225 E1.1534
G1 X129.315 Y149.428 E1.1862
G1 X129.670 Y149.492 E1.2024
G1 X129.905 Y149.517 E1.2130
G1 X130.171 Y149.531 E1.2249
G1 X130.696 Y149.518 E1.2485
G1 X131.208 Y149.456 E1.2717
G1 X167.901 Y142.519 E2.9484
G1 X168.354 Y142.414 E2.9693
G1 X168.869 Y142.247 E2.9936
G1 X169.313 Y142.056 E3.0153
G1 X171.001 Y141.244 E3.0994
G1 X171.107 Y141.206 E3.1045
G1 X172.096 Y140.981 E3.1500
G1 X172.208 Y140.968 E3.1551
G1 X184.678 Y140.971 E3.7150
G1 X186.244 Y139.833 E3.8019
G1 X186.288 Y139.804 E3.8043
G1 X186.697 Y139.568 E3.8255
G1 X186.744 Y139.544 E3.8279
G1 X189.085 Y138.503 E3.9429
G1 X189.134 Y138.484 E3.9452
G1 X189.581 Y138.338 E3.9664
G1 X189.632 Y138.325 E3.9687
G1 X192.138 Y137.792 E4.0838
G1 X192.190 Y137.784 E4.0861
G1 X192.659 Y137.734 E4.1073
G1 X192.712 Y137.732 E4.1097
G1 X195.273 Y137.732 E4.2247
G1 X195.326 Y137.734 E4.2271
G1 X195.795 Y137.784 E4.2483
G1 X195.847 Y137.792 E4.2506
G1 X198.353 Y138.325 E4.3657
G1 X198.404 Y138.338 E4.3680
G1 X198.851 Y138.484 E4.3892
G1 X198.900 Y138.503 E4.3915
G1 X201.241 Y139.544 E4.5065
G1 X201.288 Y139.568 E4.5089
G1 X201.697 Y139.804 E4.5301
G1 X201.741 Y139.833 E4.5325
G1 X203.814 Y141.339 E4.6475
G1 X203.854 Y141.372 E4.6499
G1 X204.205 Y141.688 E4.6710
G1 X204.242 Y141.725 E4.6734
G1 X205.956 Y143.629 E4.7885
G1 X205.989 Y143.670 E4.7908
G1 X206.266 Y144.051 E4.8120
G1 X206.295 Y144.095 E4.8143
G1 X207.576 Y146.314 E4.9293
G1 X207.599 Y146.360 E4.9317
G1 X207.791 Y146.792 E4.9529
G1 X207.810 Y146.841 E4.9552
G1 X208.602 Y149.278 E5.0703
G1 X208.615 Y149.328 E5.0727
G1 X208.713 Y149.789 E5.0938
G1 X208.721 Y149.841 E5.0961
G1 X208.990 Y152.389 E5.2112
G1 X208.992 Y152.441 E5.2135
G1 X208.992 Y152.914 E5.2348
G1 X208.990 Y152.966 E5.2371
G1 X208.721 Y155.515 E5.3522
G1 X208.713 Y155.566 E5.3545
G1 X208.615 Y156.027 E5.3757
G1 X208.602 Y156.078 E5.3780
G1 X207.810 Y158.514 E5.4930
G1 X207.791 Y158.562 E5.4954
G1 X207.600 Y158.993 E5.5165
G1 X207.576 Y159.039 E5.5189
G1 X206.295 Y161.259 E5.6340
G1 X206.266 Y161.303 E5.6363
G1 X205.989 Y161.686 E5.6575
G1 X205.956 Y161.726 E5.6599
G1 X204.241 Y163.630 E5.7749
G1 X204.204 Y163.667 E5.7773
G1 X203.854 Y163.982 E5.7984
G1 X203.813 Y164.015 E5.8008
G1 X201.741 Y165.521 E5.9158
G1 X201.697 Y165.550 E5.9182
G1 X201.288 Y165.786 E5.9394
G1 X201.241 Y165.810 E5.9417
G1 X198.900 Y166.851 E6.0568
G1 X198.851 Y166.870 E6.0591
G1 X198.404 Y167.016 E6.0803
G1 X198.353 Y167.029 E6.0826
