; G-Code generated by Simplify3D(R) Version 4.0.1
; Dec 16, 2019 at 12:27:07 PM
; Settings Summary
;   processName,Process1
;   applyToModels,Paper_Roller_Higher__Tolerances,Paper_Roller_Higher__Tolerances(2),Paper_Roller_Higher__Tolerances(3),Paper_Roller_Higher__Tolerances(4)
;   profileName,Default (modified)
;   profileVersion,2017-03-01 08:00:00
;   baseProfile,
;   printMaterial,PLA
;   printQuality,Medium
;   printExtruders,
;   extruderName,Primary Extruder
;   extruderToolheadNumber,0
;   extruderDiameter,0.4
;   extruderAutoWidth,0
;   extruderWidth,0.4
;   extrusionMultiplier,0.9
;   extruderUseRetract,1
;   extruderRetractionDistance,1
;   extruderExtraRestartDistance,0
;   extruderRetractionZLift,0
;   extruderRetractionSpeed,1800
;   extruderUseCoasting,0
;   extruderCoastingDistance,0.2
;   extruderUseWipe,0
;   extruderWipeDistance,5
;   primaryExtruder,0
;   layerHeight,0.3
;   topSolidLayers,6
;   bottomSolidLayers,6
;   perimeterOutlines,6
;   printPerimetersInsideOut,1
;   startPointOption,2
;   startPointOriginX,0
;   startPointOriginY,0
;   sequentialIslands,0
;   spiralVaseMode,0
;   firstLayerHeightPercentage,100
;   firstLayerWidthPercentage,100
;   firstLayerUnderspeed,0.5
;   useRaft,0
;   raftExtruder,0
;   raftTopLayers,3
;   raftBaseLayers,2
;   raftOffset,3
;   raftSeparationDistance,0.14
;   raftTopInfill,100
;   aboveRaftSpeedMultiplier,0.3
;   useSkirt,1
;   skirtExtruder,0
;   skirtLayers,1
;   skirtOutlines,4
;   skirtOffset,4
;   usePrimePillar,0
;   primePillarExtruder,999
;   primePillarWidth,12
;   primePillarLocation,7
;   primePillarSpeedMultiplier,1
;   useOozeShield,0
;   oozeShieldExtruder,999
;   oozeShieldOffset,2
;   oozeShieldOutlines,1
;   oozeShieldSidewallShape,1
;   oozeShieldSidewallAngle,30
;   oozeShieldSpeedMultiplier,1
;   infillExtruder,0
;   internalInfillPattern,Full Honeycomb
;   externalInfillPattern,Rectilinear
;   infillPercentage,20
;   outlineOverlapPercentage,15
;   infillExtrusionWidthPercentage,100
;   minInfillLength,5
;   infillLayerInterval,1
;   internalInfillAngles,0,120,-120
;   overlapInternalInfillAngles,0
;   externalInfillAngles,45,-45
;   generateSupport,1
;   supportExtruder,0
;   supportInfillPercentage,30
;   supportExtraInflation,0
;   supportBaseLayers,0
;   denseSupportExtruder,0
;   denseSupportLayers,0
;   denseSupportInfillPercentage,70
;   supportLayerInterval,1
;   supportHorizontalPartOffset,0.3
;   supportUpperSeparationLayers,1
;   supportLowerSeparationLayers,1
;   supportType,0
;   supportGridSpacing,4
;   maxOverhangAngle,45
;   supportAngles,0
;   temperatureName,Primary Extruder,Bed
;   temperatureNumber,0,0
;   temperatureSetpointCount,1,1
;   temperatureSetpointLayers,1,1
;   temperatureSetpointTemperatures,205,65
;   temperatureStabilizeAtStartup,1,1
;   temperatureHeatedBed,0,1
;   temperatureRelayBetweenLayers,0,0
;   temperatureRelayBetweenLoops,0,0
;   fanLayers,1,2
;   fanSpeeds,0,100
;   blipFanToFullPower,0
;   adjustSpeedForCooling,1
;   minSpeedLayerTime,15
;   minCoolingSpeedSlowdown,20
;   increaseFanForCooling,0
;   minFanLayerTime,45
;   maxCoolingFanSpeed,100
;   increaseFanForBridging,0
;   bridgingFanSpeed,100
;   use5D,1
;   relativeEdistances,0
;   allowEaxisZeroing,1
;   independentExtruderAxes,0
;   includeM10123,0
;   stickySupport,1
;   applyToolheadOffsets,0
;   gcodeXoffset,0
;   gcodeYoffset,0
;   gcodeZoffset,0
;   overrideMachineDefinition,0
;   machineTypeOverride,0
;   strokeXoverride,200
;   strokeYoverride,200
;   strokeZoverride,200
;   originOffsetXoverride,0
;   originOffsetYoverride,0
;   originOffsetZoverride,0
;   homeXdirOverride,-1
;   homeYdirOverride,-1
;   homeZdirOverride,-1
;   flipXoverride,1
;   flipYoverride,-1
;   flipZoverride,1
;   toolheadOffsets,0,0|0,0|0,0|0,0|0,0|0,0
;   overrideFirmwareConfiguration,0
;   firmwareTypeOverride,RepRap (Marlin/Repetier/Sprinter)
;   GPXconfigOverride,r2
;   baudRateOverride,115200
;   overridePrinterModels,0
;   printerModelsOverride
;   startingGcode,G28 ; home all axes
;   layerChangeGcode,
;   retractionGcode,
;   toolChangeGcode,
;   endingGcode,M104 S0 ; turn off extruder,M140 S0 ; turn off bed,M84 ; disable motors
;   exportFileFormat,gcode
;   celebration,0
;   celebrationSong,Random Song
;   postProcessing,
;   defaultSpeed,3600
;   outlineUnderspeed,0.5
;   solidInfillUnderspeed,0.8
;   supportUnderspeed,0.8
;   rapidXYspeed,4800
;   rapidZspeed,1002
;   minBridgingArea,50
;   bridgingExtraInflation,0
;   bridgingExtrusionMultiplier,1
;   bridgingSpeedMultiplier,1
;   useFixedBridgingAngle,0
;   fixedBridgingAngle,0
;   applyBridgingToPerimeters,0
;   filamentDiameters,1.75|1.75|1.75|1.75|1.75|1.75
;   filamentPricesPerKg,46|46|46|46|46|46
;   filamentDensities,1.25|1.25|1.25|1.25|1.25|1.25
;   useMinPrintHeight,0
;   minPrintHeight,0
;   useMaxPrintHeight,0
;   maxPrintHeight,0
;   useDiaphragm,0
;   diaphragmLayerInterval,20
;   robustSlicing,1
;   mergeAllIntoSolid,0
;   onlyRetractWhenCrossingOutline,1
;   retractBetweenLayers,1
;   useRetractionMinTravel,0
;   retractionMinTravel,3
;   retractWhileWiping,0
;   onlyWipeOutlines,1
;   avoidCrossingOutline,0
;   maxMovementDetourFactor,3
;   toolChangeRetractionDistance,12
;   toolChangeExtraRestartDistance,-0.5
;   toolChangeRetractionSpeed,600
;   externalThinWallType,0
;   internalThinWallType,2
;   thinWallAllowedOverlapPercentage,10
;   singleExtrusionMinLength,1
;   singleExtrusionMinPrintingWidthPercentage,50
;   singleExtrusionMaxPrintingWidthPercentage,200
;   singleExtrusionEndpointExtension,0.2
;   horizontalSizeCompensation,0
G90
M82
M106 S0
M140 S65
M190 S65
M104 S205 T0
M109 S205 T0
G28 ; home all axes
G92 E0
G1 E-1.0000 F1800
G1 Z0.300 F1002
; process Process1
; layer 1, Z = 0.300
T0
; tool H0.300 W0.400
; skirt
G1 X136.480 Y113.050 F4800
G1 E0.0000 F540
G92 E0
G1 X139.217 Y110.313 E0.1738 F1800
G1 X139.731 Y110.100 E0.1988
G1 X141.235 Y110.100 E0.2663
G1 X142.219 Y109.116 E0.3288
G1 X142.733 Y108.903 E0.3538
G1 X151.084 Y108.903 E0.7288
G1 X151.599 Y109.116 E0.7538
G1 X152.363 Y109.880 E0.8023
G1 X171.155 Y109.880 E1.6461
G1 X171.670 Y110.093 E1.6711
G1 X174.407 Y112.830 E1.8449
G1 X174.620 Y113.345 E1.8699
G1 X174.620 Y133.655 E2.7819
G1 X174.477 Y134.000 E2.7986
G1 X174.620 Y134.345 E2.8154
G1 X174.620 Y154.655 E3.7273
G1 X174.477 Y155.000 E3.7441
G1 X174.620 Y155.345 E3.7609
G1 X174.620 Y175.655 E4.6728
G1 X174.477 Y176.000 E4.6896
G1 X174.620 Y176.345 E4.7063
G1 X174.620 Y196.655 E5.6183
G1 X174.407 Y197.170 E5.6433
G1 X171.670 Y199.907 E5.8171
G1 X171.155 Y200.120 E5.8421
G1 X151.812 Y200.120 E6.7107
G1 X151.471 Y200.461 E6.7323
G1 X150.956 Y200.674 E6.7573
G1 X142.605 Y200.674 E7.1323
G1 X142.091 Y200.461 E7.1573
G1 X141.530 Y199.900 E7.1929
G1 X139.731 Y199.900 E7.2737
G1 X139.217 Y199.687 E7.2987
G1 X136.480 Y196.950 E7.4725
G1 X136.267 Y196.435 E7.4975
G1 X136.267 Y190.565 E7.7611
G1 X136.480 Y190.050 E7.7861
G1 X139.217 Y187.313 E7.9599
G1 X139.731 Y187.100 E7.9849
G1 X140.598 Y187.100 E8.0238
G1 X141.474 Y186.225 E8.0794
G1 X141.149 Y185.900 E8.1000
G1 X139.731 Y185.900 E8.1637
G1 X139.217 Y185.687 E8.1887
G1 X136.480 Y182.950 E8.3625
G1 X136.267 Y182.435 E8.3875
G1 X136.267 Y176.565 E8.6511
G1 X136.480 Y176.050 E8.6761
G1 X136.530 Y176.000 E8.6793
G1 X136.480 Y175.950 E8.6825
G1 X136.267 Y175.435 E8.7075
G1 X136.267 Y169.565 E8.9711
G1 X136.480 Y169.050 E8.9961
G1 X139.217 Y166.313 E9.1699
G1 X139.731 Y166.100 E9.1949
G1 X140.598 Y166.100 E9.2338
G1 X141.474 Y165.225 E9.2894
G1 X141.149 Y164.900 E9.3100
G1 X139.731 Y164.900 E9.3737
G1 X139.217 Y164.687 E9.3987
G1 X136.480 Y161.950 E9.5725
G1 X136.267 Y161.435 E9.5975
G1 X136.267 Y155.565 E9.8611
G1 X136.480 Y155.050 E9.8861
G1 X136.530 Y155.000 E9.8893
G1 X136.480 Y154.950 E9.8924
G1 X136.267 Y154.435 E9.9175
G1 X136.267 Y148.565 E10.1811
G1 X136.480 Y148.050 E10.2061
G1 X139.217 Y145.313 E10.3799
G1 X139.731 Y145.100 E10.4049
G1 X140.598 Y145.100 E10.4438
G1 X141.474 Y144.225 E10.4994
G1 X141.149 Y143.900 E10.5200
G1 X139.731 Y143.900 E10.5836
G1 X139.217 Y143.687 E10.6087
G1 X136.480 Y140.950 E10.7824
G1 X136.267 Y140.435 E10.8075
G1 X136.267 Y134.565 E11.0711
G1 X136.480 Y134.050 E11.0961
G1 X136.530 Y134.000 E11.0992
G1 X136.480 Y133.950 E11.1024
G1 X136.267 Y133.435 E11.1274
G1 X136.267 Y127.565 E11.3910
G1 X136.480 Y127.050 E11.4160
G1 X139.217 Y124.313 E11.5898
G1 X139.731 Y124.100 E11.6148
G1 X140.598 Y124.100 E11.6538
G1 X141.474 Y123.225 E11.7094
G1 X141.149 Y122.900 E11.7300
G1 X139.731 Y122.900 E11.7936
G1 X139.217 Y122.687 E11.8186
G1 X136.480 Y119.950 E11.9924
G1 X136.267 Y119.435 E12.0174
G1 X136.267 Y113.565 E12.2810
G1 X136.480 Y113.050 E12.3060
G1 X136.819 Y113.277 F4800
G92 E0
G1 X139.443 Y110.652 E0.1667 F1800
G1 X139.811 Y110.500 E0.1845
G1 X141.401 Y110.500 E0.2559
G1 X142.446 Y109.455 E0.3222
G1 X142.813 Y109.303 E0.3401
G1 X151.005 Y109.303 E0.7079
G1 X151.372 Y109.455 E0.7258
G1 X152.197 Y110.280 E0.7781
G1 X171.076 Y110.280 E1.6258
G1 X171.443 Y110.432 E1.6437
G1 X174.068 Y113.057 E1.8103
G1 X174.220 Y113.424 E1.8282
G1 X174.220 Y133.576 E2.7330
G1 X174.068 Y133.943 E2.7509
G1 X174.011 Y134.000 E2.7545
G1 X174.068 Y134.057 E2.7581
G1 X174.220 Y134.424 E2.7760
G1 X174.220 Y154.576 E3.6808
G1 X174.068 Y154.943 E3.6986
G1 X174.011 Y155.000 E3.7023
G1 X174.068 Y155.057 E3.7059
G1 X174.220 Y155.424 E3.7237
G1 X174.220 Y175.576 E4.6285
G1 X174.068 Y175.943 E4.6464
G1 X174.011 Y176.000 E4.6500
G1 X174.068 Y176.057 E4.6536
G1 X174.220 Y176.424 E4.6715
G1 X174.220 Y196.576 E5.5763
G1 X174.068 Y196.943 E5.5942
G1 X171.443 Y199.568 E5.7608
G1 X171.076 Y199.720 E5.7787
G1 X151.646 Y199.720 E6.6511
G1 X151.244 Y200.122 E6.6766
G1 X150.877 Y200.274 E6.6945
G1 X142.685 Y200.274 E7.0623
G1 X142.317 Y200.122 E7.0802
G1 X141.695 Y199.500 E7.1196
G1 X139.811 Y199.500 E7.2043
G1 X139.443 Y199.348 E7.2221
G1 X136.819 Y196.723 E7.3888
G1 X136.667 Y196.356 E7.4066
G1 X136.667 Y190.644 E7.6631
G1 X136.819 Y190.277 E7.6810
G1 X139.443 Y187.652 E7.8476
G1 X139.811 Y187.500 E7.8655
G1 X140.764 Y187.500 E7.9083
G1 X142.039 Y186.225 E7.9893
G1 X141.315 Y185.500 E8.0353
G1 X139.811 Y185.500 E8.1028
G1 X139.443 Y185.348 E8.1206
G1 X136.819 Y182.723 E8.2873
G1 X136.667 Y182.356 E8.3052
G1 X136.667 Y176.644 E8.5616
G1 X136.819 Y176.277 E8.5795
G1 X137.096 Y176.000 E8.5971
G1 X136.819 Y175.723 E8.6146
G1 X136.667 Y175.356 E8.6325
G1 X136.667 Y169.644 E8.8889
G1 X136.819 Y169.277 E8.9068
G1 X139.443 Y166.652 E9.0735
G1 X139.811 Y166.500 E9.0913
G1 X140.764 Y166.500 E9.1341
G1 X142.039 Y165.225 E9.2151
G1 X141.315 Y164.500 E9.2611
G1 X139.811 Y164.500 E9.3286
G1 X139.443 Y164.348 E9.3465
G1 X136.819 Y161.723 E9.5131
G1 X136.667 Y161.356 E9.5310
G1 X136.667 Y155.644 E9.7875
G1 X136.819 Y155.277 E9.8053
G1 X137.096 Y155.000 E9.8229
G1 X136.819 Y154.723 E9.8405
G1 X136.667 Y154.356 E9.8583
G1 X136.667 Y148.644 E10.1148
G1 X136.819 Y148.277 E10.1326
G1 X139.443 Y145.652 E10.2993
G1 X139.811 Y145.500 E10.3172
G1 X140.764 Y145.500 E10.3600
G1 X142.039 Y144.225 E10.4409
G1 X141.315 Y143.500 E10.4870
G1 X139.811 Y143.500 E10.5545
G1 X139.443 Y143.348 E10.5723
G1 X136.819 Y140.723 E10.7390
G1 X136.667 Y140.356 E10.7569
G1 X136.667 Y134.644 E11.0133
G1 X136.819 Y134.277 E11.0312
G1 X137.096 Y134.000 E11.0487
G1 X136.819 Y133.723 E11.0663
G1 X136.667 Y133.356 E11.0842
G1 X136.667 Y127.644 E11.3406
G1 X136.819 Y127.277 E11.3585
G1 X139.443 Y124.652 E11.5251
G1 X139.811 Y124.500 E11.5430
G1 X140.764 Y124.500 E11.5858
G1 X142.039 Y123.225 E11.6668
G1 X141.315 Y122.500 E11.7128
G1 X139.811 Y122.500 E11.7803
G1 X139.443 Y122.348 E11.7982
G1 X136.819 Y119.723 E11.9648
G1 X136.667 Y119.356 E11.9827
G1 X136.667 Y113.644 E12.2391
G1 X136.819 Y113.277 E12.2570
G1 X137.158 Y113.503 F4800
G92 E0
G1 X139.670 Y110.991 E0.1595 F1800
G1 X139.891 Y110.900 E0.1702
G1 X141.567 Y110.900 E0.2455
G1 X142.672 Y109.794 E0.3157
G1 X142.893 Y109.703 E0.3264
G1 X150.925 Y109.703 E0.6871
G1 X151.146 Y109.794 E0.6978
G1 X152.031 Y110.680 E0.7540
G1 X170.996 Y110.680 E1.6056
G1 X171.217 Y110.771 E1.6163
G1 X173.729 Y113.283 E1.7758
G1 X173.820 Y113.504 E1.7865
G1 X173.820 Y133.496 E2.6842
G1 X173.729 Y133.717 E2.6949
G1 X173.445 Y134.000 E2.7129
G1 X173.729 Y134.283 E2.7309
G1 X173.820 Y134.504 E2.7416
G1 X173.820 Y154.496 E3.6393
G1 X173.729 Y154.717 E3.6500
G1 X173.445 Y155.000 E3.6680
G1 X173.729 Y155.283 E3.6860
G1 X173.820 Y155.504 E3.6967
G1 X173.820 Y175.496 E4.5944
G1 X173.729 Y175.717 E4.6051
G1 X173.445 Y176.000 E4.6231
G1 X173.729 Y176.283 E4.6411
G1 X173.820 Y176.504 E4.6518
G1 X173.820 Y196.496 E5.5495
G1 X173.729 Y196.717 E5.5602
G1 X171.217 Y199.229 E5.7197
G1 X170.996 Y199.320 E5.7304
G1 X151.480 Y199.320 E6.6067
G1 X151.018 Y199.783 E6.6361
G1 X150.797 Y199.874 E6.6468
G1 X142.765 Y199.874 E7.0075
G1 X142.544 Y199.783 E7.0182
G1 X141.861 Y199.100 E7.0616
G1 X139.891 Y199.100 E7.1500
G1 X139.670 Y199.009 E7.1608
G1 X137.158 Y196.497 E7.3203
G1 X137.067 Y196.276 E7.3310
G1 X137.067 Y190.724 E7.5803
G1 X137.158 Y190.503 E7.5910
G1 X139.670 Y187.991 E7.7505
G1 X139.891 Y187.900 E7.7612
G1 X140.930 Y187.900 E7.8079
G1 X142.544 Y186.286 E7.9104
G1 X142.630 Y186.250 E7.9146
G1 X141.480 Y185.100 E7.9876
G1 X139.891 Y185.100 E8.0590
G1 X139.670 Y185.009 E8.0697
G1 X137.158 Y182.497 E8.2292
G1 X137.067 Y182.276 E8.2400
G1 X137.067 Y176.724 E8.4893
G1 X137.158 Y176.503 E8.5000
G1 X137.661 Y176.000 E8.5319
G1 X137.158 Y175.497 E8.5639
G1 X137.067 Y175.276 E8.5746
G1 X137.067 Y169.724 E8.8239
G1 X137.158 Y169.503 E8.8346
G1 X139.670 Y166.991 E8.9941
G1 X139.891 Y166.900 E9.0049
G1 X140.930 Y166.900 E9.0515
G1 X142.544 Y165.286 E9.1540
G1 X142.630 Y165.250 E9.1582
G1 X141.480 Y164.100 E9.2312
G1 X139.891 Y164.100 E9.3026
G1 X139.670 Y164.009 E9.3134
G1 X137.158 Y161.497 E9.4729
G1 X137.067 Y161.276 E9.4836
G1 X137.067 Y155.724 E9.7329
G1 X137.158 Y155.503 E9.7436
G1 X137.661 Y155.000 E9.7756
G1 X137.158 Y154.497 E9.8075
G1 X137.067 Y154.276 E9.8182
G1 X137.067 Y148.724 E10.0675
G1 X137.158 Y148.503 E10.0783
G1 X139.670 Y145.991 E10.2378
G1 X139.891 Y145.900 E10.2485
G1 X140.930 Y145.900 E10.2951
G1 X142.544 Y144.286 E10.3977
G1 X142.630 Y144.250 E10.4019
G1 X141.480 Y143.100 E10.4749
G1 X139.891 Y143.100 E10.5463
G1 X139.670 Y143.009 E10.5570
G1 X137.158 Y140.497 E10.7165
G1 X137.067 Y140.276 E10.7272
G1 X137.067 Y134.724 E10.9765
G1 X137.158 Y134.503 E10.9872
G1 X137.661 Y134.000 E11.0192
G1 X137.158 Y133.497 E11.0511
G1 X137.067 Y133.276 E11.0619
G1 X137.067 Y127.724 E11.3112
G1 X137.158 Y127.503 E11.3219
G1 X139.670 Y124.991 E11.4814
G1 X139.891 Y124.900 E11.4921
G1 X140.930 Y124.900 E11.5388
G1 X142.544 Y123.286 E11.6413
G1 X142.630 Y123.250 E11.6455
G1 X141.480 Y122.100 E11.7185
G1 X139.891 Y122.100 E11.7899
G1 X139.670 Y122.009 E11.8006
G1 X137.158 Y119.497 E11.9601
G1 X137.067 Y119.276 E11.9708
G1 X137.067 Y113.724 E12.2201
G1 X137.158 Y113.503 E12.2308
G1 X137.497 Y113.730 F4800
G92 E0
G1 X139.897 Y111.330 E0.1524 F1800
G1 X139.970 Y111.300 E0.1559
G1 X141.732 Y111.300 E0.2351
G1 X142.899 Y110.134 E0.3091
G1 X142.972 Y110.103 E0.3127
G1 X150.845 Y110.103 E0.6662
G1 X150.919 Y110.134 E0.6698
G1 X151.865 Y111.080 E0.7299
G1 X170.917 Y111.080 E1.5853
G1 X170.990 Y111.110 E1.5889
G1 X173.390 Y113.510 E1.7412
G1 X173.420 Y113.583 E1.7448
G1 X173.420 Y133.417 E2.6354
G1 X173.390 Y133.490 E2.6389
G1 X172.880 Y134.000 E2.6713
G1 X173.390 Y134.510 E2.7037
G1 X173.420 Y134.583 E2.7073
G1 X173.420 Y154.417 E3.5978
G1 X173.390 Y154.490 E3.6014
G1 X172.880 Y155.000 E3.6337
G1 X173.390 Y155.510 E3.6661
G1 X173.420 Y155.583 E3.6697
G1 X173.420 Y175.417 E4.5602
G1 X173.390 Y175.490 E4.5638
G1 X172.880 Y176.000 E4.5962
G1 X173.390 Y176.510 E4.6286
G1 X173.420 Y176.583 E4.6321
G1 X173.420 Y196.417 E5.5227
G1 X173.390 Y196.490 E5.5262
G1 X170.990 Y198.890 E5.6786
G1 X170.917 Y198.920 E5.6822
G1 X151.315 Y198.920 E6.5623
G1 X150.791 Y199.444 E6.5956
G1 X150.717 Y199.474 E6.5992
G1 X142.844 Y199.474 E6.9527
G1 X142.771 Y199.444 E6.9562
G1 X142.027 Y198.700 E7.0035
G1 X139.970 Y198.700 E7.0958
G1 X139.897 Y198.670 E7.0994
